; generated by Slic3r 1.3.1-dev on 2018-09-19 at 00:40:12

; external perimeters extrusion width = 0.55mm (4.37mm^3/s)
; perimeters extrusion width = 0.70mm (11.44mm^3/s)
; infill extrusion width = 0.63mm (13.45mm^3/s)
; solid infill extrusion width = 0.70mm (3.81mm^3/s)
; top infill extrusion width = 0.70mm (2.86mm^3/s)

M107
M104 S200 ; set temperature
G28 ; home all axes
G1 Z5 F5000 ; lift nozzle

; Filament gcode

M109 S200 ; set temperature and wait for it to be reached
G21 ; set units to millimeters
G90 ; use absolute coordinates
M82 ; use absolute distances for extrusion
G92 E0
G92 E0
G1 Z0.350 F7800.000
G1 E-2.00000 F2400.00000
G92 E0
G1 X92.875 Y92.565 F7800.000
G1 E2.00000 F2400.00000
G1 F894.991
G1 X93.473 Y92.034 E2.02475
G1 X93.823 Y91.760 E2.03849
G1 X94.550 Y91.264 E2.06573
G1 X94.861 Y91.076 E2.07697
G1 X95.569 Y90.705 E2.10171
G1 X95.974 Y90.523 E2.11545
G1 X96.722 Y90.239 E2.14020
G1 X97.146 Y90.107 E2.15394
G1 X97.922 Y89.915 E2.17868
G1 X98.359 Y89.835 E2.19242
G1 X99.153 Y89.739 E2.21717
G1 X99.538 Y89.716 E2.22910
G1 X100.396 Y89.712 E2.25565
G1 X100.839 Y89.739 E2.26938
G1 X101.633 Y89.835 E2.29414
G1 X102.070 Y89.915 E2.30787
G1 X102.846 Y90.107 E2.33262
G1 X103.270 Y90.239 E2.34636
G1 X104.059 Y90.541 E2.37249
G1 X104.423 Y90.705 E2.38484
G1 X105.131 Y91.076 E2.40958
G1 X105.511 Y91.306 E2.42332
G1 X106.169 Y91.760 E2.44807
G1 X106.519 Y92.034 E2.46180
G1 X107.118 Y92.565 E2.48656
G1 X107.431 Y92.879 E2.50029
G1 X107.962 Y93.477 E2.52504
G1 X108.236 Y93.827 E2.53877
G1 X108.690 Y94.485 E2.56352
G1 X108.920 Y94.865 E2.57725
G1 X109.291 Y95.573 E2.60201
G1 X109.474 Y95.978 E2.61574
G1 X109.757 Y96.726 E2.64049
G1 X109.889 Y97.150 E2.65422
G1 X110.081 Y97.926 E2.67898
G1 X110.140 Y98.252 E2.68923
G1 X110.257 Y99.157 E2.71746
G1 X110.284 Y99.600 E2.73119
G1 X110.284 Y100.400 E2.75594
G1 X110.257 Y100.843 E2.76967
G1 X110.161 Y101.637 E2.79442
G1 X110.081 Y102.074 E2.80816
G1 X109.889 Y102.850 E2.83291
G1 X109.761 Y103.261 E2.84622
G1 X109.474 Y104.022 E2.87139
G1 X109.291 Y104.427 E2.88512
G1 X108.920 Y105.135 E2.90988
G1 X108.690 Y105.515 E2.92361
G1 X108.236 Y106.173 E2.94836
G1 X107.962 Y106.523 E2.96209
G1 X107.431 Y107.121 E2.98684
G1 X107.118 Y107.435 E3.00058
G1 X106.519 Y107.966 E3.02533
G1 X106.169 Y108.240 E3.03906
G1 X105.511 Y108.694 E3.06381
G1 X105.131 Y108.924 E3.07754
G1 X104.423 Y109.295 E3.10230
G1 X104.018 Y109.477 E3.11603
G1 X103.270 Y109.761 E3.14078
G1 X102.847 Y109.893 E3.15451
G1 X102.070 Y110.085 E3.17927
G1 X101.633 Y110.165 E3.19300
G1 X100.839 Y110.261 E3.21775
G1 X100.396 Y110.288 E3.23148
G1 X99.596 Y110.288 E3.25624
G1 X99.153 Y110.261 E3.26997
G1 X98.359 Y110.165 E3.29472
G1 X97.922 Y110.085 E3.30845
G1 X97.146 Y109.893 E3.33320
G1 X96.722 Y109.761 E3.34693
G1 X95.974 Y109.477 E3.37169
G1 X95.569 Y109.295 E3.38542
G1 X94.861 Y108.924 E3.41017
G1 X94.481 Y108.694 E3.42390
G1 X93.823 Y108.240 E3.44865
G1 X93.473 Y107.966 E3.46239
G1 X92.875 Y107.435 E3.48714
G1 X92.561 Y107.121 E3.50087
G1 X92.030 Y106.523 E3.52563
G1 X91.757 Y106.173 E3.53936
G1 X91.291 Y105.496 E3.56480
G1 X91.073 Y105.135 E3.57784
G1 X90.701 Y104.427 E3.60259
G1 X90.519 Y104.022 E3.61632
G1 X90.235 Y103.274 E3.64107
G1 X90.103 Y102.850 E3.65481
G1 X89.912 Y102.074 E3.67954
G1 X89.832 Y101.637 E3.69329
G1 X89.735 Y100.839 E3.71818
G1 X89.708 Y100.400 E3.73178
G1 X89.708 Y99.600 E3.75653
G1 X89.735 Y99.157 E3.77027
G1 X89.832 Y98.363 E3.79501
G1 X89.912 Y97.926 E3.80875
G1 X90.103 Y97.150 E3.83350
G1 X90.235 Y96.725 E3.84725
G1 X90.519 Y95.978 E3.87198
G1 X90.701 Y95.573 E3.88572
G1 X91.073 Y94.865 E3.91046
G1 X91.302 Y94.485 E3.92420
G1 X91.757 Y93.827 E3.94895
G1 X92.030 Y93.477 E3.96268
G1 X92.561 Y92.879 E3.98744
G1 X92.822 Y92.618 E3.99885
G1 E1.99885 F2400.00000
G92 E0
G1 X102.325 Y102.208 F7800.000
G1 E2.00000 F2400.00000
G1 F1800
G1 X101.970 Y102.530 E2.02018
G1 X101.487 Y102.842 E2.04435
G1 X101.137 Y103.002 E2.06056
G1 X100.765 Y103.118 E2.07698
G1 X100.202 Y103.202 E2.10093
G1 X99.791 Y103.200 E2.11823
G1 X99.559 Y103.177 E2.12802
G1 X99.228 Y103.118 E2.14219
G1 X98.857 Y103.003 E2.15851
G1 X98.362 Y102.761 E2.18169
G1 X98.174 Y102.640 E2.19112
G1 X97.868 Y102.402 E2.20743
G1 X97.619 Y102.158 E2.22208
G1 X97.353 Y101.825 E2.24001
G1 X97.090 Y101.361 E2.26247
G1 X96.996 Y101.138 E2.27267
G1 X96.881 Y100.768 E2.28898
G1 X96.817 Y100.444 E2.30286
G1 X96.786 Y100.045 E2.31972
G1 X96.828 Y99.488 E2.34323
G1 X96.922 Y99.088 E2.36052
G1 X97.034 Y98.772 E2.37462
G1 X97.154 Y98.508 E2.38681
G1 X97.324 Y98.220 E2.40089
G1 X97.619 Y97.842 E2.42109
G1 X98.024 Y97.472 E2.44415
G1 X98.505 Y97.158 E2.46831
G1 X98.844 Y97.003 E2.48402
G1 X99.228 Y96.882 E2.50094
G1 X99.791 Y96.799 E2.52488
G1 X100.051 Y96.793 E2.53585
G1 X100.383 Y96.815 E2.54984
G1 X100.744 Y96.877 E2.56528
G1 X101.135 Y96.997 E2.58247
G1 X101.630 Y97.239 E2.60565
G1 X101.846 Y97.380 E2.61650
G1 X102.124 Y97.598 E2.63138
G1 X102.399 Y97.871 E2.64769
G1 X102.639 Y98.175 E2.66401
G1 X102.902 Y98.639 E2.68642
G1 X102.996 Y98.862 E2.69663
G1 X103.111 Y99.232 E2.71293
G1 X103.168 Y99.508 E2.72477
G1 X103.208 Y100.006 E2.74579
G1 X103.164 Y100.512 E2.76719
G1 X103.111 Y100.768 E2.77818
G1 X102.996 Y101.138 E2.79448
G1 X102.873 Y101.424 E2.80758
G1 X102.668 Y101.780 E2.82487
G1 X102.377 Y102.154 E2.84481
G1 X102.325 Y102.208 F7800.000
G1 Z0.650 F7800.000
G1 X102.199 Y102.072 F7800.000
G1 F696.622
G1 X101.883 Y102.366 E2.85371
G1 X101.509 Y102.620 E2.86303
G1 X101.102 Y102.817 E2.87235
G1 X100.669 Y102.950 E2.88167
G1 X100.222 Y103.017 E2.89099
G1 X99.770 Y103.017 E2.90031
G1 X99.323 Y102.950 E2.90963
G1 X98.891 Y102.817 E2.91895
G1 X98.511 Y102.634 E2.92764
G1 X98.111 Y102.367 E2.93756
G1 X97.778 Y102.058 E2.94691
G1 X97.496 Y101.704 E2.95623
G1 X97.270 Y101.313 E2.96555
G1 X97.105 Y100.892 E2.97487
G1 X97.004 Y100.451 E2.98419
G1 X96.973 Y100.031 E2.99288
G1 X97.004 Y99.550 E3.00280
G1 X97.105 Y99.108 E3.01214
G1 X97.270 Y98.687 E3.02147
G1 X97.496 Y98.296 E3.03079
G1 X97.778 Y97.942 E3.04011
G1 X98.110 Y97.634 E3.04943
G1 X98.483 Y97.380 E3.05875
G1 X98.938 Y97.160 E3.06916
G1 X99.326 Y97.050 E3.07746
G1 X99.770 Y96.983 E3.08672
G1 X100.222 Y96.983 E3.09604
G1 X100.639 Y97.046 E3.10473
G1 X101.100 Y97.183 E3.11465
G1 X101.509 Y97.380 E3.12400
G1 X101.883 Y97.634 E3.13332
G1 X102.214 Y97.942 E3.14264
G1 X102.496 Y98.296 E3.15196
G1 X102.722 Y98.687 E3.16128
G1 X102.887 Y99.108 E3.17060
G1 X102.988 Y99.549 E3.17992
G1 X103.022 Y100.000 E3.18924
G1 X102.988 Y100.451 E3.19857
G1 X102.894 Y100.862 E3.20725
G1 X102.723 Y101.312 E3.21717
G1 X102.496 Y101.704 E3.22652
G1 X102.248 Y102.016 E3.23472
G1 X102.326 Y102.485 F7800.000
G1 X102.690 Y102.563 F7800.000
G1 F696.622
G1 X102.466 Y102.788 E3.24126
G1 X102.112 Y103.065 E3.25053
G1 X101.727 Y103.298 E3.25980
G1 X101.431 Y103.431 E3.26650
G1 X100.884 Y103.617 E3.27840
G1 X100.445 Y103.697 E3.28760
G1 X99.996 Y103.724 E3.29687
G1 X99.547 Y103.697 E3.30613
G1 X99.105 Y103.616 E3.31540
G1 X98.675 Y103.482 E3.32467
G1 X98.265 Y103.298 E3.33394
G1 X97.880 Y103.065 E3.34321
G1 X97.526 Y102.788 E3.35248
G1 X97.208 Y102.470 E3.36175
G1 X96.932 Y102.117 E3.37099
G1 X96.678 Y101.686 E3.38131
G1 X96.514 Y101.321 E3.38956
G1 X96.380 Y100.891 E3.39882
G1 X96.299 Y100.449 E3.40809
G1 X96.272 Y100.000 E3.41736
G1 X96.299 Y99.551 E3.42663
G1 X96.380 Y99.109 E3.43590
G1 X96.514 Y98.679 E3.44517
G1 X96.678 Y98.314 E3.45342
G1 X96.932 Y97.883 E3.46374
G1 X97.208 Y97.530 E3.47298
G1 X97.526 Y97.212 E3.48224
G1 X97.880 Y96.935 E3.49151
G1 X98.265 Y96.702 E3.50078
G1 X98.675 Y96.518 E3.51005
G1 X99.105 Y96.384 E3.51932
G1 X99.547 Y96.303 E3.52859
G1 X99.996 Y96.276 E3.53786
G1 X100.445 Y96.303 E3.54713
G1 X100.887 Y96.384 E3.55640
G1 X101.317 Y96.518 E3.56567
G1 X101.724 Y96.701 E3.57488
G1 X102.190 Y96.996 E3.58625
G1 X102.466 Y97.212 E3.59347
G1 X102.784 Y97.530 E3.60274
G1 X103.061 Y97.884 E3.61201
G1 X103.294 Y98.269 E3.62128
G1 X103.479 Y98.679 E3.63055
G1 X103.612 Y99.109 E3.63982
G1 X103.693 Y99.551 E3.64909
G1 X103.721 Y100.000 E3.65836
G1 X103.693 Y100.449 E3.66763
G1 X103.612 Y100.891 E3.67690
G1 X103.479 Y101.321 E3.68617
G1 X103.294 Y101.731 E3.69543
G1 X103.061 Y102.116 E3.70470
G1 X102.743 Y102.510 E3.71515
G1 X102.381 Y102.491 F7800.000
G1 X102.449 Y102.313 F7800.000
G1 F928.829
G1 X102.095 Y102.639 E3.71664
G1 X101.563 Y102.985 E3.71862
G1 X101.232 Y103.136 E3.71974
G1 X100.796 Y103.277 E3.72117
G1 X100.243 Y103.363 E3.72291
G1 X99.996 Y103.371 E3.72367
G1 X99.590 Y103.347 E3.72494
G1 X99.240 Y103.288 E3.72604
G1 X98.800 Y103.155 E3.72747
G1 X98.334 Y102.934 E3.72907
G1 X98.082 Y102.773 E3.73000
G1 X97.761 Y102.523 E3.73126
G1 X97.520 Y102.291 E3.73230
G1 X97.221 Y101.920 E3.73378
G1 X96.955 Y101.459 E3.73543
G1 X96.844 Y101.195 E3.73632
G1 X96.723 Y100.807 E3.73758
G1 X96.660 Y100.498 E3.73856
G1 X96.623 Y100.037 E3.74000
G1 X96.661 Y99.495 E3.74169
G1 X96.723 Y99.193 E3.74264
G1 X96.844 Y98.805 E3.74391
G1 X96.989 Y98.475 E3.74503
G1 X97.206 Y98.103 E3.74636
G1 X97.520 Y97.709 E3.74793
G1 X97.897 Y97.361 E3.74952
G1 X98.429 Y97.015 E3.75149
G1 X98.810 Y96.838 E3.75280
G1 X99.189 Y96.724 E3.75403
G1 X99.749 Y96.637 E3.75579
G1 X99.996 Y96.629 E3.75656
G1 X100.402 Y96.653 E3.75782
G1 X100.803 Y96.727 E3.75908
G1 X101.193 Y96.845 E3.76035
G1 X101.685 Y97.084 E3.76205
G1 X101.988 Y97.283 E3.76317
G1 X102.232 Y97.477 E3.76414
G1 X102.472 Y97.709 E3.76518
G1 X102.773 Y98.083 E3.76667
G1 X103.037 Y98.541 E3.76831
G1 X103.148 Y98.805 E3.76920
G1 X103.269 Y99.193 E3.77047
G1 X103.344 Y99.594 E3.77173
G1 X103.371 Y99.995 E3.77298
G1 X103.330 Y100.508 E3.77458
G1 X103.269 Y100.807 E3.77553
G1 X103.147 Y101.195 E3.77679
G1 X102.982 Y101.567 E3.77805
G1 X102.787 Y101.897 E3.77924
G1 X102.501 Y102.259 E3.78068
G1 Z0.950 F7800.000
G1 X102.213 Y102.059 F7800.000
G1 F721.684
G1 X101.883 Y102.366 E3.78997
G1 X101.509 Y102.620 E3.79929
G1 X101.102 Y102.817 E3.80862
G1 X100.669 Y102.950 E3.81794
G1 X100.222 Y103.017 E3.82726
G1 X99.770 Y103.017 E3.83658
G1 X99.323 Y102.950 E3.84590
G1 X98.891 Y102.817 E3.85522
G1 X98.483 Y102.620 E3.86454
G1 X98.110 Y102.366 E3.87386
G1 X97.778 Y102.058 E3.88318
G1 X97.496 Y101.704 E3.89250
G1 X97.270 Y101.313 E3.90182
G1 X97.105 Y100.892 E3.91114
G1 X97.004 Y100.451 E3.92046
G1 X96.974 Y100.049 E3.92877
G1 X97.004 Y99.551 E3.93905
G1 X97.105 Y99.108 E3.94842
G1 X97.270 Y98.687 E3.95774
G1 X97.472 Y98.338 E3.96604
G1 X97.777 Y97.943 E3.97632
G1 X98.110 Y97.634 E3.98569
G1 X98.483 Y97.380 E3.99501
G1 X98.891 Y97.183 E4.00433
G1 X99.276 Y97.065 E4.01264
G1 X99.768 Y96.983 E4.02292
G1 X100.222 Y96.983 E4.03228
G1 X100.669 Y97.050 E4.04160
G1 X101.055 Y97.169 E4.04991
G1 X101.507 Y97.378 E4.06019
G1 X101.883 Y97.634 E4.06956
G1 X102.214 Y97.942 E4.07888
G1 X102.466 Y98.257 E4.08718
G1 X102.721 Y98.685 E4.09746
G1 X102.887 Y99.108 E4.10683
G1 X102.988 Y99.549 E4.11615
G1 X103.022 Y100.007 E4.12562
G1 X102.988 Y100.451 E4.13480
G1 X102.887 Y100.892 E4.14411
G1 X102.722 Y101.313 E4.15343
G1 X102.496 Y101.704 E4.16275
G1 X102.260 Y102.000 E4.17055
G1 X102.346 Y102.490 F7800.000
G1 X102.875 Y102.720 F7800.000
G1 F721.684
G1 X102.628 Y102.968 E4.17776
G1 X102.245 Y103.267 E4.18778
G1 X101.842 Y103.511 E4.19750
G1 X101.405 Y103.708 E4.20737
G1 X100.948 Y103.851 E4.21723
G1 X100.478 Y103.937 E4.22710
G1 X99.993 Y103.967 E4.23711
G1 X99.515 Y103.937 E4.24698
G1 X99.311 Y103.900 E4.25126
G1 X99.044 Y103.851 E4.25684
G1 X98.587 Y103.708 E4.26671
G1 X98.151 Y103.511 E4.27658
G1 X97.741 Y103.263 E4.28644
G1 X97.364 Y102.968 E4.29631
G1 X97.026 Y102.629 E4.30618
G1 X96.731 Y102.252 E4.31604
G1 X96.483 Y101.842 E4.32591
G1 X96.287 Y101.407 E4.33576
G1 X96.138 Y100.913 E4.34639
G1 X96.058 Y100.478 E4.35551
G1 X96.029 Y100.000 E4.36537
G1 X96.060 Y99.515 E4.37539
G1 X96.144 Y99.051 E4.38510
G1 X96.290 Y98.588 E4.39512
G1 X96.483 Y98.158 E4.40484
G1 X96.731 Y97.748 E4.41471
G1 X97.026 Y97.371 E4.42457
G1 X97.364 Y97.032 E4.43444
G1 X97.741 Y96.737 E4.44431
G1 X98.150 Y96.489 E4.45417
G1 X98.594 Y96.290 E4.46419
G1 X99.044 Y96.149 E4.47391
G1 X99.515 Y96.063 E4.48377
G1 X100.000 Y96.033 E4.49379
G1 X100.477 Y96.063 E4.50365
G1 X100.948 Y96.149 E4.51352
G1 X101.405 Y96.292 E4.52339
G1 X101.842 Y96.489 E4.53325
G1 X102.251 Y96.737 E4.54312
G1 X102.628 Y97.032 E4.55299
G1 X102.964 Y97.369 E4.56280
G1 X103.308 Y97.825 E4.57458
G1 X103.509 Y98.158 E4.58257
G1 X103.705 Y98.593 E4.59242
G1 X103.854 Y99.087 E4.60305
G1 X103.934 Y99.522 E4.61217
G1 X103.963 Y100.000 E4.62203
G1 X103.933 Y100.485 E4.63205
G1 X103.848 Y100.949 E4.64177
G1 X103.702 Y101.412 E4.65178
G1 X103.509 Y101.842 E4.66150
G1 X103.261 Y102.252 E4.67137
G1 X102.928 Y102.667 E4.68234
G1 X102.535 Y102.641 F7800.000
G1 X102.548 Y102.387 F7800.000
G1 F962.245
G1 X102.163 Y102.739 E4.68934
G1 X101.975 Y102.876 E4.69245
G1 X101.621 Y103.091 E4.69801
G1 X101.260 Y103.259 E4.70335
G1 X100.835 Y103.392 E4.70933
G1 X100.243 Y103.484 E4.71736
G1 X99.993 Y103.492 E4.72072
G1 X99.572 Y103.466 E4.72637
G1 X99.205 Y103.404 E4.73137
G1 X98.754 Y103.267 E4.73768
G1 X98.238 Y103.018 E4.74538
G1 X98.011 Y102.872 E4.74899
G1 X97.679 Y102.613 E4.75464
G1 X97.380 Y102.316 E4.76030
G1 X97.118 Y101.985 E4.76595
G1 X96.843 Y101.503 E4.77340
G1 X96.732 Y101.240 E4.77722
G1 X96.599 Y100.802 E4.78337
G1 X96.528 Y100.421 E4.78857
G1 X96.504 Y100.065 E4.79335
G1 X96.543 Y99.470 E4.80135
G1 X96.606 Y99.165 E4.80552
G1 X96.734 Y98.756 E4.81127
G1 X96.855 Y98.472 E4.81542
G1 X97.074 Y98.087 E4.82136
G1 X97.420 Y97.639 E4.82896
G1 X97.829 Y97.261 E4.83643
G1 X98.371 Y96.909 E4.84509
G1 X98.732 Y96.741 E4.85043
G1 X99.157 Y96.608 E4.85641
G1 X99.745 Y96.516 E4.86438
G1 X100.000 Y96.508 E4.86781
G1 X100.420 Y96.534 E4.87345
G1 X100.787 Y96.596 E4.87845
G1 X101.211 Y96.725 E4.88439
G1 X101.751 Y96.980 E4.89240
G1 X101.981 Y97.128 E4.89607
G1 X102.313 Y97.387 E4.90172
G1 X102.608 Y97.679 E4.90728
G1 X102.842 Y97.981 E4.91241
G1 X103.148 Y98.493 E4.92041
G1 X103.260 Y98.760 E4.92429
G1 X103.393 Y99.198 E4.93044
G1 X103.464 Y99.579 E4.93563
G1 X103.492 Y99.999 E4.94128
G1 X103.448 Y100.535 E4.94849
G1 X103.387 Y100.835 E4.95260
G1 X103.259 Y101.244 E4.95835
G1 X103.089 Y101.622 E4.96391
G1 X102.892 Y101.957 E4.96912
G1 X102.598 Y102.331 E4.97550
M106 S255
G1 Z1.250 F7800.000
G1 X102.214 Y102.058 F7800.000
G1 F723.286
G1 X101.883 Y102.366 E4.98482
G1 X101.509 Y102.620 E4.99414
G1 X101.102 Y102.817 E5.00346
G1 X100.669 Y102.950 E5.01278
G1 X100.222 Y103.017 E5.02210
G1 X99.770 Y103.017 E5.03143
G1 X99.323 Y102.950 E5.04075
G1 X98.891 Y102.817 E5.05007
G1 X98.483 Y102.620 E5.05939
G1 X98.110 Y102.366 E5.06871
G1 X97.778 Y102.058 E5.07803
G1 X97.496 Y101.704 E5.08735
G1 X97.270 Y101.313 E5.09667
G1 X97.105 Y100.892 E5.10599
G1 X97.004 Y100.451 E5.11531
G1 X96.970 Y100.000 E5.12463
G1 X97.004 Y99.549 E5.13395
G1 X97.105 Y99.108 E5.14327
G1 X97.270 Y98.687 E5.15259
G1 X97.496 Y98.296 E5.16191
G1 X97.778 Y97.942 E5.17123
G1 X98.110 Y97.634 E5.18056
G1 X98.483 Y97.380 E5.18988
G1 X98.830 Y97.213 E5.19781
G1 X99.320 Y97.051 E5.20845
G1 X99.770 Y96.983 E5.21783
G1 X100.222 Y96.983 E5.22715
G1 X100.669 Y97.050 E5.23647
G1 X101.037 Y97.164 E5.24440
G1 X101.507 Y97.378 E5.25504
G1 X101.883 Y97.634 E5.26442
G1 X102.214 Y97.942 E5.27374
G1 X102.496 Y98.296 E5.28306
G1 X102.722 Y98.687 E5.29238
G1 X102.887 Y99.108 E5.30170
G1 X102.988 Y99.549 E5.31102
G1 X103.022 Y100.000 E5.32034
G1 X102.988 Y100.451 E5.32966
G1 X102.887 Y100.892 E5.33898
G1 X102.722 Y101.313 E5.34830
G1 X102.496 Y101.704 E5.35762
G1 X102.261 Y101.999 E5.36540
G1 X102.214 Y102.058 F7800.000
G1 X102.888 Y102.729 F7800.000
G1 F723.286
G1 X102.646 Y102.973 E5.37249
G1 X102.233 Y103.293 E5.38326
G1 X101.860 Y103.519 E5.39225
G1 X101.423 Y103.718 E5.40214
G1 X100.966 Y103.862 E5.41202
G1 X100.496 Y103.950 E5.42188
G1 X99.975 Y103.982 E5.43263
G1 X99.497 Y103.951 E5.44251
G1 X99.309 Y103.916 E5.44645
G1 X99.027 Y103.862 E5.45237
G1 X98.569 Y103.718 E5.46225
G1 X98.133 Y103.519 E5.47213
G1 X97.726 Y103.272 E5.48195
G1 X97.264 Y102.890 E5.49431
G1 X97.009 Y102.634 E5.50175
G1 X96.714 Y102.256 E5.51163
