; generated by Slic3r 1.3.1-dev on 2018-09-19 at 00:40:14

; external perimeters extrusion width = 0.55mm (4.37mm^3/s)
; perimeters extrusion width = 0.70mm (11.44mm^3/s)
; infill extrusion width = 0.63mm (13.45mm^3/s)
; solid infill extrusion width = 0.70mm (3.81mm^3/s)
; top infill extrusion width = 0.70mm (2.86mm^3/s)

M107
M104 S200 ; set temperature
G28 ; home all axes
G1 Z5 F5000 ; lift nozzle

; Filament gcode

M109 S200 ; set temperature and wait for it to be reached
G21 ; set units to millimeters
G90 ; use absolute coordinates
M82 ; use absolute distances for extrusion
G92 E0
G92 E0
G1 Z0.350 F7800.000
G1 E-2.00000 F2400.00000
G92 E0
G1 X46.737 Y22.590 F7800.000
G1 E2.00000 F2400.00000
G1 F1800
G1 X47.849 Y20.584 E2.07096
G1 X49.578 Y19.078 E2.14192
G1 X51.717 Y18.251 E2.21289
G1 X53.000 Y18.125 E2.25278
G1 X147.000 Y18.125 E5.16126
G1 X149.259 Y18.522 E5.23222
G1 X151.247 Y19.665 E5.30319
G1 X152.726 Y21.418 E5.37415
G1 X153.263 Y22.590 E5.41404
G1 X160.763 Y44.340 E6.12590
G1 X161.125 Y46.500 E6.19366
G1 X161.125 Y80.500 E7.24566
G1 X161.104 Y81.023 E7.26185
G1 X153.604 Y175.773 E10.20271
G1 X153.030 Y177.993 E10.27367
G1 X151.734 Y179.885 E10.34463
G1 X149.870 Y181.221 E10.41559
G1 X147.000 Y181.875 E10.50666
G1 X53.000 Y181.875 E13.41514
G1 X50.741 Y181.478 E13.48610
G1 X48.753 Y180.335 E13.55707
G1 X47.274 Y178.582 E13.62803
G1 X46.396 Y175.773 E13.71909
G1 X38.896 Y81.023 E16.65995
G1 X38.875 Y80.500 E16.67614
G1 X38.875 Y46.500 E17.72814
G1 X39.237 Y44.340 E17.79590
G1 X46.713 Y22.661 E18.50544
G1 E16.50544 F2400.00000
G92 E0
G1 X111.350 Y152.400 F7800.000
G1 E2.00000 F2400.00000
G1 F1800
G1 X133.145 Y152.400 E2.67437
G1 X135.350 Y154.605 E2.77085
G1 X135.350 Y162.650 E3.01977
G1 X113.212 Y162.650 E3.70476
G1 X112.887 Y161.581 E3.73934
G1 X112.523 Y160.834 E3.76503
G1 X112.046 Y160.154 E3.79073
G1 X111.350 Y159.436 E3.82167
G1 X111.350 Y152.475 E4.03707
G1 X111.335 Y151.900 F7800.000
G1 E2.03707 F2400.00000
G92 E0
G1 X109.143 Y159.671 F7800.000
G1 E2.00000 F2400.00000
G1 F1800
G1 X110.268 Y160.116 E2.03743
G1 X111.080 Y160.953 E2.07351
G1 X111.443 Y161.471 E2.09307
G1 X111.720 Y162.039 E2.11263
G1 X112.033 Y163.069 E2.14593
G1 X111.936 Y164.186 E2.18063
G1 X111.760 Y164.851 E2.20193
G1 X111.472 Y165.477 E2.22323
G1 X111.082 Y166.043 E2.24453
G1 X110.599 Y166.535 E2.26582
G1 X110.040 Y166.936 E2.28712
G1 X109.420 Y167.235 E2.30842
G1 X108.758 Y167.423 E2.32972
G1 X108.073 Y167.495 E2.35102
G1 X107.386 Y167.448 E2.37232
G1 X106.718 Y167.284 E2.39362
G1 X106.087 Y167.008 E2.41492
G1 X105.513 Y166.628 E2.43622
G1 X105.013 Y166.154 E2.45752
G1 X104.602 Y165.602 E2.47882
G1 X104.292 Y164.988 E2.50012
G1 X104.091 Y164.329 E2.52142
G1 X104.007 Y163.646 E2.54272
G1 X104.041 Y162.959 E2.56402
G1 X104.193 Y162.287 E2.58532
G1 X104.458 Y161.652 E2.60662
G1 X104.827 Y161.071 E2.62792
G1 X105.291 Y160.563 E2.64922
G1 X105.836 Y160.141 E2.67052
G1 X106.445 Y159.820 E2.69182
G1 X107.099 Y159.607 E2.71312
G1 X107.781 Y159.510 E2.73442
G1 X108.469 Y159.532 E2.75572
G1 X109.070 Y159.656 E2.77470
G1 X109.373 Y159.090 F7800.000
G1 F1800
G1 X110.725 Y159.625 E2.81969
G1 X110.725 Y159.690 E2.82170
G1 X111.563 Y160.554 E2.85895
G1 X111.983 Y161.152 E2.88157
G1 X112.303 Y161.810 E2.90420
G1 X112.666 Y163.002 E2.94276
G1 X112.554 Y164.294 E2.98286
G1 X112.350 Y165.063 E3.00751
G1 X112.017 Y165.787 E3.03215
G1 X111.565 Y166.443 E3.05679
G1 X111.007 Y167.011 E3.08144
G1 X110.360 Y167.475 E3.10608
G1 X109.643 Y167.821 E3.13072
G1 X108.877 Y168.039 E3.15537
G1 X108.085 Y168.122 E3.18001
G1 X107.290 Y168.068 E3.20465
G1 X106.516 Y167.878 E3.22930
G1 X105.787 Y167.559 E3.25394
G1 X105.123 Y167.119 E3.27858
G1 X104.545 Y166.571 E3.30323
G1 X104.069 Y165.932 E3.32787
G1 X103.710 Y165.221 E3.35251
G1 X103.478 Y164.459 E3.37716
G1 X103.380 Y163.669 E3.40180
G1 X103.420 Y162.874 E3.42644
G1 X103.595 Y162.097 E3.45109
G1 X103.902 Y161.361 E3.47573
G1 X104.329 Y160.690 E3.50037
G1 X104.866 Y160.101 E3.52502
G1 X105.496 Y159.614 E3.54966
G1 X106.200 Y159.242 E3.57430
G1 X106.958 Y158.996 E3.59895
G1 X107.747 Y158.884 E3.62359
G1 X108.543 Y158.909 E3.64823
G1 X109.302 Y159.066 E3.67223
G1 E1.67223 F2400.00000
G92 E0
G1 X95.807 Y162.287 F7800.000
G1 E2.00000 F2400.00000
G1 F1800
G1 X95.959 Y162.959 E2.02130
G1 X95.993 Y163.646 E2.04260
G1 X95.943 Y164.048 E2.05512
G1 X95.909 Y164.329 E2.06390
G1 X95.708 Y164.988 E2.08520
G1 X95.398 Y165.602 E2.10650
G1 X94.987 Y166.154 E2.12780
G1 X94.487 Y166.628 E2.14910
G1 X93.913 Y167.008 E2.17040
G1 X93.282 Y167.284 E2.19170
G1 X92.614 Y167.448 E2.21300
G1 X91.927 Y167.495 E2.23430
G1 X91.242 Y167.423 E2.25560
G1 X90.580 Y167.235 E2.27690
G1 X90.216 Y167.059 E2.28941
G1 X89.960 Y166.936 E2.29820
G1 X89.401 Y166.535 E2.31950
G1 X88.918 Y166.043 E2.34080
G1 X88.528 Y165.477 E2.36210
G1 X88.240 Y164.851 E2.38340
G1 X88.064 Y164.186 E2.40470
G1 X87.967 Y163.069 E2.43939
G1 X88.280 Y162.039 E2.47269
G1 X88.557 Y161.471 E2.49225
G1 X88.920 Y160.953 E2.51181
G1 X89.732 Y160.116 E2.54789
G1 X90.857 Y159.671 E2.58532
G1 X91.531 Y159.532 E2.60662
G1 X92.219 Y159.510 E2.62792
G1 X92.901 Y159.607 E2.64922
G1 X93.555 Y159.820 E2.67052
G1 X94.164 Y160.141 E2.69182
G1 X94.708 Y160.563 E2.71312
G1 X95.173 Y161.071 E2.73442
G1 X95.542 Y161.652 E2.75572
G1 X95.778 Y162.218 E2.77470
G1 X96.384 Y162.047 F7800.000
G1 F1800
G1 X96.580 Y162.874 E2.80099
G1 X96.620 Y163.669 E2.82563
G1 X96.522 Y164.459 E2.85028
G1 X96.290 Y165.221 E2.87492
G1 X95.931 Y165.932 E2.89956
G1 X95.455 Y166.571 E2.92421
G1 X94.877 Y167.119 E2.94885
G1 X94.213 Y167.559 E2.97349
G1 X93.484 Y167.878 E2.99814
G1 X92.710 Y168.068 E3.02278
G1 X91.915 Y168.122 E3.04742
G1 X91.123 Y168.039 E3.07207
G1 X90.357 Y167.821 E3.09671
G1 X89.944 Y167.622 E3.11090
G1 X89.640 Y167.475 E3.12135
G1 X88.993 Y167.011 E3.14600
G1 X88.435 Y166.443 E3.17064
G1 X87.982 Y165.787 E3.19528
G1 X87.650 Y165.063 E3.21993
G1 X87.446 Y164.294 E3.24457
G1 X87.334 Y163.002 E3.28467
G1 X87.697 Y161.810 E3.32323
G1 X88.017 Y161.152 E3.34586
G1 X88.437 Y160.554 E3.36849
G1 X89.275 Y159.690 E3.40573
G1 X89.275 Y159.625 E3.40774
G1 X90.677 Y159.070 E3.45441
G1 X91.457 Y158.909 E3.47905
G1 X92.253 Y158.884 E3.50369
G1 X93.042 Y158.996 E3.52834
G1 X93.800 Y159.242 E3.55298
G1 X94.504 Y159.614 E3.57762
G1 X95.134 Y160.101 E3.60227
G1 X95.671 Y160.690 E3.62691
G1 X96.098 Y161.361 E3.65155
G1 X96.355 Y161.978 E3.67220
G1 E1.67220 F2400.00000
G92 E0
G1 X86.788 Y162.650 F7800.000
G1 E2.00000 F2400.00000
G1 F1800
G1 X64.650 Y162.650 E2.68498
G1 X64.650 Y154.605 E2.93390
G1 X66.855 Y152.400 E3.03039
G1 X88.650 Y152.400 E3.70476
G1 X88.650 Y159.436 E3.92248
G1 X87.954 Y160.154 E3.95342
G1 X87.477 Y160.834 E3.97911
G1 X87.113 Y161.581 E4.00481
G1 X86.810 Y162.578 E4.03707
G1 X86.728 Y163.146 F7800.000
G1 E2.03707 F2400.00000
G92 E0
G1 X87.850 Y114.150 F7800.000
G1 E2.00000 F2400.00000
G1 F1800
G1 X87.850 Y148.145 E3.05185
G1 X84.145 Y151.850 E3.21397
G1 X70.855 Y151.850 E3.62518
G1 X64.650 Y145.645 E3.89670
G1 X64.650 Y114.150 E4.87119
G1 X87.775 Y114.150 E5.58671
G1 X88.326 Y113.997 F7800.000
G1 E3.58671 F2400.00000
G92 E0
G1 X112.150 Y114.150 F7800.000
G1 E2.00000 F2400.00000
G1 F1800
G1 X135.350 Y114.150 E2.71784
G1 X135.350 Y145.645 E3.69233
G1 X129.145 Y151.850 E3.96385
G1 X115.855 Y151.850 E4.37506
G1 X112.150 Y148.145 E4.53718
G1 X112.150 Y114.225 E5.58671
G1 X112.134 Y113.650 F7800.000
G1 E3.58671 F2400.00000
G92 E0
G1 X112.150 Y85.850 F7800.000
G1 E2.00000 F2400.00000
G1 F1800
G1 X112.150 Y48.150 E3.16649
G1 X135.350 Y48.150 E3.88433
G1 X135.350 Y85.850 E5.05081
G1 X112.225 Y85.850 E5.76633
G1 X111.679 Y86.017 F7800.000
G1 E3.76633 F2400.00000
G92 E0
G1 X111.350 Y47.600 F7800.000
G1 E2.00000 F2400.00000
G1 F1800
G1 X111.350 Y40.564 E2.21772
G1 X112.046 Y39.846 E2.24866
G1 X112.523 Y39.166 E2.27435
G1 X112.887 Y38.419 E2.30005
G1 X113.212 Y37.350 E2.33463
G1 X135.350 Y37.350 E3.01961
G1 X135.350 Y45.395 E3.26853
G1 X133.145 Y47.600 E3.36502
G1 X111.425 Y47.600 E4.03706
G1 X110.850 Y47.615 F7800.000
G1 E2.03706 F2400.00000
G92 E0
G1 X109.143 Y40.329 F7800.000
G1 E2.00000 F2400.00000
G1 F1800
G1 X108.469 Y40.468 E2.02130
G1 X107.781 Y40.490 E2.04260
G1 X107.099 Y40.393 E2.06390
G1 X106.445 Y40.180 E2.08520
G1 X105.836 Y39.859 E2.10650
G1 X105.292 Y39.438 E2.12780
G1 X104.827 Y38.929 E2.14910
G1 X104.458 Y38.348 E2.17040
G1 X104.193 Y37.713 E2.19170
G1 X104.041 Y37.041 E2.21300
G1 X104.007 Y36.354 E2.23430
G1 X104.091 Y35.671 E2.25560
G1 X104.292 Y35.012 E2.27690
G1 X104.602 Y34.398 E2.29820
G1 X105.013 Y33.846 E2.31950
G1 X105.513 Y33.372 E2.34080
G1 X106.087 Y32.992 E2.36210
G1 X106.718 Y32.716 E2.38340
G1 X107.386 Y32.552 E2.40470
G1 X108.073 Y32.505 E2.42600
G1 X108.758 Y32.577 E2.44730
G1 X109.420 Y32.765 E2.46860
G1 X110.040 Y33.064 E2.48990
G1 X110.599 Y33.465 E2.51119
G1 X111.082 Y33.957 E2.53249
G1 X111.472 Y34.523 E2.55379
G1 X111.760 Y35.149 E2.57509
G1 X111.936 Y35.814 E2.59639
G1 X112.033 Y36.931 E2.63109
G1 X111.720 Y37.961 E2.66439
G1 X111.443 Y38.529 E2.68395
G1 X111.080 Y39.047 E2.70351
G1 X110.268 Y39.884 E2.73959
G1 X109.213 Y40.301 E2.77470
G1 X109.373 Y40.910 F7800.000
G1 F1800
G1 X108.543 Y41.091 E2.80099
G1 X107.747 Y41.116 E2.82563
G1 X106.958 Y41.004 E2.85028
G1 X106.200 Y40.758 E2.87492
G1 X105.496 Y40.386 E2.89956
G1 X104.866 Y39.899 E2.92421
G1 X104.329 Y39.310 E2.94885
G1 X103.902 Y38.639 E2.97349
G1 X103.595 Y37.903 E2.99814
G1 X103.420 Y37.126 E3.02278
G1 X103.380 Y36.331 E3.04742
G1 X103.478 Y35.541 E3.07207
G1 X103.710 Y34.779 E3.09671
G1 X104.069 Y34.068 E3.12135
G1 X104.545 Y33.429 E3.14600
G1 X105.123 Y32.881 E3.17064
G1 X105.787 Y32.441 E3.19528
G1 X106.516 Y32.122 E3.21993
G1 X107.290 Y31.932 E3.24457
G1 X108.085 Y31.878 E3.26921
G1 X108.877 Y31.961 E3.29386
G1 X109.643 Y32.179 E3.31850
G1 X110.360 Y32.525 E3.34315
G1 X111.007 Y32.989 E3.36779
G1 X111.565 Y33.557 E3.39243
G1 X112.017 Y34.213 E3.41707
G1 X112.350 Y34.937 E3.44172
G1 X112.554 Y35.707 E3.46636
G1 X112.666 Y36.998 E3.50646
G1 X112.303 Y38.190 E3.54503
G1 X111.983 Y38.848 E3.56765
G1 X111.563 Y39.446 E3.59028
G1 X110.725 Y40.310 E3.62752
G1 X110.725 Y40.375 E3.62953
G1 X109.443 Y40.882 E3.67220
G1 E1.67220 F2400.00000
G92 E0
G1 X95.807 Y37.713 F7800.000
G1 E2.00000 F2400.00000
G1 F1800
G1 X95.542 Y38.348 E2.02130
G1 X95.173 Y38.929 E2.04260
G1 X94.708 Y39.438 E2.06390
G1 X94.164 Y39.859 E2.08520
G1 X93.555 Y40.180 E2.10650
G1 X92.901 Y40.393 E2.12780
G1 X92.219 Y40.490 E2.14910
G1 X91.531 Y40.468 E2.17040
G1 X90.857 Y40.329 E2.19170
G1 X89.732 Y39.884 E2.22913
G1 X88.920 Y39.047 E2.26521
G1 X88.557 Y38.529 E2.28477
G1 X88.280 Y37.961 E2.30433
G1 X87.967 Y36.931 E2.33763
G1 X88.064 Y35.814 E2.37232
G1 X88.240 Y35.149 E2.39362
G1 X88.528 Y34.523 E2.41492
G1 X88.918 Y33.957 E2.43622
G1 X89.401 Y33.465 E2.45752
G1 X89.960 Y33.064 E2.47882
G1 X90.580 Y32.765 E2.50012
G1 X91.242 Y32.577 E2.52142
G1 X91.927 Y32.505 E2.54272
G1 X92.614 Y32.552 E2.56402
G1 X93.282 Y32.716 E2.58532
G1 X93.913 Y32.992 E2.60662
G1 X94.487 Y33.372 E2.62792
G1 X94.987 Y33.846 E2.64922
G1 X95.398 Y34.398 E2.67052
G1 X95.708 Y35.012 E2.69182
G1 X95.909 Y35.671 E2.71312
G1 X95.993 Y36.354 E2.73442
G1 X95.959 Y37.041 E2.75572
G1 X95.824 Y37.640 E2.77470
G1 X96.384 Y37.953 F7800.000
G1 F1800
G1 X96.098 Y38.639 E2.79767
G1 X95.671 Y39.310 E2.82231
G1 X95.134 Y39.899 E2.84696
G1 X94.504 Y40.386 E2.87160
G1 X93.800 Y40.758 E2.89624
G1 X93.042 Y41.004 E2.92089
G1 X92.253 Y41.116 E2.94553
G1 X91.457 Y41.091 E2.97017
G1 X90.677 Y40.930 E2.99482
G1 X89.275 Y40.375 E3.04148
G1 X89.275 Y40.310 E3.04349
G1 X88.437 Y39.446 E3.08074
G1 X88.017 Y38.848 E3.10336
G1 X87.697 Y38.190 E3.12599
G1 X87.334 Y36.998 E3.16455
G1 X87.446 Y35.707 E3.20465
G1 X87.650 Y34.937 E3.22929
G1 X87.983 Y34.213 E3.25394
G1 X88.435 Y33.557 E3.27858
G1 X88.993 Y32.989 E3.30322
G1 X89.640 Y32.525 E3.32787
G1 X90.357 Y32.179 E3.35251
G1 X91.123 Y31.961 E3.37716
G1 X91.915 Y31.878 E3.40180
G1 X92.710 Y31.932 E3.42644
G1 X93.484 Y32.122 E3.45109
G1 X94.213 Y32.441 E3.47573
G1 X94.877 Y32.881 E3.50037
G1 X95.455 Y33.429 E3.52502
G1 X95.931 Y34.068 E3.54966
G1 X96.290 Y34.779 E3.57430
G1 X96.522 Y35.541 E3.59895
G1 X96.620 Y36.331 E3.62359
G1 X96.580 Y37.126 E3.64823
G1 X96.409 Y37.883 E3.67223
G1 E1.67223 F2400.00000
G92 E0
G1 X86.788 Y37.350 F7800.000
G1 E2.00000 F2400.00000
G1 F1800
G1 X87.113 Y38.419 E2.03458
G1 X87.477 Y39.166 E2.06027
G1 X87.954 Y39.846 E2.08597
G1 X88.650 Y40.564 E2.11691
G1 X88.650 Y47.600 E2.33463
G1 X66.855 Y47.600 E3.00899
G1 X64.650 Y45.395 E3.10548
G1 X64.650 Y37.350 E3.35440
G1 X86.713 Y37.350 E4.03706
G1 X87.264 Y37.196 F7800.000
G1 E2.03706 F2400.00000
G92 E0
G1 X110.900 Y93.400 F7800.000
G1 E2.00000 F2400.00000
G1 F1800
G1 X136.600 Y93.400 E2.79518
G1 X136.600 Y106.600 E3.20359
G1 X110.900 Y106.600 E3.99877
G1 X110.900 Y93.475 E4.40486
G1 X111.525 Y94.025 F7800.000
G1 F1800
G1 X135.975 Y94.025 E5.16137
G1 X135.975 Y105.975 E5.53111
G1 X111.525 Y105.975 E6.28762
G1 X111.525 Y94.100 E6.65504
G1 X112.150 Y94.650 F7800.000
G1 F1800
G1 X135.350 Y94.650 E7.37288
G1 X135.350 Y105.350 E7.70395
G1 X112.150 Y105.350 E8.42179
G1 X112.150 Y94.725 E8.75054
G1 X111.965 Y94.186 F7800.000
G1 E6.75054 F2400.00000
G92 E0
G1 X89.100 Y93.400 F7800.000
G1 E2.00000 F2400.00000
G1 F1800
G1 X89.100 Y106.600 E2.40841
G1 X63.400 Y106.600 E3.20359
G1 X63.400 Y93.400 E3.61200
G1 X89.025 Y93.400 E4.40486
G1 X88.475 Y94.025 F7800.000
G1 F1800
G1 X88.475 Y105.975 E4.77460
G1 X64.025 Y105.975 E5.53111
G1 X64.025 Y94.025 E5.90085
G1 X88.400 Y94.025 E6.65504
G1 X87.850 Y94.650 F7800.000
G1 F1800
G1 X87.850 Y105.350 E6.98611
G1 X64.650 Y105.350 E7.70395
G1 X64.650 Y94.650 E8.03502
G1 X87.775 Y94.650 E8.75054
G1 X88.345 Y94.578 F7800.000
G1 E6.75054 F2400.00000
G92 E0
G1 X89.100 Y87.100 F7800.000
G1 E2.00000 F2400.00000
G1 F1800
G1 X89.100 Y48.850 E3.18351
G1 X110.900 Y48.850 E3.85804
G1 X110.900 Y87.100 E5.04155
G1 X136.600 Y87.100 E5.83672
G1 X136.600 Y46.900 E7.08055
G1 X135.612 Y46.900 E7.11111
G1 X136.600 Y45.913 E7.15432
G1 X136.600 Y28.413 E7.69579
G1 X138.663 Y26.350 E7.78606
G1 X145.400 Y26.350 E7.99453
G1 X145.400 Y173.650 E12.55220
G1 X138.663 Y173.650 E12.76067
G1 X136.600 Y171.587 E12.85093
G1 X136.600 Y154.087 E13.39241
G1 X133.663 Y151.150 E13.52093
G1 X131.612 Y151.150 E13.58437
G1 X136.600 Y146.163 E13.80262
G1 X136.600 Y112.900 E14.83180
G1 X110.900 Y112.900 E15.62698
G1 X110.900 Y148.663 E16.73352
G1 X113.388 Y151.150 E16.84237
G1 X86.612 Y151.150 E17.67084
G1 X89.100 Y148.663 E17.77969
G1 X89.100 Y112.900 E18.88622
G1 X63.400 Y112.900 E19.68140
G1 X63.400 Y146.163 E20.71058
G1 X68.388 Y151.150 E20.92883
G1 X66.337 Y151.150 E20.99227
G1 X63.400 Y154.087 E21.12079
G1 X63.400 Y171.587 E21.66227
G1 X61.337 Y173.650 E21.75253
G1 X54.600 Y173.650 E21.96100
G1 X54.600 Y26.350 E26.51867
G1 X61.337 Y26.350 E26.72714
G1 X63.400 Y28.413 E26.81741
G1 X63.400 Y45.913 E27.35888
G1 X64.388 Y46.900 E27.40209
G1 X63.400 Y46.900 E27.43265
G1 X63.400 Y87.100 E28.67648
G1 X89.025 Y87.100 E29.46934
G1 X88.475 Y86.475 F7800.000
G1 F1800
G1 X88.475 Y48.225 E30.65284
G1 X111.525 Y48.225 E31.36605
G1 X111.525 Y86.475 E32.54955
G1 X135.975 Y86.475 E33.30606
G1 X135.975 Y47.525 E34.51122
G1 X134.104 Y47.525 E34.56912
G1 X135.975 Y45.654 E34.65100
G1 X135.975 Y28.154 E35.19247
G1 X138.404 Y25.725 E35.29876
G1 X146.025 Y25.725 E35.53457
G1 X146.025 Y174.275 E40.13091
G1 X138.404 Y174.275 E40.36672
G1 X135.975 Y171.846 E40.47301
G1 X135.975 Y154.346 E41.01448
G1 X133.404 Y151.775 E41.12698
G1 X130.104 Y151.775 E41.22910
G1 X135.975 Y145.904 E41.48601
G1 X135.975 Y113.525 E42.48785
G1 X111.525 Y113.525 E43.24436
G1 X111.525 Y148.404 E44.32355
G1 X114.896 Y151.775 E44.47107
G1 X85.104 Y151.775 E45.39290
G1 X88.475 Y148.404 E45.54042
G1 X88.475 Y113.525 E46.61961
G1 X64.025 Y113.525 E47.37612
G1 X64.025 Y145.904 E48.37796
G1 X69.896 Y151.775 E48.63488
G1 X66.596 Y151.775 E48.73699
G1 X64.025 Y154.346 E48.84949
G1 X64.025 Y171.846 E49.39097
G1 X61.596 Y174.275 E49.49725
G1 X53.975 Y174.275 E49.73306
G1 X53.975 Y25.725 E54.32940
G1 X61.596 Y25.725 E54.56522
