; generated by Slic3r 1.3.1-dev on 2018-09-19 at 00:40:04

; external perimeters extrusion width = 0.55mm (4.37mm^3/s)
; perimeters extrusion width = 0.70mm (11.44mm^3/s)
; infill extrusion width = 0.63mm (13.45mm^3/s)
; solid infill extrusion width = 0.70mm (3.81mm^3/s)
; top infill extrusion width = 0.70mm (2.86mm^3/s)

M107
M104 S200 ; set temperature
G28 ; home all axes
G1 Z5 F5000 ; lift nozzle

; Filament gcode

M109 S200 ; set temperature and wait for it to be reached
G21 ; set units to millimeters
G90 ; use absolute coordinates
M82 ; use absolute distances for extrusion
G92 E0
G92 E0
G1 Z0.350 F7800.000
G1 E-2.00000 F2400.00000
G92 E0
G1 X87.415 Y83.253 F7800.000
G1 E2.00000 F2400.00000
G1 F1800
G1 X89.168 Y81.774 E2.07096
G1 X91.320 Y80.981 E2.14192
G1 X92.500 Y80.875 E2.17858
G1 X107.500 Y80.875 E2.64270
G1 X109.759 Y81.272 E2.71366
G1 X111.747 Y82.415 E2.78462
G1 X113.226 Y84.168 E2.85558
G1 X114.019 Y86.320 E2.92654
G1 X114.125 Y87.500 E2.96320
G1 X114.125 Y112.500 E3.73673
G1 X113.728 Y114.759 E3.80769
G1 X112.585 Y116.747 E3.87865
G1 X110.832 Y118.226 E3.94962
G1 X108.680 Y119.019 E4.02058
G1 X107.500 Y119.125 E4.05723
G1 X92.500 Y119.125 E4.52135
G1 X90.241 Y118.728 E4.59231
G1 X88.253 Y117.585 E4.66327
G1 X86.774 Y115.832 E4.73424
G1 X85.981 Y113.680 E4.80520
G1 X85.875 Y112.500 E4.84185
G1 X85.875 Y87.500 E5.61538
G1 X86.272 Y85.241 E5.68634
G1 X87.378 Y83.318 E5.75499
G1 E3.75499 F2400.00000
G92 E0
G1 X105.351 Y93.110 F7800.000
G1 E2.00000 F2400.00000
G1 F1800
G1 X105.051 Y93.320 E2.01133
G1 X104.719 Y93.475 E2.02267
G1 X104.365 Y93.569 E2.03400
G1 X104.000 Y93.601 E2.04533
G1 X103.635 Y93.569 E2.05667
G1 X103.281 Y93.475 E2.06800
G1 X102.949 Y93.320 E2.07933
G1 X102.649 Y93.110 E2.09067
G1 X102.390 Y92.851 E2.10200
G1 X102.180 Y92.551 E2.11333
G1 X102.025 Y92.219 E2.12467
G1 X101.931 Y91.865 E2.13600
G1 X101.899 Y91.500 E2.14733
G1 X101.931 Y91.135 E2.15867
G1 X102.025 Y90.781 E2.17000
G1 X102.180 Y90.449 E2.18133
G1 X102.390 Y90.149 E2.19267
G1 X102.649 Y89.890 E2.20400
G1 X102.949 Y89.680 E2.21533
G1 X103.281 Y89.525 E2.22667
G1 X103.635 Y89.431 E2.23800
G1 X103.981 Y89.400 E2.24873
G1 X104.363 Y89.430 E2.26061
G1 X104.719 Y89.525 E2.27199
G1 X105.051 Y89.680 E2.28333
G1 X105.351 Y89.890 E2.29466
G1 X105.610 Y90.149 E2.30599
G1 X105.820 Y90.449 E2.31733
G1 X105.966 Y90.764 E2.32806
G1 X106.069 Y91.133 E2.33993
G1 X106.101 Y91.500 E2.35132
G1 X106.069 Y91.865 E2.36265
G1 X105.975 Y92.219 E2.37399
G1 X105.820 Y92.551 E2.38532
G1 X105.610 Y92.851 E2.39665
G1 X105.404 Y93.057 E2.40567
G1 X105.351 Y93.110 F7800.000
G1 X105.900 Y94.303 F7800.000
G1 F1800
G1 X105.900 Y110.900 E2.91922
G1 X103.421 Y110.900 E2.99593
G1 X103.625 Y110.139 E3.02030
G1 X103.682 Y109.487 E3.04057
G1 X103.612 Y108.811 E3.06159
G1 X103.459 Y108.241 E3.07985
G1 X103.188 Y107.660 E3.09970
G1 X102.820 Y107.134 E3.11955
G1 X102.366 Y106.680 E3.13941
G1 X101.840 Y106.312 E3.15926
G1 X101.259 Y106.041 E3.17911
G1 X100.626 Y105.872 E3.19938
G1 X99.949 Y105.824 E3.22039
G1 X99.361 Y105.875 E3.23865
G1 X98.741 Y106.041 E3.25851
G1 X98.160 Y106.312 E3.27836
G1 X97.634 Y106.680 E3.29821
G1 X97.180 Y107.134 E3.31806
G1 X96.812 Y107.660 E3.33792
G1 X96.541 Y108.241 E3.35777
G1 X96.375 Y108.861 E3.37762
G1 X96.319 Y109.500 E3.39747
G1 X96.375 Y110.139 E3.41733
G1 X96.579 Y110.900 E3.44171
G1 X94.100 Y110.900 E3.51841
G1 X94.100 Y94.303 E4.03197
G1 X94.852 Y94.654 E4.05765
G1 X95.417 Y94.805 E4.07575
G1 X96.000 Y94.856 E4.09385
G1 X96.583 Y94.805 E4.11195
G1 X97.148 Y94.653 E4.13005
G1 X97.678 Y94.406 E4.14815
G1 X98.157 Y94.071 E4.16625
G1 X98.571 Y93.657 E4.18435
G1 X98.906 Y93.178 E4.20245
G1 X99.153 Y92.648 E4.22055
G1 X99.305 Y92.083 E4.23865
G1 X99.356 Y91.500 E4.25675
G1 X99.305 Y90.917 E4.27485
G1 X99.153 Y90.352 E4.29295
G1 X98.906 Y89.822 E4.31105
G1 X98.401 Y89.100 E4.33833
G1 X101.599 Y89.100 E4.43731
G1 X101.094 Y89.822 E4.46459
G1 X100.846 Y90.352 E4.48269
G1 X100.695 Y90.917 E4.50079
G1 X100.644 Y91.500 E4.51889
G1 X100.695 Y92.083 E4.53699
G1 X100.846 Y92.648 E4.55509
G1 X101.094 Y93.178 E4.57319
G1 X101.429 Y93.657 E4.59129
G1 X101.843 Y94.071 E4.60939
G1 X102.322 Y94.406 E4.62749
G1 X102.852 Y94.654 E4.64559
G1 X103.417 Y94.805 E4.66369
G1 X104.000 Y94.856 E4.68179
G1 X104.583 Y94.805 E4.69989
G1 X105.148 Y94.654 E4.71799
G1 X105.832 Y94.334 E4.74136
G1 X106.525 Y93.090 F7800.000
G1 F1800
G1 X106.525 Y111.525 E5.31176
G1 X102.296 Y111.525 E5.44263
G1 X102.645 Y111.027 E5.46145
G1 X102.869 Y110.544 E5.47792
G1 X103.007 Y110.030 E5.49439
G1 X103.054 Y109.492 E5.51111
G1 X102.995 Y108.925 E5.52875
G1 X102.869 Y108.456 E5.54379
G1 X102.645 Y107.973 E5.56026
G1 X102.339 Y107.537 E5.57673
G1 X101.963 Y107.161 E5.59319
G1 X101.527 Y106.855 E5.60966
G1 X101.044 Y106.631 E5.62613
G1 X100.522 Y106.491 E5.64285
G1 X99.954 Y106.450 E5.66049
G1 X99.470 Y106.493 E5.67553
G1 X98.956 Y106.631 E5.69200
G1 X98.473 Y106.855 E5.70846
G1 X98.037 Y107.161 E5.72493
G1 X97.661 Y107.537 E5.74140
G1 X97.355 Y107.973 E5.75787
G1 X97.131 Y108.456 E5.77434
G1 X96.993 Y108.970 E5.79081
G1 X96.946 Y109.500 E5.80728
G1 X96.993 Y110.030 E5.82375
G1 X97.131 Y110.544 E5.84022
G1 X97.355 Y111.027 E5.85669
G1 X97.704 Y111.525 E5.87551
G1 X93.475 Y111.525 E6.00638
G1 X93.475 Y93.090 E6.57679
G1 X93.737 Y93.007 E6.58529
G1 X93.910 Y93.254 E6.59461
G1 X94.246 Y93.590 E6.60933
G1 X94.636 Y93.863 E6.62404
G1 X95.067 Y94.064 E6.63876
G1 X95.526 Y94.187 E6.65347
G1 X96.000 Y94.229 E6.66819
G1 X96.474 Y94.187 E6.68291
G1 X96.933 Y94.064 E6.69762
G1 X97.364 Y93.863 E6.71234
G1 X97.754 Y93.590 E6.72706
G1 X98.090 Y93.254 E6.74177
G1 X98.363 Y92.864 E6.75649
G1 X98.564 Y92.433 E6.77121
G1 X98.687 Y91.974 E6.78592
G1 X98.729 Y91.500 E6.80064
G1 X98.687 Y91.026 E6.81536
G1 X98.564 Y90.567 E6.83007
G1 X98.363 Y90.136 E6.84479
G1 X98.090 Y89.746 E6.85951
G1 X97.754 Y89.410 E6.87422
G1 X97.364 Y89.137 E6.88894
G1 X96.933 Y88.936 E6.90366
G1 X96.429 Y88.801 E6.91980
G1 X96.472 Y88.475 E6.92998
G1 X103.528 Y88.475 E7.14829
G1 X103.571 Y88.801 E7.15847
G1 X103.067 Y88.936 E7.17461
G1 X102.636 Y89.137 E7.18933
G1 X102.246 Y89.410 E7.20405
G1 X101.910 Y89.746 E7.21876
G1 X101.637 Y90.136 E7.23348
G1 X101.436 Y90.567 E7.24820
G1 X101.313 Y91.026 E7.26291
G1 X101.271 Y91.500 E7.27763
G1 X101.313 Y91.974 E7.29235
G1 X101.436 Y92.433 E7.30706
G1 X101.637 Y92.864 E7.32178
G1 X101.910 Y93.254 E7.33649
G1 X102.246 Y93.590 E7.35121
G1 X102.636 Y93.863 E7.36593
G1 X103.067 Y94.064 E7.38064
G1 X103.526 Y94.187 E7.39536
G1 X104.000 Y94.229 E7.41008
G1 X104.474 Y94.187 E7.42479
G1 X104.933 Y94.064 E7.43951
G1 X105.364 Y93.863 E7.45423
G1 X105.754 Y93.590 E7.46894
G1 X106.090 Y93.254 E7.48366
G1 X106.263 Y93.007 E7.49298
G1 X106.454 Y93.067 E7.49916
G1 E5.49916 F2400.00000
G92 E0
G1 X106.525 Y89.910 F7800.000
G1 E2.00000 F2400.00000
G1 F1800
G1 X106.263 Y89.993 E2.00851
G1 X106.090 Y89.746 E2.01782
G1 X105.754 Y89.410 E2.03254
G1 X105.364 Y89.137 E2.04725
G1 X104.933 Y88.936 E2.06197
G1 X104.429 Y88.801 E2.07812
G1 X104.472 Y88.475 E2.08829
G1 X106.525 Y88.475 E2.15181
G1 X106.525 Y89.835 E2.19390
G1 E0.19390 F2400.00000
G92 E0
G1 X98.069 Y91.135 F7800.000
G1 E2.00000 F2400.00000
G1 F1800
G1 X98.101 Y91.500 E2.01133
G1 X98.069 Y91.865 E2.02267
G1 X97.975 Y92.219 E2.03400
G1 X97.820 Y92.551 E2.04533
G1 X97.610 Y92.851 E2.05667
G1 X97.351 Y93.110 E2.06800
G1 X97.051 Y93.320 E2.07933
G1 X96.719 Y93.475 E2.09067
G1 X96.365 Y93.569 E2.10200
G1 X96.000 Y93.601 E2.11333
G1 X95.635 Y93.569 E2.12467
G1 X95.281 Y93.475 E2.13600
G1 X94.949 Y93.320 E2.14733
G1 X94.649 Y93.110 E2.15867
G1 X94.390 Y92.851 E2.17000
G1 X94.180 Y92.551 E2.18133
G1 X94.025 Y92.219 E2.19267
G1 X93.931 Y91.865 E2.20400
G1 X93.899 Y91.500 E2.21533
G1 X93.931 Y91.135 E2.22667
G1 X94.025 Y90.781 E2.23800
G1 X94.180 Y90.449 E2.24933
G1 X94.390 Y90.149 E2.26067
G1 X94.649 Y89.890 E2.27200
G1 X94.949 Y89.680 E2.28334
G1 X95.281 Y89.525 E2.29467
G1 X95.635 Y89.431 E2.30600
G1 X95.981 Y89.400 E2.31673
G1 X96.363 Y89.430 E2.32861
G1 X96.719 Y89.525 E2.33999
G1 X97.051 Y89.680 E2.35133
G1 X97.351 Y89.890 E2.36266
G1 X97.610 Y90.149 E2.37399
G1 X97.820 Y90.449 E2.38533
G1 X97.975 Y90.781 E2.39666
G1 X98.050 Y91.063 E2.40567
G1 X98.069 Y91.135 F7800.000
G1 E0.40567 F2400.00000
G92 E0
G1 X95.571 Y88.801 F7800.000
G1 E2.00000 F2400.00000
G1 F1800
G1 X95.067 Y88.936 E2.01615
G1 X94.636 Y89.137 E2.03086
G1 X94.246 Y89.410 E2.04558
G1 X93.910 Y89.746 E2.06030
G1 X93.737 Y89.993 E2.06961
G1 X93.475 Y89.910 E2.07812
G1 X93.475 Y88.475 E2.12252
G1 X95.528 Y88.475 E2.18605
G1 X95.561 Y88.727 E2.19390
G1 E0.19390 F2400.00000
G92 E0
G1 X92.850 Y87.850 F7800.000
G1 E2.00000 F2400.00000
G1 F1800
G1 X107.150 Y87.850 E2.44246
G1 X107.150 Y112.150 E3.19433
G1 X100.709 Y112.150 E3.39364
G1 X100.666 Y111.824 E3.40381
G1 X100.830 Y111.780 E3.40907
G1 X101.213 Y111.601 E3.42216
G1 X101.560 Y111.359 E3.43525
G1 X101.859 Y111.060 E3.44833
G1 X102.101 Y110.713 E3.46142
G1 X102.280 Y110.330 E3.47451
G1 X102.389 Y109.921 E3.48759
G1 X102.427 Y109.497 E3.50077
G1 X102.379 Y109.039 E3.51502
G1 X102.280 Y108.670 E3.52684
G1 X102.101 Y108.287 E3.53992
G1 X101.859 Y107.940 E3.55301
G1 X101.560 Y107.641 E3.56609
G1 X101.213 Y107.399 E3.57918
G1 X100.830 Y107.220 E3.59227
G1 X100.419 Y107.110 E3.60544
G1 X99.959 Y107.077 E3.61969
G1 X99.579 Y107.111 E3.63151
G1 X99.170 Y107.220 E3.64460
G1 X98.787 Y107.399 E3.65768
G1 X98.440 Y107.641 E3.67077
G1 X98.141 Y107.940 E3.68385
G1 X97.899 Y108.287 E3.69694
G1 X97.720 Y108.670 E3.71003
G1 X97.611 Y109.079 E3.72311
G1 X97.574 Y109.500 E3.73620
G1 X97.611 Y109.921 E3.74929
G1 X97.720 Y110.330 E3.76237
G1 X97.899 Y110.713 E3.77546
G1 X98.141 Y111.060 E3.78854
G1 X98.440 Y111.359 E3.80163
G1 X98.787 Y111.601 E3.81472
G1 X99.170 Y111.780 E3.82780
G1 X99.334 Y111.824 E3.83306
G1 X99.291 Y112.150 E3.84324
G1 X92.850 Y112.150 E4.04254
G1 X92.850 Y87.925 E4.79210
G1 X93.303 Y88.062 F7800.000
G1 E2.79210 F2400.00000
G92 E0
G1 X93.526 Y90.254 F7800.000
G1 E2.00000 F2400.00000
G1 F1800
G1 X93.433 Y90.740 E2.01278
G1 F1800
G1 X93.396 Y91.020 E2.01931
G1 F1800
G1 X93.374 Y91.518 E2.02900
G1 X93.415 Y92.120 E2.04070
G1 F1800
G1 X93.451 Y92.401 E2.04724
G1 F1800
G1 X93.526 Y92.746 E2.05635
G1 X93.787 Y93.708 F7800.000
G1 F1800
G1 X93.899 Y93.786 E2.05690
G1 F1800
G1 X94.098 Y93.915 E2.05711
G1 X94.632 Y95.549 F7800.000
G1 F1800
G1 X94.482 Y95.509 E2.06204
G1 X94.482 Y95.700 E2.06808
G1 X95.118 Y95.063 E2.09662
G1 X95.551 Y95.180 E2.11086
G1 X95.879 Y95.208 E2.12129
G1 X94.482 Y96.606 E2.18398
G1 X94.482 Y97.512 E2.21272
G1 X96.802 Y95.191 E2.31682
G1 X96.935 Y95.180 E2.32105
G1 X97.605 Y95.000 E2.34307
G1 X98.156 Y94.743 E2.36236
G1 X94.482 Y98.418 E2.52722
G1 E0.52722 F2400.00000
G92 E0
G1 X99.307 Y89.968 F7800.000
G1 E2.00000 F2400.00000
G1 F1800
G1 X99.794 Y89.482 E2.02181
G1 X100.693 Y89.482 E2.05033
G1 X99.563 Y90.618 E2.10115
G1 X99.680 Y91.051 E2.11539
G1 X99.708 Y91.379 E2.12582
G1 X100.301 Y90.786 E2.15241
G1 X100.260 Y91.257 E2.16741
G1 X100.298 Y91.695 E2.18136
G1 X99.691 Y92.302 E2.20859
G1 X99.680 Y92.435 E2.21281
G1 X99.500 Y93.105 E2.23484
G1 X99.243 Y93.656 E2.25413
G1 X100.454 Y92.446 E2.30844
G1 X100.500 Y92.619 E2.31414
G1 X100.718 Y93.087 E2.33051
G1 X94.482 Y99.324 E2.61031
G1 X94.482 Y100.230 E2.63905
G1 X101.069 Y93.642 E2.93459
G1 X101.192 Y93.817 E2.94137
G1 X101.496 Y94.122 E2.95502
G1 X94.482 Y101.136 E3.26970
G1 X94.482 Y102.042 E3.29844
G1 X101.996 Y94.528 E3.63556
G1 X102.251 Y94.706 E3.64545
G1 X102.573 Y94.856 E3.65671
G1 X94.482 Y102.948 E4.01972
G1 X94.482 Y103.854 E4.04846
G1 X103.240 Y95.096 E4.44137
G1 X103.551 Y95.180 E4.45161
G1 X104.021 Y95.221 E4.46656
G1 X94.482 Y104.760 E4.89453
G1 X94.482 Y105.666 E4.92327
G1 X104.980 Y95.167 E5.39427
G1 X105.518 Y95.023 E5.41194
G1 X105.518 Y95.535 E5.42819
G1 X94.482 Y106.572 E5.92333
G1 X94.482 Y107.478 E5.95208
G1 X105.518 Y96.441 E6.44722
G1 X105.518 Y97.347 E6.47596
G1 X94.482 Y108.384 E6.97110
G1 X94.482 Y109.290 E6.99984
G1 X95.889 Y107.883 E7.06298
G1 X96.026 Y107.589 E7.07327
G1 X96.457 Y106.974 E7.09709
G1 X96.988 Y106.443 E7.12092
G1 X97.603 Y106.012 E7.14474
G1 X97.897 Y105.875 E7.15503
G1 X105.518 Y98.254 E7.49695
G1 X105.518 Y99.160 E7.52569
G1 X99.194 Y105.484 E7.80943
G1 X99.700 Y105.440 E7.82556
G1 X100.115 Y105.469 E7.83874
G1 X105.518 Y100.066 E8.08116
G1 X105.518 Y100.972 E8.10990
G1 X100.887 Y105.603 E8.31767
G1 X101.230 Y105.695 E8.32893
G1 X101.552 Y105.844 E8.34018
G1 X105.518 Y101.878 E8.51814
G1 X105.518 Y102.784 E8.54688
G1 X102.134 Y106.168 E8.69871
G1 X102.526 Y106.443 E8.71390
G1 X102.646 Y106.562 E8.71927
G1 X105.518 Y103.690 E8.84814
G1 X105.518 Y104.596 E8.87688
G1 X103.091 Y107.023 E8.98576
G1 X103.465 Y107.556 E9.00640
G1 X105.518 Y105.502 E9.09853
G1 X105.518 Y106.408 E9.12728
G1 X103.758 Y108.168 E9.20625
G1 X103.805 Y108.270 E9.20979
G1 X103.965 Y108.867 E9.22941
G1 X105.518 Y107.314 E9.29909
G1 X105.518 Y108.220 E9.32783
G1 X104.062 Y109.677 E9.39318
G1 X103.992 Y110.518 E9.41997
G1 X104.126 Y110.518 E9.42421
G1 X105.518 Y109.126 E9.48667
G1 X105.518 Y110.032 E9.51541
G1 X105.032 Y110.518 E9.53723
G1 E7.53723 F2400.00000
G92 E0
G1 X95.066 Y110.518 F7800.000
G1 E2.00000 F2400.00000
G1 F1800
G1 X95.966 Y109.618 E2.04041
G1 X95.935 Y109.257 E2.05190
G1 X95.984 Y108.694 E2.06983
G1 X94.482 Y110.196 E2.13724
G1 X94.482 Y109.290 E2.16598
G1 E0.16598 F2400.00000
G92 E0
G1 X101.684 Y111.736 F7800.000
G1 E2.00000 F2400.00000
G1 F1800
G1 X101.789 Y111.630 E2.00007
G1 X101.787 Y111.574 E2.00009
G1 X101.684 Y111.736 F7800.000
G1 F1800
G1 X101.582 Y111.838 E2.00062
G1 E0.00062 F2400.00000
G92 E0
G1 X98.418 Y111.838 F7800.000
G1 E2.00000 F2400.00000
G1 F1800
G1 X98.214 Y111.634 E2.00105
G1 F1800
G1 X98.212 Y111.574 E2.00108
G1 E0.00108 F2400.00000
G92 E0
G1 X105.902 Y93.915 F7800.000
G1 E2.00000 F2400.00000
G1 F1800
G1 X105.989 Y93.864 E2.00010
G1 F1800
G1 X106.213 Y93.708 E2.00120
G1 X106.474 Y92.746 F7800.000
G1 F1800
G1 X106.567 Y92.260 E2.01398
G1 F1800
G1 X106.604 Y91.980 E2.02051
G1 F1800
G1 X106.626 Y91.482 E2.03019
G1 X106.584 Y90.869 E2.04213
G1 F1800
G1 X106.539 Y90.547 E2.04974
G1 X106.135 Y90.361 E2.06015
G1 E0.06015 F2400.00000
G92 E0
G1 X104.000 Y89.001 F7800.000
G1 E2.00000 F2400.00000
G1 F1800
G1 X103.924 Y89.087 E2.00056
G1 X104.000 Y89.001 F7800.000
G1 F1800
G1 X104.000 Y88.582 E2.00441
G1 F1800
G1 X104.000 Y88.162 E2.01007
G1 X102.361 Y88.787 F7800.000
G1 F1800
G1 X102.132 Y89.016 E2.01226
G1 F1800
G1 X101.952 Y89.207 E2.01302
G1 E0.01302 F2400.00000
G92 E0
G1 X98.048 Y89.207 F7800.000
G1 E2.00000 F2400.00000
G1 F1800
G1 X97.868 Y89.016 E2.00023
G1 F1800
G1 X97.639 Y88.787 E2.00179
G1 X96.000 Y88.582 F7800.000
G1 F1800
G1 X96.000 Y89.001 E2.00565
G1 F1800
G1 X95.924 Y89.087 E2.00621
G1 X96.000 Y88.582 F7800.000
G1 F1800
G1 X96.000 Y88.162 E2.01186
G1 Z0.650 F7800.000
G1 E0.01186 F2400.00000
G92 E0
G1 X99.307 Y107.596 F7800.000
G1 E2.00000 F2400.00000
G1 F900
G1 X99.648 Y107.505 E2.00728
G1 X100.000 Y107.474 E2.01456
G1 X100.352 Y107.505 E2.02184
G1 X100.693 Y107.596 E2.02912
G1 X101.013 Y107.745 E2.03639
G1 X101.302 Y107.948 E2.04367
G1 X101.552 Y108.198 E2.05095
G1 X101.755 Y108.487 E2.05823
G1 X101.904 Y108.807 E2.06551
G1 X101.995 Y109.148 E2.07279
G1 X102.026 Y109.500 E2.08007
G1 X101.995 Y109.852 E2.08735
G1 X101.904 Y110.193 E2.09462
G1 X101.755 Y110.513 E2.10190
G1 X101.552 Y110.802 E2.10918
G1 X101.396 Y110.958 E2.11372
G1 X101.302 Y111.052 E2.11646
G1 X101.013 Y111.255 E2.12374
G1 X100.693 Y111.404 E2.13102
G1 X100.352 Y111.495 E2.13830
G1 X100.000 Y111.526 E2.14558
G1 X99.648 Y111.495 E2.15286
G1 X99.307 Y111.404 E2.16013
G1 X98.987 Y111.255 E2.16741
G1 X98.698 Y111.052 E2.17469
G1 X98.448 Y110.802 E2.18197
G1 X98.245 Y110.513 E2.18925
G1 X98.096 Y110.193 E2.19653
G1 X98.005 Y109.852 E2.20381
G1 X97.974 Y109.500 E2.21109
G1 X98.005 Y109.148 E2.21836
G1 X98.096 Y108.807 E2.22564
G1 X98.245 Y108.487 E2.23292
G1 X98.448 Y108.198 E2.24020
G1 X98.698 Y107.948 E2.24748
G1 X98.987 Y107.745 E2.25476
G1 X99.239 Y107.628 E2.26049
G1 X99.307 Y107.596 F7800.000
G1 E0.26049 F2400.00000
G92 E0
