; generated by Slic3r 1.3.1-dev on 2018-09-19 at 00:40:04

; external perimeters extrusion width = 0.55mm (4.37mm^3/s)
; perimeters extrusion width = 0.70mm (11.44mm^3/s)
; infill extrusion width = 0.63mm (13.45mm^3/s)
; solid infill extrusion width = 0.70mm (3.81mm^3/s)
; top infill extrusion width = 0.70mm (2.86mm^3/s)

M107
M104 S200 ; set temperature
G28 ; home all axes
G1 Z5 F5000 ; lift nozzle

; Filament gcode

M109 S200 ; set temperature and wait for it to be reached
G21 ; set units to millimeters
G90 ; use absolute coordinates
M82 ; use absolute distances for extrusion
G92 E0
G92 E0
G1 Z0.350 F7800.000
G1 E-2.00000 F2400.00000
G92 E0
G1 X84.915 Y90.753 F7800.000
G1 E2.00000 F2400.00000
G1 F1800
G1 X86.668 Y89.274 E2.07096
G1 X88.820 Y88.481 E2.14192
G1 X90.000 Y88.375 E2.17858
G1 X110.000 Y88.375 E2.79740
G1 X112.259 Y88.772 E2.86836
G1 X114.247 Y89.915 E2.93933
G1 X115.726 Y91.668 E3.01029
G1 X116.519 Y93.820 E3.08125
G1 X116.625 Y95.000 E3.11790
G1 X116.625 Y105.000 E3.42732
G1 X116.228 Y107.259 E3.49828
G1 X115.085 Y109.247 E3.56924
G1 X113.332 Y110.726 E3.64020
G1 X111.180 Y111.519 E3.71116
G1 X110.000 Y111.625 E3.74782
G1 X90.000 Y111.625 E4.36664
G1 X87.741 Y111.228 E4.43760
G1 X85.753 Y110.085 E4.50857
G1 X84.274 Y108.332 E4.57953
G1 X83.481 Y106.180 E4.65049
G1 X83.375 Y105.000 E4.68714
G1 X83.375 Y95.000 E4.99656
G1 X83.772 Y92.741 E5.06752
G1 X84.878 Y90.818 E5.13616
G1 E3.13616 F2400.00000
G92 E0
G1 X107.433 Y101.707 F7800.000
G1 E2.00000 F2400.00000
G1 F1800
G1 X107.114 Y101.930 E2.01202
G1 X106.762 Y102.094 E2.02404
G1 X106.387 Y102.195 E2.03606
G1 X106.000 Y102.229 E2.04808
G1 X105.613 Y102.195 E2.06010
G1 X105.238 Y102.094 E2.07212
G1 X104.886 Y101.930 E2.08414
G1 X104.567 Y101.707 E2.09616
G1 X104.293 Y101.433 E2.10818
G1 X104.070 Y101.114 E2.12020
G1 X103.906 Y100.762 E2.13222
G1 X103.805 Y100.387 E2.14424
G1 X103.771 Y100.000 E2.15626
G1 X103.805 Y99.613 E2.16828
G1 X103.906 Y99.238 E2.18030
G1 X104.070 Y98.886 E2.19232
G1 X104.293 Y98.567 E2.20434
G1 X104.567 Y98.293 E2.21636
G1 X104.886 Y98.070 E2.22838
G1 X105.238 Y97.906 E2.24040
G1 X105.613 Y97.805 E2.25242
G1 X105.993 Y97.772 E2.26423
G1 X106.385 Y97.805 E2.27640
G1 X106.762 Y97.906 E2.28847
G1 X107.114 Y98.070 E2.30050
G1 X107.433 Y98.293 E2.31252
G1 X107.707 Y98.567 E2.32453
G1 X107.930 Y98.886 E2.33655
G1 X108.094 Y99.238 E2.34857
G1 X108.195 Y99.613 E2.36059
G1 X108.229 Y100.000 E2.37261
G1 X108.195 Y100.387 E2.38463
G1 X108.094 Y100.762 E2.39665
G1 X107.930 Y101.114 E2.40867
G1 X107.707 Y101.433 E2.42069
G1 X107.486 Y101.654 E2.43039
G1 X107.029 Y101.227 F7800.000
G1 F1800
G1 X106.801 Y101.387 E2.43903
G1 X106.548 Y101.505 E2.44767
G1 X106.278 Y101.577 E2.45630
G1 X106.000 Y101.601 E2.46494
G1 X105.722 Y101.577 E2.47358
G1 X105.452 Y101.505 E2.48221
G1 X105.199 Y101.387 E2.49085
G1 X104.971 Y101.227 E2.49949
G1 X104.773 Y101.029 E2.50812
G1 X104.613 Y100.801 E2.51676
G1 X104.495 Y100.548 E2.52540
G1 X104.423 Y100.278 E2.53403
G1 X104.399 Y100.000 E2.54267
G1 X104.423 Y99.722 E2.55131
G1 X104.495 Y99.452 E2.55994
G1 X104.613 Y99.199 E2.56858
G1 X104.773 Y98.971 E2.57722
G1 X104.971 Y98.773 E2.58585
G1 X105.199 Y98.613 E2.59449
G1 X105.452 Y98.495 E2.60313
G1 X105.722 Y98.423 E2.61176
G1 X105.995 Y98.399 E2.62023
G1 X106.277 Y98.423 E2.62901
G1 X106.548 Y98.495 E2.63767
G1 X106.801 Y98.613 E2.64631
G1 X107.029 Y98.773 E2.65494
G1 X107.227 Y98.971 E2.66358
G1 X107.387 Y99.199 E2.67222
G1 X107.505 Y99.452 E2.68085
G1 X107.577 Y99.722 E2.68949
G1 X107.601 Y100.000 E2.69813
G1 X107.577 Y100.278 E2.70676
G1 X107.505 Y100.548 E2.71540
G1 X107.387 Y100.801 E2.72404
G1 X107.227 Y101.029 E2.73267
G1 X107.082 Y101.174 E2.73899
G1 X107.029 Y101.227 F7800.000
G1 X108.400 Y101.623 F7800.000
G1 F1800
G1 X108.400 Y103.400 E2.79397
G1 X91.600 Y103.400 E3.31380
G1 X91.600 Y101.623 E3.36878
G1 X92.164 Y102.188 E3.39348
G1 X92.572 Y102.473 E3.40888
G1 X93.023 Y102.684 E3.42429
G1 X93.504 Y102.812 E3.43969
G1 X94.000 Y102.856 E3.45509
G1 X94.499 Y102.812 E3.47059
G1 X94.984 Y102.680 E3.48614
G1 X95.428 Y102.473 E3.50130
G1 X95.836 Y102.188 E3.51670
G1 X96.188 Y101.836 E3.53211
G1 X96.473 Y101.428 E3.54751
G1 X96.684 Y100.977 E3.56291
G1 X96.812 Y100.496 E3.57832
G1 X96.856 Y99.997 E3.59381
G1 X96.810 Y99.497 E3.60936
G1 X96.684 Y99.023 E3.62452
G1 X96.473 Y98.572 E3.63993
G1 X96.188 Y98.164 E3.65533
G1 X95.836 Y97.812 E3.67073
G1 X95.428 Y97.527 E3.68613
G1 X94.977 Y97.316 E3.70154
G1 X94.493 Y97.187 E3.71703
G1 X93.992 Y97.145 E3.73258
G1 X93.504 Y97.188 E3.74774
G1 X93.023 Y97.316 E3.76315
G1 X92.572 Y97.527 E3.77855
G1 X92.164 Y97.812 E3.79396
G1 X91.600 Y98.377 E3.81866
G1 X91.600 Y96.600 E3.87364
G1 X108.400 Y96.600 E4.39346
G1 X108.400 Y98.377 E4.44845
G1 X107.836 Y97.812 E4.47315
G1 X107.428 Y97.527 E4.48855
G1 X106.977 Y97.316 E4.50396
G1 X106.493 Y97.187 E4.51945
G1 X105.992 Y97.145 E4.53500
G1 X105.504 Y97.188 E4.55016
G1 X105.023 Y97.316 E4.56556
G1 X104.572 Y97.527 E4.58097
G1 X104.164 Y97.812 E4.59637
G1 X103.812 Y98.164 E4.61177
G1 X103.527 Y98.572 E4.62718
G1 X103.316 Y99.023 E4.64258
G1 X103.187 Y99.504 E4.65798
G1 X103.144 Y100.000 E4.67339
G1 X103.187 Y100.496 E4.68879
G1 X103.316 Y100.977 E4.70419
G1 X103.527 Y101.428 E4.71959
G1 X103.812 Y101.836 E4.73500
G1 X104.164 Y102.188 E4.75040
G1 X104.572 Y102.473 E4.76580
G1 X105.023 Y102.684 E4.78121
G1 X105.504 Y102.812 E4.79661
G1 X106.000 Y102.856 E4.81201
G1 X106.496 Y102.812 E4.82741
G1 X106.977 Y102.684 E4.84282
G1 X107.428 Y102.473 E4.85822
G1 X107.836 Y102.188 E4.87363
G1 X108.347 Y101.676 E4.89600
G1 E2.89600 F2400.00000
G92 E0
G1 X96.195 Y100.387 F7800.000
G1 E2.00000 F2400.00000
G1 F1800
G1 X96.094 Y100.762 E2.01202
G1 X95.930 Y101.114 E2.02404
G1 X95.707 Y101.433 E2.03606
G1 X95.433 Y101.707 E2.04808
G1 X95.114 Y101.930 E2.06010
G1 X94.768 Y102.091 E2.07192
G1 X94.389 Y102.195 E2.08408
G1 X94.000 Y102.229 E2.09616
G1 X93.613 Y102.195 E2.10818
G1 X93.238 Y102.094 E2.12020
G1 X92.886 Y101.930 E2.13222
G1 X92.567 Y101.707 E2.14424
G1 X92.293 Y101.433 E2.15626
G1 X92.070 Y101.114 E2.16828
G1 X91.906 Y100.762 E2.18030
G1 X91.805 Y100.387 E2.19232
G1 X91.771 Y100.000 E2.20434
G1 X91.805 Y99.613 E2.21636
G1 X91.906 Y99.238 E2.22837
G1 X92.070 Y98.886 E2.24040
G1 X92.293 Y98.567 E2.25242
G1 X92.567 Y98.293 E2.26443
G1 X92.886 Y98.070 E2.27645
G1 X93.238 Y97.906 E2.28848
G1 X93.613 Y97.805 E2.30049
G1 X93.993 Y97.772 E2.31231
G1 X94.385 Y97.805 E2.32447
G1 X94.762 Y97.906 E2.33655
G1 X95.114 Y98.070 E2.34857
G1 X95.433 Y98.293 E2.36059
G1 X95.707 Y98.567 E2.37261
G1 X95.930 Y98.886 E2.38463
G1 X96.094 Y99.238 E2.39665
G1 X96.193 Y99.607 E2.40847
G1 X96.229 Y99.998 E2.42063
G1 X96.201 Y100.312 E2.43039
G1 X95.577 Y100.278 F7800.000
G1 F1800
G1 X95.505 Y100.548 E2.43902
G1 X95.387 Y100.801 E2.44766
G1 X95.227 Y101.029 E2.45630
G1 X95.029 Y101.227 E2.46493
G1 X94.801 Y101.387 E2.47357
G1 X94.553 Y101.502 E2.48204
G1 X94.279 Y101.577 E2.49082
G1 X94.000 Y101.601 E2.49948
G1 X93.722 Y101.577 E2.50812
G1 X93.452 Y101.505 E2.51675
G1 X93.199 Y101.387 E2.52539
G1 X92.971 Y101.227 E2.53403
G1 X92.773 Y101.029 E2.54266
G1 X92.613 Y100.801 E2.55130
G1 X92.495 Y100.548 E2.55994
G1 X92.423 Y100.278 E2.56857
G1 X92.399 Y100.000 E2.57721
G1 X92.423 Y99.722 E2.58585
G1 X92.495 Y99.452 E2.59448
G1 X92.613 Y99.199 E2.60312
G1 X92.773 Y98.971 E2.61176
G1 X92.971 Y98.773 E2.62039
G1 X93.199 Y98.613 E2.62903
G1 X93.452 Y98.495 E2.63767
G1 X93.722 Y98.423 E2.64630
G1 X93.995 Y98.399 E2.65477
G1 X94.277 Y98.423 E2.66355
G1 X94.548 Y98.495 E2.67221
G1 X94.801 Y98.613 E2.68085
G1 X95.029 Y98.773 E2.68948
G1 X95.227 Y98.971 E2.69812
G1 X95.387 Y99.199 E2.70676
G1 X95.505 Y99.452 E2.71539
G1 X95.576 Y99.717 E2.72386
G1 X95.601 Y99.999 E2.73264
G1 X95.584 Y100.203 E2.73898
G1 X95.577 Y100.278 F7800.000
G1 E0.73898 F2400.00000
G92 E0
G1 X90.975 Y104.025 F7800.000
G1 E2.00000 F2400.00000
G1 F1800
G1 X90.975 Y95.975 E2.24908
G1 X109.025 Y95.975 E2.80758
G1 X109.025 Y104.025 E3.05667
G1 X91.050 Y104.025 E3.61284
G1 X90.350 Y104.650 F7800.000
G1 F1800
G1 X90.350 Y95.350 E3.90060
G1 X109.650 Y95.350 E4.49777
G1 X109.650 Y104.650 E4.78552
G1 X90.425 Y104.650 E5.38037
G1 X90.533 Y104.185 F7800.000
G1 E3.38037 F2400.00000
G92 E0
G1 X91.912 Y102.857 F7800.000
G1 E2.00000 F2400.00000
G1 F1800
G1 X93.047 Y103.051 E2.00206
G1 X93.009 Y103.088 F7800.000
G1 F1800
G1 X91.912 Y102.793 E2.01904
G1 X91.779 Y101.311 F7800.000
G1 F1800
G1 X91.642 Y101.115 E2.01959
G1 F1800
G1 X91.287 Y100.578 E2.02350
G1 X91.432 Y100.760 F7800.000
G1 F1800
G1 X91.470 Y101.052 E2.02679
G1 X91.432 Y100.760 F7800.000
G1 F1800
G1 X91.392 Y100.451 E2.02892
G1 X91.373 Y100.007 E2.03194
G1 X91.394 Y99.531 E2.03519
G1 F1800
G1 X91.470 Y98.948 E2.04178
G1 X91.642 Y98.885 F7800.000
G1 F1800
G1 X91.287 Y99.422 E2.04569
G1 X91.642 Y98.885 F7800.000
G1 F1800
G1 X91.779 Y98.689 E2.04624
G1 X91.912 Y97.207 F7800.000
G1 F1800
G1 X93.009 Y96.912 E2.06322
G1 X93.047 Y96.949 F7800.000
G1 F1800
G1 X91.912 Y97.143 E2.06528
G1 E0.06528 F2400.00000
G92 E0
G1 X94.953 Y96.949 F7800.000
G1 E2.00000 F2400.00000
G1 F1800
G1 X95.505 Y97.040 E2.00110
G1 X95.464 Y97.111 F7800.000
G1 F1800
G1 X95.180 Y96.912 E2.00283
G1 X95.464 Y97.111 F7800.000
G1 F1800
G1 X95.700 Y97.289 E2.00314
G1 X96.813 Y96.982 F7800.000
G1 F1800
G1 X96.326 Y97.469 E2.02452
G1 X96.127 Y97.706 E2.03413
G1 X96.425 Y98.004 E2.04722
G1 X96.529 Y98.152 E2.05283
G1 X97.700 Y96.982 E2.10422
G1 X98.586 Y96.982 E2.13173
G1 X96.867 Y98.701 E2.20720
G1 X97.030 Y99.052 E2.21921
G1 X97.109 Y99.345 E2.22865
G1 X99.473 Y96.982 E2.33240
G1 X100.359 Y96.982 E2.35991
G1 X97.229 Y100.112 E2.49730
G1 X97.240 Y100.239 E2.50126
G1 X97.187 Y100.848 E2.52024
G1 X97.117 Y101.110 E2.52866
G1 X101.245 Y96.982 E2.70988
G1 X102.132 Y96.982 E2.73739
G1 X96.221 Y102.892 E2.99682
G1 X96.327 Y103.018 E3.00193
G1 X96.982 Y103.018 E3.02224
G1 X103.018 Y96.982 E3.28721
G1 X103.673 Y96.982 E3.30753
G1 X103.779 Y97.108 E3.31264
G1 X97.868 Y103.018 E3.57207
G1 X98.754 Y103.018 E3.59958
G1 X102.883 Y98.890 E3.78080
G1 X102.813 Y99.152 E3.78923
G1 X102.760 Y99.757 E3.80807
G1 X102.771 Y99.888 E3.81215
G1 X99.641 Y103.018 E3.94955
G1 X100.527 Y103.018 E3.97706
G1 X102.891 Y100.655 E4.08082
G1 X102.970 Y100.948 E4.09026
G1 X103.133 Y101.299 E4.10226
G1 X101.414 Y103.018 E4.17774
G1 X102.300 Y103.018 E4.20525
G1 X103.471 Y101.848 E4.25664
G1 X103.575 Y101.996 E4.26225
G1 X103.873 Y102.294 E4.27534
G1 X103.674 Y102.531 E4.28496
G1 X103.187 Y103.018 E4.30633
G1 X104.300 Y102.711 F7800.000
G1 F1800
G1 X104.536 Y102.889 E4.30724
G1 F1800
G1 X104.820 Y103.088 E4.30963
G1 X105.047 Y103.051 F7800.000
G1 F1800
G1 X104.495 Y102.960 E4.31064
G1 E2.31064 F2400.00000
G92 E0
G1 X106.953 Y103.051 F7800.000
G1 E2.00000 F2400.00000
G1 F1800
G1 X108.088 Y102.857 E2.00226
G1 X108.088 Y102.793 F7800.000
G1 F1800
G1 X106.991 Y103.088 E2.01924
G1 E0.01924 F2400.00000
G92 E0
G1 X108.221 Y101.311 F7800.000
G1 E2.00000 F2400.00000
G1 F1800
G1 X108.358 Y101.115 E2.00100
G1 F1800
G1 X108.713 Y100.578 E2.00641
G1 X108.606 Y100.469 F7800.000
G1 F1800
G1 X108.627 Y99.993 E2.00966
G1 X108.608 Y99.549 E2.01268
G1 X108.568 Y99.239 E2.01481
G1 F1800
G1 X108.530 Y98.948 E2.01811
G1 X108.358 Y98.885 F7800.000
G1 F1800
G1 X108.221 Y98.689 E2.01911
G1 X108.358 Y98.885 F7800.000
G1 F1800
G1 X108.713 Y99.422 E2.02452
G1 X108.606 Y100.469 F7800.000
G1 F1800
G1 X108.530 Y101.052 E2.03111
G1 E0.03111 F2400.00000
G92 E0
G1 X108.088 Y97.207 F7800.000
G1 E2.00000 F2400.00000
G1 F1800
G1 X106.991 Y96.912 E2.01698
G1 X106.953 Y96.949 F7800.000
G1 F1800
G1 X108.088 Y97.143 E2.01924
G1 E0.01924 F2400.00000
G92 E0
G1 X105.047 Y96.949 F7800.000
G1 E2.00000 F2400.00000
G1 F1800
G1 X104.495 Y97.040 E2.00100
G1 X104.536 Y97.111 F7800.000
G1 F1800
G1 X104.300 Y97.289 E2.00191
G1 X104.536 Y97.111 F7800.000
G1 F1800
G1 X104.820 Y96.912 E2.00430
G1 E0.00430 F2400.00000
G92 E0
G1 X95.700 Y102.711 F7800.000
G1 E2.00000 F2400.00000
G1 F1800
G1 X95.464 Y102.889 E2.00032
G1 F1800
G1 X95.180 Y103.088 E2.00205
G1 X94.949 Y103.051 F7800.000
G1 F1800
G1 X95.506 Y102.959 E2.00326
G1 Z0.650 F7800.000
G1 X92.657 Y101.600 F7800.000
G1 F900
G1 X92.400 Y101.343 E2.01308
G1 X92.191 Y101.044 E2.02290
G1 X92.037 Y100.714 E2.03272
G1 X91.943 Y100.363 E2.04254
G1 X91.911 Y100.000 E2.05237
G1 X91.943 Y99.637 E2.06219
G1 X92.037 Y99.286 E2.07201
G1 X92.191 Y98.956 E2.08183
G1 X92.400 Y98.657 E2.09166
G1 X92.657 Y98.400 E2.10148
G1 X92.956 Y98.191 E2.11130
G1 X93.286 Y98.037 E2.12112
G1 X93.637 Y97.943 E2.13095
G1 X93.982 Y97.913 E2.14028
G1 X94.359 Y97.942 E2.15047
G1 X94.714 Y98.037 E2.16041
G1 X95.044 Y98.191 E2.17023
G1 X95.343 Y98.400 E2.18005
G1 X95.600 Y98.657 E2.18987
G1 X95.809 Y98.956 E2.19970
G1 X95.963 Y99.286 E2.20952
G1 X96.052 Y99.620 E2.21886
G1 X96.089 Y99.996 E2.22904
G1 X96.057 Y100.363 E2.23898
G1 X95.963 Y100.714 E2.24880
G1 X95.809 Y101.044 E2.25862
G1 X95.600 Y101.343 E2.26845
G1 X95.343 Y101.600 E2.27827
G1 X95.044 Y101.809 E2.28809
G1 X94.731 Y101.955 E2.29743
G1 X94.367 Y102.057 E2.30761
G1 X94.000 Y102.089 E2.31755
G1 X93.637 Y102.057 E2.32737
G1 X93.286 Y101.963 E2.33720
G1 X92.956 Y101.809 E2.34702
G1 X92.719 Y101.643 E2.35482
G1 X93.019 Y101.169 F7800.000
G1 F900
G1 X92.831 Y100.981 E2.36030
G1 X92.678 Y100.763 E2.36578
G1 X92.566 Y100.522 E2.37127
G1 X92.497 Y100.265 E2.37675
G1 X92.474 Y100.000 E2.38223
G1 X92.497 Y99.735 E2.38771
G1 X92.566 Y99.478 E2.39320
G1 X92.678 Y99.237 E2.39868
G1 X92.831 Y99.019 E2.40416
G1 X93.019 Y98.831 E2.40964
G1 X93.237 Y98.678 E2.41513
G1 X93.478 Y98.566 E2.42061
G1 X93.735 Y98.497 E2.42609
G1 X93.985 Y98.475 E2.43126
G1 X94.264 Y98.497 E2.43702
G1 X94.522 Y98.566 E2.44253
G1 X94.763 Y98.678 E2.44802
G1 X94.981 Y98.831 E2.45350
G1 X95.169 Y99.019 E2.45898
G1 X95.322 Y99.237 E2.46446
G1 X95.434 Y99.478 E2.46995
G1 X95.499 Y99.720 E2.47512
G1 X95.526 Y99.999 E2.48088
G1 X95.503 Y100.265 E2.48639
G1 X95.434 Y100.522 E2.49187
G1 X95.322 Y100.763 E2.49736
G1 X95.169 Y100.981 E2.50284
G1 X94.981 Y101.169 E2.50832
G1 X94.763 Y101.322 E2.51380
G1 X94.536 Y101.428 E2.51898
G1 X94.266 Y101.503 E2.52474
G1 X94.000 Y101.526 E2.53025
G1 X93.735 Y101.503 E2.53573
G1 X93.478 Y101.434 E2.54121
G1 X93.237 Y101.322 E2.54669
G1 X93.081 Y101.212 E2.55063
G1 X93.019 Y101.169 F7800.000
G1 E0.55063 F2400.00000
G92 E0
G1 X103.930 Y100.214 F7800.000
G1 E2.00000 F2400.00000
G1 F900
G1 X103.911 Y100.000 E2.00581
G1 X103.943 Y99.637 E2.01563
G1 X104.037 Y99.286 E2.02545
G1 X104.191 Y98.956 E2.03527
G1 X104.400 Y98.657 E2.04510
G1 X104.657 Y98.400 E2.05492
G1 X104.956 Y98.191 E2.06474
G1 X105.286 Y98.037 E2.07456
G1 X105.637 Y97.943 E2.08438
G1 X105.982 Y97.913 E2.09372
G1 X106.359 Y97.942 E2.10391
G1 X106.714 Y98.037 E2.11385
G1 X107.044 Y98.191 E2.12367
G1 X107.343 Y98.400 E2.13349
G1 X107.600 Y98.657 E2.14331
G1 X107.809 Y98.956 E2.15313
G1 X107.963 Y99.286 E2.16296
G1 X108.057 Y99.637 E2.17278
G1 X108.089 Y100.000 E2.18260
G1 X108.057 Y100.363 E2.19242
G1 X107.963 Y100.714 E2.20225
G1 X107.809 Y101.044 E2.21207
G1 X107.600 Y101.343 E2.22189
G1 X107.343 Y101.600 E2.23171
G1 X107.044 Y101.809 E2.24153
G1 X106.714 Y101.963 E2.25136
G1 X106.363 Y102.057 E2.26118
G1 X106.000 Y102.089 E2.27100
G1 X105.637 Y102.057 E2.28082
G1 X105.286 Y101.963 E2.29065
G1 X104.956 Y101.809 E2.30047
G1 X104.657 Y101.600 E2.31029
G1 X104.400 Y101.343 E2.32011
G1 X104.191 Y101.044 E2.32994
G1 X104.037 Y100.714 E2.33976
G1 X103.936 Y100.289 E2.35155
G1 X104.488 Y100.166 F7800.000
G1 F900
G1 X104.474 Y100.000 E2.35497
G1 X104.497 Y99.735 E2.36046
G1 X104.566 Y99.478 E2.36594
G1 X104.678 Y99.237 E2.37142
G1 X104.831 Y99.019 E2.37690
G1 X105.019 Y98.831 E2.38239
G1 X105.237 Y98.678 E2.38787
G1 X105.478 Y98.566 E2.39335
G1 X105.735 Y98.497 E2.39883
G1 X105.985 Y98.475 E2.40401
G1 X106.264 Y98.497 E2.40976
G1 X106.522 Y98.566 E2.41528
G1 X106.763 Y98.678 E2.42076
G1 X106.981 Y98.831 E2.42624
G1 X107.169 Y99.019 E2.43172
G1 X107.322 Y99.237 E2.43721
G1 X107.434 Y99.478 E2.44269
G1 X107.503 Y99.735 E2.44817
G1 X107.526 Y100.000 E2.45365
G1 X107.503 Y100.265 E2.45914
G1 X107.434 Y100.522 E2.46462
