; generated by Slic3r 1.3.1-dev on 2018-09-19 at 00:40:05

; external perimeters extrusion width = 0.55mm (4.37mm^3/s)
; perimeters extrusion width = 0.70mm (11.44mm^3/s)
; infill extrusion width = 0.63mm (13.45mm^3/s)
; solid infill extrusion width = 0.70mm (3.81mm^3/s)
; top infill extrusion width = 0.70mm (2.86mm^3/s)

M107
M104 S200 ; set temperature
G28 ; home all axes
G1 Z5 F5000 ; lift nozzle

; Filament gcode

M109 S200 ; set temperature and wait for it to be reached
G21 ; set units to millimeters
G90 ; use absolute coordinates
M82 ; use absolute distances for extrusion
G92 E0
G92 E0
G1 Z0.350 F7800.000
G1 E-2.00000 F2400.00000
G92 E0
G1 X82.415 Y90.753 F7800.000
G1 E2.00000 F2400.00000
G1 F1800
G1 X84.168 Y89.274 E2.07096
G1 X86.320 Y88.481 E2.14192
G1 X87.500 Y88.375 E2.17858
G1 X112.500 Y88.375 E2.95211
G1 X114.759 Y88.772 E3.02307
G1 X116.747 Y89.915 E3.09403
G1 X118.226 Y91.668 E3.16500
G1 X119.019 Y93.820 E3.23596
G1 X119.125 Y95.000 E3.27261
G1 X119.125 Y105.000 E3.58202
G1 X118.728 Y107.259 E3.65298
G1 X117.585 Y109.247 E3.72395
G1 X115.832 Y110.726 E3.79491
G1 X113.680 Y111.519 E3.86587
G1 X112.500 Y111.625 E3.90252
G1 X87.500 Y111.625 E4.67606
G1 X85.241 Y111.228 E4.74702
G1 X83.253 Y110.085 E4.81798
G1 X81.774 Y108.332 E4.88894
G1 X80.981 Y106.180 E4.95990
G1 X80.875 Y105.000 E4.99656
G1 X80.875 Y95.000 E5.30597
G1 X81.272 Y92.741 E5.37693
G1 X82.378 Y90.818 E5.44557
G1 E3.44557 F2400.00000
G92 E0
G1 X109.290 Y103.100 F7800.000
G1 E2.00000 F2400.00000
G1 F1800
G1 X105.710 Y103.100 E2.11076
G1 X103.920 Y100.000 E2.22151
G1 X105.710 Y96.900 E2.33227
G1 X109.290 Y96.900 E2.44303
G1 X111.080 Y100.000 E2.55378
G1 X109.327 Y103.035 E2.66222
G1 X109.284 Y103.600 F7800.000
G1 E0.66222 F2400.00000
G92 E0
G1 X102.477 Y100.000 F7800.000
G1 E2.00000 F2400.00000
G1 F1800
G1 X104.440 Y103.400 E2.12148
G1 X95.560 Y103.400 E2.39627
G1 X97.523 Y100.000 E2.51775
G1 X95.560 Y96.600 E2.63923
G1 X104.440 Y96.600 E2.91402
G1 X102.515 Y99.935 E3.03318
G1 X103.199 Y100.000 F7800.000
G1 F1800
G1 X105.523 Y104.025 E3.17699
G1 X94.477 Y104.025 E3.51875
G1 X96.801 Y100.000 E3.66256
G1 X94.477 Y95.975 E3.80637
G1 X105.523 Y95.975 E4.14813
G1 X103.236 Y99.935 E4.28962
G1 E2.28962 F2400.00000
G92 E0
G1 X109.477 Y104.025 F7800.000
G1 E2.00000 F2400.00000
G1 F1800
G1 X111.247 Y100.959 E2.10953
G1 X111.525 Y101.034 E2.11843
G1 X111.525 Y104.025 E2.21099
G1 X109.552 Y104.025 E2.27203
G1 E0.27203 F2400.00000
G92 E0
G1 X111.247 Y99.041 F7800.000
G1 E2.00000 F2400.00000
G1 F1800
G1 X109.477 Y95.975 E2.10953
G1 X111.525 Y95.975 E2.17290
G1 X111.525 Y98.966 E2.26545
G1 X111.320 Y99.021 E2.27203
G1 E0.27203 F2400.00000
G92 E0
G1 X96.080 Y100.000 F7800.000
G1 E2.00000 F2400.00000
G1 F1800
G1 X94.290 Y103.100 E2.11076
G1 X90.710 Y103.100 E2.22151
G1 X88.920 Y100.000 E2.33227
G1 X90.710 Y96.900 E2.44303
G1 X94.290 Y96.900 E2.55378
G1 X96.042 Y99.935 E2.66222
G1 X96.513 Y100.250 F7800.000
G1 E0.66222 F2400.00000
G92 E0
G1 X90.523 Y95.975 F7800.000
G1 E2.00000 F2400.00000
G1 F1800
G1 X88.753 Y99.041 E2.10953
G1 X88.475 Y98.966 E2.11843
G1 X88.475 Y95.975 E2.21099
G1 X90.448 Y95.975 E2.27203
G1 E0.27203 F2400.00000
G92 E0
G1 X88.753 Y100.959 F7800.000
G1 E2.00000 F2400.00000
G1 F1800
G1 X90.523 Y104.025 E2.10953
G1 X88.475 Y104.025 E2.17290
G1 X88.475 Y101.034 E2.26545
G1 X88.680 Y100.979 E2.27203
G1 E0.27203 F2400.00000
G92 E0
G1 X87.850 Y104.650 F7800.000
G1 E2.00000 F2400.00000
G1 F1800
G1 X87.850 Y95.350 E2.28775
G1 X112.150 Y95.350 E3.03963
G1 X112.150 Y104.650 E3.32738
G1 X87.925 Y104.650 E4.07694
G1 X88.046 Y104.190 F7800.000
G1 E2.07694 F2400.00000
G92 E0
G1 X90.797 Y103.875 F7800.000
G1 E2.00000 F2400.00000
G1 F1800
G1 X94.203 Y103.875 E2.14336
G1 E0.14336 F2400.00000
G92 E0
G1 X88.375 Y100.737 F7800.000
G1 E2.00000 F2400.00000
G1 F1800
G1 X88.375 Y99.263 E2.02559
G1 E0.02559 F2400.00000
G92 E0
G1 X90.797 Y96.125 F7800.000
G1 E2.00000 F2400.00000
G1 F1800
G1 X94.203 Y96.125 E2.14336
G1 E0.14336 F2400.00000
G92 E0
G1 X96.399 Y97.468 F7800.000
G1 E2.00000 F2400.00000
G1 F1800
G1 X96.885 Y96.982 E2.02271
G1 X97.829 Y96.982 E2.05388
G1 X96.744 Y98.066 E2.10455
G1 X97.090 Y98.664 E2.12737
G1 X98.772 Y96.982 E2.20598
G1 X99.716 Y96.982 E2.23715
G1 X97.435 Y99.262 E2.34372
G1 X97.780 Y99.861 E2.36654
G1 X100.659 Y96.982 E2.50105
G1 X101.603 Y96.982 E2.53222
G1 X97.536 Y101.048 E2.72223
G1 X96.399 Y103.018 E2.79738
G1 X96.510 Y103.018 E2.80105
G1 X102.547 Y96.982 E3.08309
G1 X103.490 Y96.982 E3.11427
G1 X97.453 Y103.018 E3.39632
G1 X98.397 Y103.018 E3.42749
G1 X102.464 Y98.952 E3.61750
G1 X101.999 Y99.757 E3.64822
G1 X102.220 Y100.139 E3.66281
G1 X99.341 Y103.018 E3.79732
G1 X100.284 Y103.018 E3.82849
G1 X102.565 Y100.738 E3.93506
G1 X102.910 Y101.336 E3.95788
G1 X101.228 Y103.018 E4.03649
G1 X102.171 Y103.018 E4.06766
G1 X103.256 Y101.934 E4.11833
G1 X103.601 Y102.532 E4.14115
G1 X103.115 Y103.018 E4.16386
G1 E2.16386 F2400.00000
G92 E0
G1 X105.797 Y103.875 F7800.000
G1 E2.00000 F2400.00000
G1 F1800
G1 X109.203 Y103.875 E2.14336
G1 E0.14336 F2400.00000
G92 E0
G1 X111.625 Y100.737 F7800.000
G1 E2.00000 F2400.00000
G1 F1800
G1 X111.625 Y99.263 E2.02559
G1 E0.02559 F2400.00000
G92 E0
G1 X109.203 Y96.125 F7800.000
G1 E2.00000 F2400.00000
G1 F1800
G1 X105.797 Y96.125 E2.14336
G1 Z0.650 F7800.000
G1 X104.007 Y100.000 F7800.000
G1 F900
G1 X105.754 Y96.975 E2.21535
G1 X109.246 Y96.975 E2.28734
G1 X110.993 Y100.000 E2.35933
G1 X109.246 Y103.025 E2.43133
G1 X105.754 Y103.025 E2.50332
G1 X104.045 Y100.065 E2.57376
G1 X103.574 Y99.750 F7800.000
G1 E0.57376 F2400.00000
G92 E0
G1 X89.663 Y103.529 F7800.000
G1 E2.00000 F2400.00000
G1 F900
G1 X88.971 Y103.529 E2.01866
G1 X88.971 Y102.896 E2.03574
G1 X89.254 Y102.820 E2.04363
G1 X89.626 Y103.464 E2.06368
G1 E0.06368 F2400.00000
G92 E0
G1 X89.254 Y97.180 F7800.000
G1 E2.00000 F2400.00000
G1 F900
G1 X88.971 Y97.104 E2.00789
G1 X88.971 Y96.471 E2.02497
G1 X89.663 Y96.471 E2.04363
G1 X89.291 Y97.115 E2.06368
G1 E0.06368 F2400.00000
G92 E0
G1 X97.374 Y100.000 F7800.000
G1 E2.00000 F2400.00000
G1 F900
G1 X95.337 Y96.471 E2.10992
G1 X104.663 Y96.471 E2.36151
G1 X102.626 Y100.000 E2.47143
G1 X104.663 Y103.529 E2.58135
G1 X95.337 Y103.529 E2.83293
G1 X97.337 Y100.065 E2.94083
G1 E0.94083 F2400.00000
G92 E0
G1 X110.337 Y103.529 F7800.000
G1 E2.00000 F2400.00000
G1 F900
G1 X110.746 Y102.820 E2.02208
G1 X111.029 Y102.896 E2.02997
G1 X111.029 Y103.529 E2.04705
G1 X110.412 Y103.529 E2.06369
G1 X111.029 Y97.104 F7800.000
G1 F900
G1 X110.746 Y97.180 E2.07158
G1 X110.337 Y96.471 E2.09366
G1 X111.029 Y96.471 E2.11232
G1 X111.029 Y97.029 E2.12737
G1 X109.570 Y96.414 F7800.000
G1 F3600
G1 X105.430 Y96.414 E2.23906
G1 X103.360 Y100.000 E2.35075
G1 X105.430 Y103.586 E2.46245
G1 X109.570 Y103.586 E2.57414
G1 X111.382 Y100.448 E2.67188
G1 X111.664 Y100.524 E2.67977
G1 X111.664 Y104.164 E2.77799
G1 X88.336 Y104.164 E3.40731
G1 X88.336 Y100.524 E3.50553
G1 X88.618 Y100.448 E3.51342
G1 X90.430 Y103.586 E3.61116
G1 X94.570 Y103.586 E3.72286
G1 X96.640 Y100.000 E3.83455
G1 X94.570 Y96.414 E3.94624
G1 X90.430 Y96.414 E4.05793
G1 X88.618 Y99.552 E4.15567
G1 X88.336 Y99.476 E4.16356
G1 X88.336 Y95.836 E4.26178
G1 X111.664 Y95.836 E4.89111
G1 X111.664 Y99.476 E4.98932
G1 X111.382 Y99.552 E4.99722
G1 X109.608 Y96.479 E5.09293
G1 E3.09293 F2400.00000
G92 E0
G1 X95.993 Y100.000 F7800.000
G1 E2.00000 F2400.00000
G1 F900
G1 X94.246 Y103.025 E2.07199
G1 X90.754 Y103.025 E2.14398
G1 X89.007 Y100.000 E2.21597
G1 X90.754 Y96.975 E2.28796
G1 X94.246 Y96.975 E2.35996
G1 X95.955 Y99.935 E2.43040
G1 X96.426 Y100.250 F7800.000
G1 E0.43040 F2400.00000
G92 E0
G1 X87.775 Y104.725 F7800.000
G1 E2.00000 F2400.00000
G1 F1800
G1 X87.775 Y95.275 E2.19477
G1 X112.225 Y95.275 E2.69869
G1 X112.225 Y104.725 E2.89346
G1 X87.850 Y104.725 E3.39583
G1 X87.970 Y104.265 F7800.000
G1 X96.191 Y102.646 F7800.000
G1 F1200
G1 X96.685 Y103.140 E3.41519
G1 X97.607 Y103.140 E3.44071
G1 X96.528 Y102.061 E3.48294
G1 X96.866 Y101.477 E3.50163
G1 X98.530 Y103.140 E3.56674
G1 X99.452 Y103.140 E3.59226
G1 X97.203 Y100.892 E3.68026
G1 X97.541 Y100.307 E3.69894
G1 X100.374 Y103.140 E3.80982
G1 X101.296 Y103.140 E3.83535
G1 X97.796 Y99.640 E3.97232
G1 X96.536 Y97.459 E4.04205
G1 X102.218 Y103.140 E4.26442
G1 X103.140 Y103.140 E4.28994
G1 X96.860 Y96.860 E4.53576
G1 X97.782 Y96.860 E4.56128
G1 X103.464 Y102.541 E4.78365
G1 X102.204 Y100.360 E4.85338
G1 X98.704 Y96.860 E4.99035
G1 X99.626 Y96.860 E5.01588
G1 X102.459 Y99.693 E5.12675
G1 X102.797 Y99.108 E5.14544
G1 X100.548 Y96.860 E5.23344
G1 X101.470 Y96.860 E5.25896
G1 X103.134 Y98.523 E5.32407
G1 X103.472 Y97.939 E5.34276
G1 X102.393 Y96.860 E5.38499
G1 X103.315 Y96.860 E5.41051
G1 X103.809 Y97.354 E5.42986
G1 Z0.950 F7800.000
G1 X104.007 Y100.000 F7800.000
G1 F900
G1 X105.754 Y96.975 E5.50185
G1 X109.246 Y96.975 E5.57385
G1 X110.993 Y100.000 E5.64584
G1 X109.246 Y103.025 E5.71783
G1 X105.754 Y103.025 E5.78982
G1 X104.045 Y100.065 E5.86027
G1 X103.574 Y99.750 F7800.000
G1 E3.86027 F2400.00000
G92 E0
G1 X89.663 Y103.529 F7800.000
G1 E2.00000 F2400.00000
G1 F900
G1 X88.971 Y103.529 E2.01866
G1 X88.971 Y102.896 E2.03574
G1 X89.254 Y102.820 E2.04363
G1 X89.626 Y103.464 E2.06368
G1 E0.06368 F2400.00000
G92 E0
G1 X89.254 Y97.180 F7800.000
G1 E2.00000 F2400.00000
G1 F900
G1 X88.971 Y97.104 E2.00789
G1 X88.971 Y96.471 E2.02497
G1 X89.663 Y96.471 E2.04363
G1 X89.291 Y97.115 E2.06368
G1 E0.06368 F2400.00000
G92 E0
G1 X97.374 Y100.000 F7800.000
G1 E2.00000 F2400.00000
G1 F900
G1 X95.337 Y96.471 E2.10992
G1 X104.663 Y96.471 E2.36151
G1 X102.626 Y100.000 E2.47143
G1 X104.663 Y103.529 E2.58135
G1 X95.337 Y103.529 E2.83293
G1 X97.337 Y100.065 E2.94083
G1 E0.94083 F2400.00000
G92 E0
G1 X110.337 Y103.529 F7800.000
G1 E2.00000 F2400.00000
G1 F900
G1 X110.746 Y102.820 E2.02208
G1 X111.029 Y102.896 E2.02997
G1 X111.029 Y103.529 E2.04705
G1 X110.412 Y103.529 E2.06369
G1 X111.029 Y97.104 F7800.000
G1 F900
G1 X110.746 Y97.180 E2.07158
G1 X110.337 Y96.471 E2.09366
G1 X111.029 Y96.471 E2.11232
G1 X111.029 Y97.029 E2.12737
G1 X109.570 Y96.414 F7800.000
G1 F3600
G1 X105.430 Y96.414 E2.23906
G1 X103.360 Y100.000 E2.35075
G1 X105.430 Y103.586 E2.46245
G1 X109.570 Y103.586 E2.57414
G1 X111.382 Y100.448 E2.67188
G1 X111.664 Y100.524 E2.67977
G1 X111.664 Y104.164 E2.77799
G1 X88.336 Y104.164 E3.40731
G1 X88.336 Y100.524 E3.50553
G1 X88.618 Y100.448 E3.51342
G1 X90.430 Y103.586 E3.61116
G1 X94.570 Y103.586 E3.72286
G1 X96.640 Y100.000 E3.83455
G1 X94.570 Y96.414 E3.94624
G1 X90.430 Y96.414 E4.05793
G1 X88.618 Y99.552 E4.15567
G1 X88.336 Y99.476 E4.16356
G1 X88.336 Y95.836 E4.26178
G1 X111.664 Y95.836 E4.89111
G1 X111.664 Y99.476 E4.98932
G1 X111.382 Y99.552 E4.99722
G1 X109.608 Y96.479 E5.09293
G1 E3.09293 F2400.00000
G92 E0
G1 X95.993 Y100.000 F7800.000
G1 E2.00000 F2400.00000
G1 F900
G1 X94.246 Y103.025 E2.07199
G1 X90.754 Y103.025 E2.14398
G1 X89.007 Y100.000 E2.21597
G1 X90.754 Y96.975 E2.28796
G1 X94.246 Y96.975 E2.35996
G1 X95.955 Y99.935 E2.43040
G1 X96.426 Y100.250 F7800.000
G1 E0.43040 F2400.00000
G92 E0
G1 X87.775 Y104.725 F7800.000
G1 E2.00000 F2400.00000
G1 F1800
G1 X87.775 Y95.275 E2.19477
G1 X112.225 Y95.275 E2.69869
G1 X112.225 Y104.725 E2.89346
G1 X87.850 Y104.725 E3.39583
G1 X87.970 Y104.265 F7800.000
G1 E1.39583 F2400.00000
G92 E0
G1 X96.685 Y96.860 F7800.000
G1 E2.00000 F2400.00000
G1 F1200
G1 X96.191 Y97.354 E2.01935
G1 X96.528 Y97.939 E2.03804
G1 X97.607 Y96.860 E2.08027
G1 X98.530 Y96.860 E2.10579
G1 X96.866 Y98.523 E2.17091
G1 X97.203 Y99.108 E2.18959
G1 X99.452 Y96.860 E2.27759
G1 X100.374 Y96.860 E2.30311
G1 X97.541 Y99.693 E2.41399
G1 X97.861 Y100.247 E2.43171
G1 X97.796 Y100.360 E2.43530
G1 X101.296 Y96.860 E2.57228
G1 X102.218 Y96.860 E2.59780
G1 X96.536 Y102.541 E2.82017
G1 X96.191 Y103.140 E2.83931
G1 X96.860 Y103.140 E2.85783
G1 X103.140 Y96.860 E3.10364
G1 X103.809 Y96.860 E3.12216
G1 X103.464 Y97.459 E3.14130
G1 X97.782 Y103.140 E3.36367
G1 X98.704 Y103.140 E3.38919
G1 X102.204 Y99.640 E3.52617
G1 X102.139 Y99.753 E3.52976
G1 X102.459 Y100.307 E3.54748
G1 X99.626 Y103.140 E3.65836
G1 X100.548 Y103.140 E3.68388
G1 X102.797 Y100.892 E3.77188
G1 X103.134 Y101.477 E3.79057
G1 X101.470 Y103.140 E3.85568
G1 X102.393 Y103.140 E3.88120
G1 X103.472 Y102.061 E3.92344
G1 X103.809 Y102.646 E3.94212
G1 X103.315 Y103.140 E3.96147
M106 S226.95
G1 Z1.250 F7800.000
G1 X104.007 Y100.000 F7800.000
G1 F900
G1 X105.754 Y96.975 E4.03346
G1 X109.246 Y96.975 E4.10546
G1 X110.993 Y100.000 E4.17745
G1 X109.246 Y103.025 E4.24944
G1 X105.754 Y103.025 E4.32143
G1 X104.045 Y100.065 E4.39187
G1 X103.574 Y99.750 F7800.000
G1 E2.39187 F2400.00000
G92 E0
G1 X89.663 Y103.529 F7800.000
G1 E2.00000 F2400.00000
G1 F900
G1 X88.971 Y103.529 E2.01866
G1 X88.971 Y102.896 E2.03574
G1 X89.254 Y102.820 E2.04363
G1 X89.626 Y103.464 E2.06368
G1 E0.06368 F2400.00000
G92 E0
G1 X89.254 Y97.180 F7800.000
G1 E2.00000 F2400.00000
G1 F900
G1 X88.971 Y97.104 E2.00789
G1 X88.971 Y96.471 E2.02497
G1 X89.663 Y96.471 E2.04363
G1 X89.291 Y97.115 E2.06368
G1 E0.06368 F2400.00000
G92 E0
G1 X97.374 Y100.000 F7800.000
G1 E2.00000 F2400.00000
G1 F900
G1 X95.337 Y96.471 E2.10992
G1 X104.663 Y96.471 E2.36151
G1 X102.626 Y100.000 E2.47143
G1 X104.663 Y103.529 E2.58135
G1 X95.337 Y103.529 E2.83293
G1 X97.337 Y100.065 E2.94083
G1 E0.94083 F2400.00000
G92 E0
G1 X110.337 Y103.529 F7800.000
G1 E2.00000 F2400.00000
G1 F900
G1 X110.746 Y102.820 E2.02208
G1 X111.029 Y102.896 E2.02997
G1 X111.029 Y103.529 E2.04705
G1 X110.412 Y103.529 E2.06369
G1 X111.029 Y97.104 F7800.000
G1 F900
G1 X110.746 Y97.180 E2.07158
G1 X110.337 Y96.471 E2.09366
G1 X111.029 Y96.471 E2.11232
G1 X111.029 Y97.029 E2.12737
G1 X109.570 Y96.414 F7800.000
G1 F3600
G1 X105.430 Y96.414 E2.23906
G1 X103.360 Y100.000 E2.35075
G1 X105.430 Y103.586 E2.46245
G1 X109.570 Y103.586 E2.57414
G1 X111.382 Y100.448 E2.67188
G1 X111.664 Y100.524 E2.67977
G1 X111.664 Y104.164 E2.77799
G1 X88.336 Y104.164 E3.40731
G1 X88.336 Y100.524 E3.50553
G1 X88.618 Y100.448 E3.51342
G1 X90.430 Y103.586 E3.61116
G1 X94.570 Y103.586 E3.72286
G1 X96.640 Y100.000 E3.83455
G1 X94.570 Y96.414 E3.94624
G1 X90.430 Y96.414 E4.05793
G1 X88.618 Y99.552 E4.15567
G1 X88.336 Y99.476 E4.16356
G1 X88.336 Y95.836 E4.26178
G1 X111.664 Y95.836 E4.89111
G1 X111.664 Y99.476 E4.98932
G1 X111.382 Y99.552 E4.99722
G1 X109.608 Y96.479 E5.09293
G1 E3.09293 F2400.00000
G92 E0
G1 X95.993 Y100.000 F7800.000
G1 E2.00000 F2400.00000
G1 F900
G1 X94.246 Y103.025 E2.07199
G1 X90.754 Y103.025 E2.14398
G1 X89.007 Y100.000 E2.21597
G1 X90.754 Y96.975 E2.28796
G1 X94.246 Y96.975 E2.35996
G1 X95.955 Y99.935 E2.43040
G1 X96.426 Y100.250 F7800.000
G1 E0.43040 F2400.00000
G92 E0
G1 X87.775 Y104.725 F7800.000
G1 E2.00000 F2400.00000
G1 F1800
G1 X87.775 Y95.275 E2.19477
G1 X112.225 Y95.275 E2.69869
G1 X112.225 Y104.725 E2.89346
G1 X87.850 Y104.725 E3.39583
G1 X87.970 Y104.265 F7800.000
G1 X96.191 Y102.646 F7800.000
G1 F1200
G1 X96.685 Y103.140 E3.41519
G1 X97.607 Y103.140 E3.44071
G1 X96.528 Y102.061 E3.48294
G1 X96.866 Y101.477 E3.50163
G1 X98.530 Y103.140 E3.56674
G1 X99.452 Y103.140 E3.59226
G1 X97.203 Y100.892 E3.68026
G1 X97.541 Y100.307 E3.69894
G1 X100.374 Y103.140 E3.80982
G1 X101.296 Y103.140 E3.83534
G1 X97.796 Y99.640 E3.97232
G1 X96.536 Y97.459 E4.04204
G1 X102.218 Y103.140 E4.26442
G1 X103.140 Y103.140 E4.28994
G1 X96.860 Y96.860 E4.53575
G1 X97.782 Y96.860 E4.56127
G1 X103.464 Y102.541 E4.78364
G1 X102.204 Y100.359 E4.85336
G1 X98.704 Y96.860 E4.99034
G1 X99.626 Y96.860 E5.01586
G1 X102.459 Y99.693 E5.12674
G1 X102.797 Y99.108 E5.14542
G1 X100.548 Y96.860 E5.23342
G1 X101.470 Y96.860 E5.25894
G1 X103.134 Y98.523 E5.32406
G1 X103.472 Y97.939 E5.34274
G1 X102.393 Y96.860 E5.38497
G1 X103.315 Y96.860 E5.41049
G1 X103.809 Y97.354 E5.42985
M106 S229.5
G1 Z1.550 F7800.000
G1 X104.007 Y100.000 F7800.000
G1 F900
G1 X105.754 Y96.975 E5.50184
G1 X109.246 Y96.975 E5.57383
G1 X110.993 Y100.000 E5.64582
G1 X109.246 Y103.025 E5.71781
G1 X105.754 Y103.025 E5.78980
G1 X104.045 Y100.065 E5.86025
G1 X103.574 Y99.750 F7800.000
G1 E3.86025 F2400.00000
G92 E0
G1 X89.663 Y103.529 F7800.000
