; generated by Slic3r 1.3.1-dev on 2018-09-19 at 00:40:10

; external perimeters extrusion width = 0.55mm (4.37mm^3/s)
; perimeters extrusion width = 0.70mm (11.44mm^3/s)
; infill extrusion width = 0.63mm (13.45mm^3/s)
; solid infill extrusion width = 0.70mm (3.81mm^3/s)
; top infill extrusion width = 0.70mm (2.86mm^3/s)

M107
M104 S200 ; set temperature
G28 ; home all axes
G1 Z5 F5000 ; lift nozzle

; Filament gcode

M109 S200 ; set temperature and wait for it to be reached
G21 ; set units to millimeters
G90 ; use absolute coordinates
M82 ; use absolute distances for extrusion
G92 E0
G92 E0
G1 Z0.350 F7800.000
G1 E-2.00000 F2400.00000
G92 E0
G1 X25.174 Y70.084 F7800.000
G1 E2.00000 F2400.00000
G1 F1800
G1 X27.500 Y69.662 E2.07315
G1 X172.500 Y69.662 E6.55964
G1 X174.826 Y70.084 E6.63279
G1 X214.826 Y85.084 E7.95460
G1 X216.802 Y86.249 E8.02556
G1 X218.262 Y88.017 E8.09652
G1 X219.125 Y91.287 E8.20116
G1 X219.125 Y101.287 E8.51057
G1 X218.728 Y103.546 E8.58153
G1 X217.585 Y105.534 E8.65249
G1 X215.606 Y107.139 E8.73133
G1 X174.106 Y129.163 E10.18502
G1 X173.326 Y129.537 E10.21178
G1 X172.241 Y129.931 E10.24750
G1 X171.735 Y130.067 E10.26368
G1 X170.598 Y130.267 E10.29941
G1 X169.500 Y130.338 E10.33347
G1 X30.500 Y130.338 E14.63431
G1 X29.400 Y130.267 E14.66842
G1 X28.264 Y130.067 E14.70409
G1 X27.758 Y129.931 E14.72032
G1 X26.674 Y129.536 E14.75601
G1 X25.894 Y129.163 E14.78276
G1 X-15.606 Y107.139 E16.23645
G1 X-17.415 Y105.729 E16.30741
G1 X-18.635 Y103.787 E16.37837
G1 X-19.125 Y101.287 E16.45721
G1 X-19.125 Y91.287 E16.76662
G1 X-18.728 Y89.028 E16.83758
G1 X-17.585 Y87.040 E16.90855
G1 X-14.826 Y85.084 E17.01318
G1 X25.104 Y70.110 E18.33267
G1 E16.33267 F2400.00000
G92 E0
G1 X-6.268 Y99.671 F7800.000
G1 E2.00000 F2400.00000
G1 F1800
G1 X-6.875 Y99.833 E2.01942
G1 X-7.500 Y99.888 E2.03885
G1 X-8.125 Y99.833 E2.05827
G1 X-8.732 Y99.671 E2.07769
G1 X-9.301 Y99.406 E2.09712
G1 X-9.815 Y99.046 E2.11654
G1 X-10.259 Y98.602 E2.13597
G1 X-10.619 Y98.087 E2.15539
G1 X-10.884 Y97.519 E2.17481
G1 X-11.047 Y96.912 E2.19424
G1 X-11.101 Y96.287 E2.21366
G1 X-11.047 Y95.661 E2.23308
G1 X-10.884 Y95.055 E2.25251
G1 X-10.619 Y94.486 E2.27193
G1 X-10.259 Y93.972 E2.29135
G1 X-9.815 Y93.528 E2.31078
G1 X-9.301 Y93.168 E2.33020
G1 X-8.732 Y92.903 E2.34962
G1 X-8.125 Y92.740 E2.36905
G1 X-7.535 Y92.688 E2.38740
G1 X-6.876 Y92.740 E2.40783
G1 X-6.268 Y92.903 E2.42730
G1 X-5.699 Y93.168 E2.44673
G1 X-5.185 Y93.528 E2.46615
G1 X-4.741 Y93.972 E2.48557
G1 X-4.381 Y94.486 E2.50500
G1 X-4.116 Y95.055 E2.52442
G1 X-3.953 Y95.661 E2.54384
G1 X-3.899 Y96.287 E2.56327
G1 X-3.953 Y96.912 E2.58269
G1 X-4.116 Y97.519 E2.60212
G1 X-4.381 Y98.087 E2.62154
G1 X-4.741 Y98.602 E2.64096
G1 X-5.185 Y99.046 E2.66039
G1 X-5.699 Y99.406 E2.67981
G1 X-6.200 Y99.639 E2.69691
G1 X-6.268 Y99.671 F7800.000
G1 E0.69691 F2400.00000
G92 E0
G1 X-9.531 Y100.312 F7800.000
G1 E2.00000 F2400.00000
G1 F1800
G1 X-11.525 Y100.312 E2.06170
G1 X-11.525 Y98.318 E2.12341
G1 X-11.231 Y98.253 E2.13272
G1 X-11.162 Y98.401 E2.13778
G1 X-10.739 Y99.005 E2.16059
G1 X-10.527 Y99.217 E2.16986
G1 X-10.218 Y99.526 E2.18340
G1 X-9.614 Y99.949 E2.20620
G1 X-9.466 Y100.018 E2.21128
G1 X-9.515 Y100.239 E2.21827
G1 E0.21827 F2400.00000
G92 E0
G1 X3.962 Y96.946 F7800.000
G1 E2.00000 F2400.00000
G1 F1800
G1 X3.899 Y96.288 E2.02043
G1 X3.953 Y95.661 E2.03991
G1 X4.116 Y95.055 E2.05933
G1 X4.381 Y94.486 E2.07875
G1 X4.741 Y93.972 E2.09818
G1 X5.185 Y93.528 E2.11760
G1 X5.699 Y93.168 E2.13703
G1 X6.268 Y92.903 E2.15645
G1 X6.875 Y92.740 E2.17587
G1 X7.465 Y92.688 E2.19422
G1 X8.124 Y92.740 E2.21465
G1 X8.732 Y92.903 E2.23413
G1 X9.301 Y93.168 E2.25355
G1 X9.815 Y93.528 E2.27298
G1 X10.259 Y93.972 E2.29240
G1 X10.619 Y94.486 E2.31182
G1 X10.884 Y95.055 E2.33125
G1 X11.047 Y95.661 E2.35067
G1 X11.101 Y96.287 E2.37009
G1 X11.047 Y96.912 E2.38952
G1 X10.884 Y97.519 E2.40894
G1 X10.619 Y98.087 E2.42836
G1 X10.259 Y98.602 E2.44779
G1 X9.815 Y99.046 E2.46721
G1 X9.301 Y99.406 E2.48663
G1 X8.732 Y99.671 E2.50606
G1 X8.125 Y99.833 E2.52548
G1 X7.500 Y99.888 E2.54490
G1 X6.875 Y99.833 E2.56433
G1 X6.268 Y99.671 E2.58375
G1 X5.699 Y99.406 E2.60318
G1 X5.185 Y99.046 E2.62260
G1 X4.741 Y98.602 E2.64202
G1 X4.381 Y98.087 E2.66145
G1 X4.116 Y97.519 E2.68087
G1 X3.982 Y97.018 E2.69690
G1 X3.962 Y96.946 F7800.000
G1 E0.69690 F2400.00000
G92 E0
G1 X7.377 Y91.637 F7800.000
G1 E2.00000 F2400.00000
G1 F1800
G1 X7.258 Y90.980 E2.02066
G1 X27.500 Y83.389 E2.68956
G1 X47.742 Y90.980 E3.35846
G1 X47.623 Y91.637 E3.37912
G1 X7.452 Y91.637 E4.62205
G1 X6.881 Y91.699 F7800.000
G1 E2.62205 F2400.00000
G92 E0
G1 X152.258 Y90.980 F7800.000
G1 E2.00000 F2400.00000
G1 F1800
G1 X172.500 Y83.389 E2.66890
G1 X192.742 Y90.980 E3.33780
G1 X192.623 Y91.637 E3.35846
G1 X152.377 Y91.637 E4.60371
G1 X152.272 Y91.053 E4.62205
G1 X151.915 Y90.616 F7800.000
G1 E2.62205 F2400.00000
G92 E0
G1 X152.258 Y99.687 F7800.000
G1 E2.00000 F2400.00000
G1 F1800
G1 X154.570 Y99.687 E2.07153
G1 X155.300 Y99.751 E2.09420
G1 X156.075 Y99.959 E2.11904
G1 X156.803 Y100.298 E2.14388
G1 X157.461 Y100.758 E2.16872
G1 X158.028 Y101.326 E2.19357
G1 X158.489 Y101.984 E2.21841
G1 X158.824 Y102.703 E2.24296
G1 X159.036 Y103.485 E2.26803
G1 X159.100 Y104.217 E2.29076
G1 X159.100 Y112.783 E2.55581
G1 X159.036 Y113.513 E2.57848
G1 X158.828 Y114.289 E2.60332
G1 X158.489 Y115.016 E2.62816
G1 X158.028 Y115.674 E2.65300
G1 X157.461 Y116.242 E2.67784
G1 X156.803 Y116.702 E2.70268
G1 X156.075 Y117.041 E2.72753
G1 X155.300 Y117.249 E2.75237
G1 X154.570 Y117.313 E2.77504
G1 X144.893 Y117.313 E3.07446
G1 X143.140 Y117.175 E3.12885
G1 X141.370 Y116.750 E3.18519
G1 X139.687 Y116.053 E3.24154
G1 X138.135 Y115.102 E3.29788
G1 X136.798 Y113.960 E3.35227
G1 X130.330 Y107.492 E3.63531
G1 X129.874 Y106.952 E3.65717
G1 X129.481 Y106.285 E3.68112
G1 X129.204 Y105.562 E3.70508
G1 X129.055 Y104.811 E3.72876
G1 X129.031 Y104.030 E3.75293
G1 X129.140 Y103.262 E3.77694
G1 X129.375 Y102.524 E3.80089
G1 X129.730 Y101.837 E3.82485
G1 X130.196 Y101.218 E3.84880
G1 X130.752 Y100.692 E3.87248
G1 X131.401 Y100.257 E3.89665
G1 X132.109 Y99.940 E3.92066
G1 X132.858 Y99.746 E3.94461
G1 X133.563 Y99.687 E3.96648
G1 X152.183 Y99.687 E4.54262
G1 X152.258 Y100.312 F7800.000
G1 F1800
G1 X154.543 Y100.312 E4.61330
G1 X155.191 Y100.369 E4.63344
G1 X155.861 Y100.548 E4.65490
G1 X156.489 Y100.841 E4.67636
G1 X157.057 Y101.239 E4.69782
G1 X157.548 Y101.729 E4.71927
G1 X157.946 Y102.297 E4.74073
G1 X158.235 Y102.918 E4.76193
G1 X158.418 Y103.595 E4.78361
G1 X158.475 Y104.244 E4.80378
G1 X158.475 Y112.756 E5.06714
G1 X158.418 Y113.404 E5.08728
G1 X158.239 Y114.074 E5.10874
G1 X157.946 Y114.702 E5.13019
G1 X157.548 Y115.271 E5.15165
G1 X157.057 Y115.761 E5.17311
G1 X156.489 Y116.159 E5.19457
G1 X155.861 Y116.452 E5.21603
G1 X155.191 Y116.631 E5.23749
G1 X154.543 Y116.688 E5.25762
G1 X144.918 Y116.688 E5.55543
G1 X143.239 Y116.556 E5.60754
G1 X141.563 Y116.154 E5.66084
G1 X139.972 Y115.495 E5.71415
G1 X138.503 Y114.595 E5.76745
G1 X137.223 Y113.501 E5.81956
G1 X130.790 Y107.068 E6.10102
G1 X130.385 Y106.589 E6.12044
G1 X130.046 Y106.013 E6.14113
G1 X129.807 Y105.388 E6.16182
G1 X129.678 Y104.740 E6.18226
G1 X129.658 Y104.065 E6.20317
G1 X129.751 Y103.402 E6.22390
G1 X129.954 Y102.764 E6.24459
G1 X130.261 Y102.170 E6.26528
G1 X130.664 Y101.636 E6.28597
G1 X131.144 Y101.182 E6.30641
G1 X131.705 Y100.805 E6.32732
G1 X132.316 Y100.532 E6.34805
G1 X132.964 Y100.365 E6.36874
G1 X133.589 Y100.312 E6.38816
G1 X152.183 Y100.312 E6.96349
G1 X152.258 Y100.937 F7800.000
G1 F1800
G1 X154.515 Y100.937 E7.03333
G1 X155.082 Y100.986 E7.05093
G1 X155.646 Y101.138 E7.06900
G1 X156.176 Y101.384 E7.08708
G1 X156.654 Y101.720 E7.10515
G1 X157.067 Y102.133 E7.12323
G1 X157.402 Y102.611 E7.14130
G1 X157.646 Y103.134 E7.15914
G1 X157.800 Y103.704 E7.17744
G1 X157.850 Y104.272 E7.19505
G1 X157.850 Y112.728 E7.45672
G1 X157.800 Y113.295 E7.47432
G1 X157.649 Y113.859 E7.49240
G1 X157.402 Y114.389 E7.51047
G1 X157.067 Y114.867 E7.52855
G1 X156.654 Y115.280 E7.54662
G1 X156.176 Y115.616 E7.56470
G1 X155.646 Y115.862 E7.58277
G1 X155.082 Y116.014 E7.60085
G1 X154.515 Y116.063 E7.61845
G1 X144.942 Y116.063 E7.91465
G1 X143.337 Y115.937 E7.96449
G1 X141.757 Y115.558 E8.01474
G1 X140.257 Y114.936 E8.06500
G1 X138.872 Y114.087 E8.11526
G1 X137.647 Y113.041 E8.16509
G1 X131.251 Y106.645 E8.44497
G1 X130.897 Y106.226 E8.46195
G1 X130.611 Y105.741 E8.47938
G1 X130.410 Y105.215 E8.49681
G1 X130.301 Y104.669 E8.51401
G1 X130.284 Y104.099 E8.53165
G1 X130.363 Y103.541 E8.54910
G1 X130.534 Y103.004 E8.56653
G1 X130.792 Y102.504 E8.58396
G1 X131.131 Y102.054 E8.60139
G1 X131.535 Y101.672 E8.61859
G1 X132.009 Y101.354 E8.63623
G1 X132.523 Y101.124 E8.65368
G1 X133.069 Y100.983 E8.67111
G1 X133.615 Y100.937 E8.68808
G1 X152.183 Y100.937 E9.26260
G1 X152.508 Y100.504 F7800.000
G1 E7.26260 F2400.00000
G92 E0
G1 X155.427 Y84.398 F7800.000
G1 E2.00000 F2400.00000
G1 F1800
G1 X132.790 Y92.887 E2.74805
G1 X114.361 Y92.887 E3.31828
G1 X114.361 Y81.687 E3.66481
G1 X154.936 Y81.687 E4.92025
G1 X155.414 Y84.324 E5.00316
G1 X154.719 Y83.996 F7800.000
G1 F1800
G1 X132.677 Y92.262 E5.73156
G1 X114.986 Y92.262 E6.27895
G1 X114.986 Y82.312 E6.58681
G1 X154.414 Y82.312 E7.80677
G1 X154.706 Y83.922 E7.85740
G1 X154.011 Y83.594 F7800.000
G1 F1800
G1 X132.563 Y91.637 E8.56615
G1 X115.610 Y91.637 E9.09070
G1 X115.610 Y82.937 E9.35989
G1 X153.892 Y82.937 E10.54437
G1 X153.998 Y83.520 E10.56271
G1 X154.355 Y83.957 F7800.000
G1 E8.56271 F2400.00000
G92 E0
G1 X110.716 Y95.195 F7800.000
G1 E2.00000 F2400.00000
G1 F1800
G1 X110.782 Y95.444 E2.00796
G1 X110.856 Y96.287 E2.03415
G1 X110.782 Y97.130 E2.06034
G1 X110.563 Y97.948 E2.08653
G1 X110.205 Y98.715 E2.11271
G1 X109.720 Y99.408 E2.13890
G1 X109.446 Y99.682 E2.15089
G1 X109.121 Y100.007 E2.16510
G1 X108.428 Y100.492 E2.19128
G1 X107.661 Y100.850 E2.21747
G1 X106.843 Y101.069 E2.24367
G1 X106.000 Y101.143 E2.26985
G1 X105.157 Y101.069 E2.29604
G1 X104.339 Y100.850 E2.32223
G1 X103.572 Y100.492 E2.34842
G1 X102.879 Y100.007 E2.37461
G1 X102.280 Y99.408 E2.40080
G1 X101.795 Y98.715 E2.42699
G1 X101.437 Y97.948 E2.45318
G1 X101.218 Y97.130 E2.47937
G1 X101.144 Y96.287 E2.50556
G1 X101.218 Y95.444 E2.53175
G1 X101.437 Y94.626 E2.55794
G1 X101.795 Y93.859 E2.58413
G1 X102.280 Y93.165 E2.61032
G1 X102.879 Y92.567 E2.63651
G1 X103.572 Y92.081 E2.66270
G1 X104.339 Y91.724 E2.68889
G1 X105.157 Y91.505 E2.71508
G1 X105.959 Y91.434 E2.74001
G1 X106.836 Y91.503 E2.76721
G1 X107.661 Y91.724 E2.79364
G1 X108.428 Y92.081 E2.81983
G1 X109.121 Y92.567 E2.84602
G1 X109.720 Y93.165 E2.87221
G1 X110.205 Y93.859 E2.89840
G1 X110.563 Y94.626 E2.92459
G1 X110.696 Y95.123 E2.94050
G1 X110.112 Y95.357 F7800.000
G1 F1800
G1 X110.164 Y95.553 E2.94676
G1 X110.229 Y96.287 E2.96957
G1 X110.164 Y97.021 E2.99238
G1 X109.974 Y97.733 E3.01518
G1 X109.662 Y98.401 E3.03799
G1 X109.239 Y99.005 E3.06080
G1 X109.004 Y99.240 E3.07109
G1 X108.718 Y99.526 E3.08360
G1 X108.114 Y99.949 E3.10641
G1 X107.446 Y100.260 E3.12922
G1 X106.734 Y100.451 E3.15203
G1 X106.000 Y100.515 E3.17483
G1 X105.266 Y100.451 E3.19764
G1 X104.554 Y100.260 E3.22044
G1 X103.886 Y99.949 E3.24325
G1 X103.282 Y99.526 E3.26606
G1 X102.761 Y99.005 E3.28887
G1 X102.338 Y98.401 E3.31167
G1 X102.026 Y97.733 E3.33448
G1 X101.836 Y97.021 E3.35728
G1 X101.771 Y96.287 E3.38009
G1 X101.836 Y95.553 E3.40290
G1 X102.026 Y94.841 E3.42570
G1 X102.338 Y94.173 E3.44851
G1 X102.761 Y93.569 E3.47132
G1 X103.282 Y93.047 E3.49413
G1 X103.886 Y92.625 E3.51693
G1 X104.554 Y92.313 E3.53974
G1 X105.266 Y92.122 E3.56255
G1 X105.962 Y92.061 E3.58418
G1 X106.730 Y92.121 E3.60800
G1 X107.446 Y92.313 E3.63095
G1 X108.114 Y92.625 E3.65376
G1 X108.718 Y93.047 E3.67656
G1 X109.239 Y93.569 E3.69937
G1 X109.662 Y94.172 E3.72218
G1 X109.974 Y94.841 E3.74498
G1 X110.093 Y95.285 E3.75921
G1 X109.508 Y95.519 F7800.000
G1 F1800
G1 X109.547 Y95.661 E3.76378
G1 X109.601 Y96.287 E3.78320
G1 X109.547 Y96.912 E3.80263
G1 X109.384 Y97.519 E3.82205
G1 X109.119 Y98.087 E3.84147
G1 X108.759 Y98.602 E3.86090
G1 X108.562 Y98.798 E3.86950
G1 X108.315 Y99.046 E3.88032
G1 X107.801 Y99.406 E3.89974
G1 X107.232 Y99.671 E3.91917
G1 X106.625 Y99.833 E3.93859
G1 X106.000 Y99.888 E3.95801
G1 X105.375 Y99.833 E3.97744
G1 X104.768 Y99.671 E3.99686
G1 X104.199 Y99.406 E4.01628
G1 X103.685 Y99.046 E4.03571
G1 X103.241 Y98.602 E4.05513
G1 X102.881 Y98.087 E4.07456
G1 X102.616 Y97.519 E4.09398
G1 X102.453 Y96.912 E4.11340
G1 X102.399 Y96.287 E4.13283
G1 X102.453 Y95.661 E4.15225
G1 X102.616 Y95.055 E4.17167
G1 X102.881 Y94.486 E4.19110
G1 X103.241 Y93.972 E4.21052
G1 X103.685 Y93.528 E4.22994
G1 X104.199 Y93.168 E4.24937
G1 X104.768 Y92.903 E4.26879
G1 X105.375 Y92.740 E4.28821
G1 X105.965 Y92.688 E4.30656
G1 X106.624 Y92.740 E4.32699
G1 X107.232 Y92.903 E4.34647
G1 X107.801 Y93.168 E4.36589
G1 X108.315 Y93.528 E4.38532
G1 X108.759 Y93.972 E4.40474
G1 X109.119 Y94.486 E4.42416
G1 X109.384 Y95.055 E4.44359
G1 X109.489 Y95.446 E4.45612
G1 X109.652 Y95.552 F7800.000
G1 E2.45612 F2400.00000
G92 E0
G1 X98.856 Y96.287 F7800.000
G1 E2.00000 F2400.00000
G1 F1800
G1 X98.782 Y97.130 E2.02619
G1 X98.563 Y97.948 E2.05238
G1 X98.205 Y98.715 E2.07857
G1 X97.720 Y99.408 E2.10476
G1 X97.446 Y99.682 E2.11674
G1 X97.121 Y100.007 E2.13095
G1 X96.428 Y100.492 E2.15714
G1 X95.661 Y100.850 E2.18333
G1 X94.843 Y101.069 E2.20952
G1 X94.000 Y101.143 E2.23571
G1 X93.157 Y101.069 E2.26190
G1 X92.339 Y100.850 E2.28809
G1 X91.572 Y100.492 E2.31428
G1 X90.879 Y100.007 E2.34047
G1 X90.554 Y99.682 E2.35467
G1 X90.280 Y99.408 E2.36666
G1 X89.795 Y98.715 E2.39285
G1 X89.437 Y97.948 E2.41904
G1 X89.218 Y97.130 E2.44523
G1 X89.144 Y96.287 E2.47142
G1 X89.218 Y95.444 E2.49761
G1 X89.437 Y94.626 E2.52380
G1 X89.795 Y93.859 E2.54999
G1 X90.280 Y93.165 E2.57618
G1 X90.879 Y92.567 E2.60237
G1 X91.572 Y92.081 E2.62856
G1 X92.339 Y91.724 E2.65475
G1 X93.157 Y91.505 E2.68094
G1 X93.959 Y91.434 E2.70587
G1 X94.836 Y91.503 E2.73306
G1 X95.661 Y91.724 E2.75949
G1 X96.428 Y92.081 E2.78568
G1 X97.121 Y92.567 E2.81187
G1 X97.720 Y93.165 E2.83806
G1 X98.205 Y93.859 E2.86425
G1 X98.563 Y94.626 E2.89044
G1 X98.782 Y95.444 E2.91663
G1 X98.849 Y96.212 E2.94050
G1 X98.229 Y96.287 F7800.000
G1 F1800
G1 X98.164 Y97.021 E2.96331
G1 X97.974 Y97.733 E2.98611
G1 X97.662 Y98.401 E3.00892
G1 X97.239 Y99.005 E3.03173
G1 X97.004 Y99.240 E3.04202
G1 X96.718 Y99.526 E3.05453
G1 X96.114 Y99.949 E3.07734
G1 X95.446 Y100.260 E3.10015
G1 X94.734 Y100.451 E3.12295
G1 X94.000 Y100.515 E3.14576
G1 X93.266 Y100.451 E3.16857
G1 X92.554 Y100.260 E3.19137
G1 X91.886 Y99.949 E3.21418
G1 X91.282 Y99.526 E3.23699
G1 X90.996 Y99.240 E3.24950
G1 X90.761 Y99.005 E3.25979
G1 X90.338 Y98.401 E3.28260
G1 X90.026 Y97.733 E3.30541
G1 X89.836 Y97.021 E3.32821
G1 X89.771 Y96.287 E3.35102
G1 X89.836 Y95.553 E3.37383
G1 X90.026 Y94.841 E3.39663
G1 X90.338 Y94.172 E3.41944
G1 X90.761 Y93.569 E3.44225
G1 X91.282 Y93.047 E3.46505
G1 X91.886 Y92.625 E3.48786
G1 X92.554 Y92.313 E3.51067
G1 X93.266 Y92.122 E3.53347
G1 X93.962 Y92.061 E3.55511
G1 X94.730 Y92.121 E3.57893
G1 X95.446 Y92.313 E3.60188
G1 X96.114 Y92.625 E3.62469
G1 X96.718 Y93.047 E3.64749
G1 X97.239 Y93.569 E3.67030
G1 X97.662 Y94.172 E3.69311
G1 X97.974 Y94.841 E3.71591
G1 X98.164 Y95.553 E3.73872
G1 X98.222 Y96.212 E3.75921
G1 X97.601 Y96.287 F7800.000
G1 F1800
G1 X97.547 Y96.912 E3.77863
G1 X97.384 Y97.519 E3.79805
G1 X97.119 Y98.087 E3.81748
G1 X96.759 Y98.602 E3.83690
G1 X96.562 Y98.798 E3.84550
G1 X96.315 Y99.046 E3.85632
G1 X95.801 Y99.406 E3.87575
G1 X95.232 Y99.671 E3.89517
G1 X94.625 Y99.833 E3.91459
G1 X94.000 Y99.888 E3.93402
G1 X93.375 Y99.833 E3.95344
G1 X92.768 Y99.671 E3.97287
G1 X92.199 Y99.406 E3.99229
G1 X91.685 Y99.046 E4.01171
G1 X91.438 Y98.798 E4.02253
G1 X91.241 Y98.602 E4.03114
G1 X90.881 Y98.087 E4.05056
G1 X90.616 Y97.519 E4.06998
G1 X90.453 Y96.912 E4.08941
G1 X90.399 Y96.287 E4.10883
G1 X90.453 Y95.661 E4.12825
G1 X90.616 Y95.055 E4.14768
G1 X90.881 Y94.486 E4.16710
G1 X91.241 Y93.972 E4.18652
G1 X91.685 Y93.528 E4.20595
