; generated by Slic3r 1.3.1-dev on 2018-09-19 at 00:40:00

; external perimeters extrusion width = 0.55mm (4.37mm^3/s)
; perimeters extrusion width = 0.70mm (11.44mm^3/s)
; infill extrusion width = 0.63mm (13.45mm^3/s)
; solid infill extrusion width = 0.70mm (3.81mm^3/s)
; top infill extrusion width = 0.70mm (2.86mm^3/s)

M107
M104 S200 ; set temperature
G28 ; home all axes
G1 Z5 F5000 ; lift nozzle

; Filament gcode

M109 S200 ; set temperature and wait for it to be reached
G21 ; set units to millimeters
G90 ; use absolute coordinates
M82 ; use absolute distances for extrusion
G92 E0
G92 E0
G1 Z0.350 F7800.000
G1 E-2.00000 F2400.00000
G92 E0
G1 X22.715 Y23.356 F7800.000
G1 E2.00000 F2400.00000
G1 F1800
G1 X23.831 Y22.298 E2.04758
G1 X46.839 Y5.087 E2.93661
G1 X47.277 Y4.785 E2.95307
G1 X48.295 Y4.144 E2.99030
G1 X49.236 Y3.652 E3.02316
G1 X50.344 Y3.182 E3.06039
G1 X51.352 Y2.847 E3.09327
G1 X52.521 Y2.560 E3.13049
G1 X53.570 Y2.390 E3.16337
G1 X54.769 Y2.293 E3.20060
G1 X55.300 Y2.272 E3.21704
G1 X172.200 Y2.272 E6.83408
G1 X174.459 Y2.669 E6.90505
G1 X176.447 Y3.812 E6.97601
G1 X177.926 Y5.565 E7.04697
G1 X178.719 Y7.717 E7.11793
G1 X178.825 Y8.897 E7.15458
G1 X178.825 Y23.250 E7.59869
G1 X178.428 Y25.509 E7.66965
G1 X177.311 Y27.465 E7.73933
G1 X38.911 Y195.318 E14.47070
G1 X37.168 Y196.808 E14.54166
G1 X35.021 Y197.614 E14.61262
G1 X33.800 Y197.728 E14.65057
G1 X27.800 Y197.728 E14.83622
G1 X25.541 Y197.331 E14.90718
G1 X23.553 Y196.188 E14.97815
G1 X22.074 Y194.435 E15.04911
G1 X21.281 Y192.283 E15.12007
G1 X21.175 Y191.103 E15.15672
G1 X21.175 Y27.603 E20.21563
G1 X21.572 Y25.344 E20.28659
G1 X22.678 Y23.421 E20.35523
G1 E18.35523 F2400.00000
G92 E0
G1 X48.150 Y121.753 F7800.000
G1 E2.00000 F2400.00000
G1 F1800
G1 X48.150 Y127.453 E2.17637
G1 X45.450 Y127.453 E2.25991
G1 X45.450 Y121.753 E2.43627
G1 X48.075 Y121.753 E2.51749
G1 X48.615 Y121.569 F7800.000
G1 E0.51749 F2400.00000
G92 E0
G1 X76.231 Y83.697 F7800.000
G1 E2.00000 F2400.00000
G1 F1800
G1 X74.147 Y81.980 E2.08354
G1 X77.773 Y77.582 E2.25991
G1 X79.856 Y79.299 E2.34345
G1 X76.279 Y83.640 E2.51749
G1 X75.973 Y84.126 F7800.000
G1 E0.51749 F2400.00000
G92 E0
G1 X39.400 Y120.503 F7800.000
G1 E2.00000 F2400.00000
G1 F1800
G1 X39.400 Y128.703 E2.25370
G1 X34.200 Y128.703 E2.41459
G1 X34.200 Y120.503 E2.66829
G1 X39.325 Y120.503 E2.82685
G1 X38.775 Y121.128 F7800.000
G1 F1800
G1 X38.775 Y128.078 E3.04189
G1 X34.825 Y128.078 E3.16410
G1 X34.825 Y121.128 E3.37913
G1 X38.700 Y121.128 E3.49902
G1 X38.150 Y121.753 F7800.000
G1 F1800
G1 X38.150 Y127.453 E3.67539
G1 X35.450 Y127.453 E3.75893
G1 X35.450 Y121.753 E3.93529
G1 X38.075 Y121.753 E4.01652
G1 X38.615 Y121.569 F7800.000
G1 E2.01652 F2400.00000
G92 E0
G1 X68.684 Y79.097 F7800.000
G1 E2.00000 F2400.00000
G1 F1800
G1 X64.671 Y75.790 E2.16088
G1 X69.886 Y69.462 E2.41459
G1 X73.899 Y72.769 E2.57547
G1 X68.731 Y79.039 E2.82685
G1 X68.599 Y78.217 F7800.000
G1 F1800
G1 X65.551 Y75.705 E2.94906
G1 X69.971 Y70.342 E3.16410
G1 X73.019 Y72.854 E3.28631
G1 X68.647 Y78.159 E3.49903
G1 X68.514 Y77.337 F7800.000
G1 F1800
G1 X66.430 Y75.620 E3.58257
G1 X70.056 Y71.222 E3.75893
G1 X72.139 Y72.939 E3.84247
G1 X68.562 Y77.280 E4.01652
G1 X68.256 Y77.766 F7800.000
G1 E2.01652 F2400.00000
G92 E0
G1 X35.409 Y44.229 F7800.000
G1 E2.00000 F2400.00000
G1 F1800
G1 X35.232 Y44.406 E2.00774
G1 X34.803 Y44.706 E2.02395
G1 X34.328 Y44.928 E2.04016
G1 X33.822 Y45.063 E2.05637
G1 X33.300 Y45.109 E2.07259
G1 X32.778 Y45.063 E2.08880
G1 X32.272 Y44.928 E2.10501
G1 X31.797 Y44.706 E2.12122
G1 X31.368 Y44.406 E2.13743
G1 X30.997 Y44.035 E2.15365
G1 X30.697 Y43.606 E2.16986
G1 X30.475 Y43.131 E2.18607
G1 X30.340 Y42.625 E2.20228
G1 X30.294 Y42.103 E2.21849
G1 X30.340 Y41.581 E2.23471
G1 X30.475 Y41.075 E2.25092
G1 X30.697 Y40.600 E2.26713
G1 X30.997 Y40.171 E2.28334
G1 X31.368 Y39.800 E2.29955
G1 X31.797 Y39.500 E2.31576
G1 X32.272 Y39.278 E2.33198
G1 X32.778 Y39.143 E2.34819
G1 X33.300 Y39.097 E2.36440
G1 X33.822 Y39.143 E2.38061
G1 X34.328 Y39.278 E2.39683
G1 X34.803 Y39.500 E2.41304
G1 X35.232 Y39.800 E2.42925
G1 X35.603 Y40.171 E2.44546
G1 X35.903 Y40.600 E2.46168
G1 X36.125 Y41.075 E2.47789
G1 X36.260 Y41.581 E2.49410
G1 X36.306 Y42.103 E2.51031
G1 X36.260 Y42.625 E2.52652
G1 X36.125 Y43.131 E2.54273
G1 X35.903 Y43.606 E2.55895
G1 X35.603 Y44.035 E2.57516
G1 X35.462 Y44.176 E2.58131
G1 X34.967 Y43.787 F7800.000
G1 F1800
G1 X34.829 Y43.925 E2.58736
G1 X34.489 Y44.163 E2.60019
G1 X34.114 Y44.338 E2.61302
G1 X33.713 Y44.446 E2.62585
G1 X33.300 Y44.482 E2.63867
G1 X32.887 Y44.446 E2.65150
G1 X32.486 Y44.338 E2.66433
G1 X32.111 Y44.163 E2.67716
G1 X31.771 Y43.925 E2.68999
G1 X31.478 Y43.632 E2.70282
G1 X31.240 Y43.292 E2.71565
G1 X31.065 Y42.917 E2.72848
G1 X30.957 Y42.516 E2.74131
G1 X30.921 Y42.103 E2.75413
G1 X30.957 Y41.690 E2.76696
G1 X31.065 Y41.290 E2.77979
G1 X31.240 Y40.914 E2.79262
G1 X31.478 Y40.574 E2.80545
G1 X31.771 Y40.281 E2.81828
G1 X32.111 Y40.043 E2.83111
G1 X32.486 Y39.868 E2.84394
G1 X32.887 Y39.761 E2.85677
G1 X33.300 Y39.724 E2.86959
G1 X33.713 Y39.761 E2.88242
G1 X34.113 Y39.868 E2.89525
G1 X34.489 Y40.043 E2.90808
G1 X34.829 Y40.281 E2.92091
G1 X35.122 Y40.574 E2.93374
G1 X35.360 Y40.914 E2.94657
G1 X35.535 Y41.290 E2.95940
G1 X35.642 Y41.690 E2.97223
G1 X35.679 Y42.103 E2.98505
G1 X35.642 Y42.516 E2.99788
G1 X35.535 Y42.917 E3.01071
G1 X35.360 Y43.292 E3.02354
G1 X35.122 Y43.632 E3.03637
G1 X35.020 Y43.734 E3.04083
G1 X34.525 Y43.345 F7800.000
G1 F1800
G1 X34.426 Y43.445 E3.04519
G1 X34.176 Y43.620 E3.05463
G1 X33.899 Y43.749 E3.06408
G1 X33.604 Y43.828 E3.07352
G1 X33.300 Y43.854 E3.08297
G1 X32.996 Y43.828 E3.09242
G1 X32.701 Y43.749 E3.10186
G1 X32.424 Y43.620 E3.11131
G1 X32.174 Y43.445 E3.12075
G1 X31.958 Y43.229 E3.13020
G1 X31.783 Y42.979 E3.13964
G1 X31.654 Y42.702 E3.14909
G1 X31.575 Y42.407 E3.15854
G1 X31.549 Y42.103 E3.16798
G1 X31.575 Y41.799 E3.17743
G1 X31.654 Y41.504 E3.18687
G1 X31.783 Y41.227 E3.19632
G1 X31.958 Y40.977 E3.20576
G1 X32.174 Y40.761 E3.21521
G1 X32.424 Y40.586 E3.22466
G1 X32.701 Y40.457 E3.23410
G1 X32.996 Y40.378 E3.24355
G1 X33.300 Y40.352 E3.25299
G1 X33.604 Y40.378 E3.26244
G1 X33.899 Y40.457 E3.27188
G1 X34.176 Y40.586 E3.28133
G1 X34.426 Y40.761 E3.29078
G1 X34.642 Y40.977 E3.30022
G1 X34.817 Y41.227 E3.30967
G1 X34.946 Y41.504 E3.31911
G1 X35.025 Y41.799 E3.32856
G1 X35.051 Y42.103 E3.33800
G1 X35.025 Y42.407 E3.34745
G1 X34.946 Y42.702 E3.35690
G1 X34.817 Y42.979 E3.36634
G1 X34.578 Y43.292 E3.37852
G1 X34.567 Y43.480 F7800.000
G1 E1.37852 F2400.00000
G92 E0
G1 X47.112 Y31.939 F7800.000
G1 E2.00000 F2400.00000
G1 F1800
G1 X46.827 Y31.531 E2.01541
G1 X46.616 Y31.080 E2.03081
G1 X46.487 Y30.599 E2.04621
G1 X46.444 Y30.103 E2.06161
G1 X46.487 Y29.607 E2.07702
G1 X46.616 Y29.126 E2.09242
G1 X46.827 Y28.675 E2.10782
G1 X47.112 Y28.267 E2.12323
G1 X47.464 Y27.915 E2.13863
G1 X47.872 Y27.630 E2.15403
G1 X48.323 Y27.419 E2.16944
G1 X48.804 Y27.291 E2.18484
G1 X49.300 Y27.247 E2.20024
G1 X49.796 Y27.291 E2.21564
G1 X50.277 Y27.419 E2.23105
G1 X50.728 Y27.630 E2.24645
G1 X51.136 Y27.915 E2.26185
G1 X51.488 Y28.267 E2.27726
G1 X51.773 Y28.675 E2.29266
G1 X51.984 Y29.126 E2.30806
G1 X52.112 Y29.607 E2.32347
G1 X52.156 Y30.103 E2.33887
G1 X52.112 Y30.599 E2.35427
G1 X51.984 Y31.080 E2.36967
G1 X51.773 Y31.531 E2.38508
G1 X51.488 Y31.939 E2.40048
G1 X51.136 Y32.291 E2.41588
G1 X50.728 Y32.576 E2.43129
G1 X50.277 Y32.787 E2.44669
G1 X49.796 Y32.916 E2.46209
G1 X49.300 Y32.959 E2.47749
G1 X48.804 Y32.916 E2.49290
G1 X48.323 Y32.787 E2.50830
G1 X47.872 Y32.576 E2.52370
G1 X47.464 Y32.291 E2.53911
G1 X47.165 Y31.992 E2.55219
G1 X47.593 Y31.536 F7800.000
G1 F1800
G1 X47.370 Y31.217 E2.56421
G1 X47.206 Y30.865 E2.57623
G1 X47.105 Y30.490 E2.58825
G1 X47.071 Y30.103 E2.60027
G1 X47.105 Y29.716 E2.61229
G1 X47.206 Y29.341 E2.62431
G1 X47.370 Y28.989 E2.63633
G1 X47.593 Y28.671 E2.64835
G1 X47.867 Y28.396 E2.66037
G1 X48.186 Y28.173 E2.67239
G1 X48.538 Y28.009 E2.68441
G1 X48.913 Y27.908 E2.69643
G1 X49.300 Y27.874 E2.70845
G1 X49.687 Y27.908 E2.72047
G1 X50.062 Y28.009 E2.73249
G1 X50.414 Y28.173 E2.74451
G1 X50.732 Y28.396 E2.75653
G1 X51.007 Y28.671 E2.76855
G1 X51.230 Y28.989 E2.78057
G1 X51.394 Y29.341 E2.79259
G1 X51.495 Y29.716 E2.80461
G1 X51.529 Y30.103 E2.81663
G1 X51.495 Y30.490 E2.82865
G1 X51.394 Y30.865 E2.84067
G1 X51.230 Y31.217 E2.85268
G1 X51.007 Y31.536 E2.86471
G1 X50.732 Y31.810 E2.87673
G1 X50.414 Y32.033 E2.88875
G1 X50.062 Y32.197 E2.90077
G1 X49.687 Y32.298 E2.91279
G1 X49.300 Y32.332 E2.92480
G1 X48.913 Y32.298 E2.93682
G1 X48.538 Y32.197 E2.94884
G1 X48.186 Y32.033 E2.96086
G1 X47.867 Y31.810 E2.97288
G1 X47.646 Y31.589 E2.98258
G1 X48.073 Y31.132 F7800.000
G1 F1800
G1 X47.913 Y30.904 E2.99122
G1 X47.795 Y30.651 E2.99986
G1 X47.723 Y30.381 E3.00849
G1 X47.699 Y30.103 E3.01713
G1 X47.723 Y29.825 E3.02577
G1 X47.795 Y29.555 E3.03440
G1 X47.913 Y29.302 E3.04304
G1 X48.073 Y29.074 E3.05168
G1 X48.271 Y28.876 E3.06031
G1 X48.499 Y28.716 E3.06895
G1 X48.752 Y28.598 E3.07759
G1 X49.022 Y28.526 E3.08622
G1 X49.300 Y28.502 E3.09486
G1 X49.578 Y28.526 E3.10350
G1 X49.848 Y28.598 E3.11213
G1 X50.101 Y28.716 E3.12077
G1 X50.329 Y28.876 E3.12941
G1 X50.527 Y29.074 E3.13804
G1 X50.687 Y29.302 E3.14668
G1 X50.805 Y29.555 E3.15532
G1 X50.877 Y29.825 E3.16395
G1 X50.901 Y30.103 E3.17259
G1 X50.877 Y30.381 E3.18123
G1 X50.805 Y30.651 E3.18986
G1 X50.687 Y30.904 E3.19850
G1 X50.527 Y31.132 E3.20714
G1 X50.329 Y31.330 E3.21577
G1 X50.101 Y31.490 E3.22441
G1 X49.848 Y31.608 E3.23305
G1 X49.578 Y31.680 E3.24168
G1 X49.300 Y31.704 E3.25032
G1 X49.022 Y31.680 E3.25896
G1 X48.752 Y31.608 E3.26759
G1 X48.499 Y31.490 E3.27623
G1 X48.271 Y31.330 E3.28487
G1 X48.126 Y31.185 E3.29118
G1 X48.073 Y31.132 F7800.000
G1 E1.29118 F2400.00000
G92 E0
G1 X53.622 Y19.303 F7800.000
G1 E2.00000 F2400.00000
G1 F1800
G1 X53.143 Y18.968 E2.01810
G1 X52.729 Y18.554 E2.03620
G1 X52.394 Y18.075 E2.05430
G1 X52.146 Y17.545 E2.07240
G1 X51.995 Y16.980 E2.09050
G1 X51.944 Y16.397 E2.10860
G1 X51.995 Y15.814 E2.12670
G1 X52.146 Y15.249 E2.14480
G1 X52.394 Y14.719 E2.16290
G1 X52.729 Y14.240 E2.18100
G1 X53.143 Y13.826 E2.19910
G1 X53.622 Y13.491 E2.21720
G1 X54.152 Y13.243 E2.23530
G1 X54.717 Y13.092 E2.25340
G1 X55.292 Y13.042 E2.27126
G1 X55.880 Y13.091 E2.28952
G1 X56.448 Y13.243 E2.30769
G1 X56.978 Y13.491 E2.32579
G1 X57.457 Y13.826 E2.34389
G1 X57.871 Y14.240 E2.36199
G1 X58.206 Y14.719 E2.38009
G1 X58.450 Y15.242 E2.39795
G1 X58.605 Y15.812 E2.41622
G1 X58.656 Y16.397 E2.43439
G1 X58.605 Y16.980 E2.45249
G1 X58.453 Y17.545 E2.47059
G1 X58.206 Y18.075 E2.48869
G1 X57.871 Y18.554 E2.50679
G1 X57.457 Y18.968 E2.52489
G1 X56.978 Y19.303 E2.54299
G1 X56.448 Y19.550 E2.56109
G1 X55.883 Y19.702 E2.57919
G1 X55.300 Y19.753 E2.59729
G1 X54.717 Y19.702 E2.61539
G1 X54.152 Y19.550 E2.63349
G1 X53.690 Y19.335 E2.64927
G1 X53.936 Y18.760 F7800.000
G1 F1800
G1 X53.546 Y18.487 E2.66398
G1 X53.210 Y18.151 E2.67870
G1 X52.937 Y17.761 E2.69342
G1 X52.736 Y17.330 E2.70813
G1 X52.613 Y16.871 E2.72285
G1 X52.571 Y16.397 E2.73756
G1 X52.613 Y15.923 E2.75228
G1 X52.736 Y15.464 E2.76700
G1 X52.937 Y15.033 E2.78171
G1 X53.210 Y14.643 E2.79643
G1 X53.546 Y14.307 E2.81115
G1 X53.936 Y14.034 E2.82586
G1 X54.367 Y13.833 E2.84058
G1 X54.826 Y13.710 E2.85530
G1 X55.293 Y13.669 E2.86980
G1 X55.772 Y13.709 E2.88468
G1 X56.233 Y13.833 E2.89944
G1 X56.664 Y14.034 E2.91416
G1 X57.054 Y14.307 E2.92888
G1 X57.390 Y14.643 E2.94359
G1 X57.663 Y15.033 E2.95831
G1 X57.861 Y15.457 E2.97282
G1 X57.987 Y15.922 E2.98770
G1 X58.029 Y16.397 E3.00246
G1 X57.987 Y16.871 E3.01717
G1 X57.864 Y17.330 E3.03189
G1 X57.663 Y17.761 E3.04661
G1 X57.390 Y18.151 E3.06132
G1 X57.054 Y18.487 E3.07604
G1 X56.664 Y18.760 E3.09076
G1 X56.233 Y18.961 E3.10547
G1 X55.774 Y19.084 E3.12019
G1 X55.300 Y19.126 E3.13491
G1 X54.826 Y19.084 E3.14962
G1 X54.367 Y18.961 E3.16434
G1 X54.004 Y18.792 E3.17674
G1 X54.249 Y18.217 F7800.000
G1 F1800
G1 X53.949 Y18.007 E3.18807
G1 X53.690 Y17.748 E3.19940
G1 X53.480 Y17.448 E3.21074
G1 X53.325 Y17.116 E3.22207
G1 X53.231 Y16.762 E3.23340
G1 X53.199 Y16.397 E3.24474
G1 X53.231 Y16.032 E3.25607
G1 X53.325 Y15.678 E3.26740
G1 X53.480 Y15.346 E3.27874
G1 X53.690 Y15.046 E3.29007
G1 X53.949 Y14.787 E3.30140
G1 X54.249 Y14.577 E3.31274
G1 X54.581 Y14.422 E3.32407
G1 X54.935 Y14.327 E3.33540
G1 X55.294 Y14.296 E3.34656
G1 X55.664 Y14.327 E3.35805
G1 X56.019 Y14.422 E3.36940
G1 X56.351 Y14.577 E3.38074
G1 X56.651 Y14.787 E3.39207
G1 X56.910 Y15.046 E3.40340
G1 X57.120 Y15.346 E3.41474
G1 X57.272 Y15.673 E3.42589
G1 X57.369 Y16.031 E3.43738
G1 X57.401 Y16.397 E3.44873
G1 X57.369 Y16.762 E3.46007
G1 X57.275 Y17.116 E3.47140
G1 X57.120 Y17.448 E3.48273
G1 X56.910 Y17.748 E3.49407
G1 X56.651 Y18.007 E3.50540
G1 X56.351 Y18.217 E3.51673
G1 X56.019 Y18.372 E3.52807
G1 X55.665 Y18.466 E3.53940
G1 X55.300 Y18.498 E3.55073
G1 X54.935 Y18.466 E3.56207
G1 X54.581 Y18.372 E3.57340
G1 X54.317 Y18.248 E3.58241
G1 X54.249 Y18.217 F7800.000
G1 E1.58241 F2400.00000
G92 E0
G1 X101.800 Y21.650 F7800.000
G1 E2.00000 F2400.00000
G1 F1800
G1 X101.800 Y37.029 E2.47583
G1 X78.589 Y65.192 E3.60505
G1 X78.174 Y65.796 E3.62773
G1 X77.841 Y66.527 E3.65257
G1 X77.640 Y67.304 E3.67741
G1 X77.577 Y68.104 E3.70225
G1 X77.654 Y68.903 E3.72709
G1 X77.869 Y69.677 E3.75193
G1 X78.215 Y70.402 E3.77678
G1 X78.681 Y71.055 E3.80162
G1 X79.204 Y71.569 E3.82429
G1 X82.290 Y74.113 E3.94805
G1 X82.514 Y74.332 E3.95774
G1 X82.655 Y74.530 E3.96526
G1 X82.760 Y74.749 E3.97278
G1 X82.824 Y74.984 E3.98030
G1 X82.848 Y75.225 E3.98782
G1 X82.829 Y75.468 E3.99534
G1 X82.768 Y75.703 E4.00286
G1 X82.667 Y75.924 E4.01038
G1 X82.490 Y76.182 E4.02006
G1 X80.690 Y78.366 E4.10764
G1 X77.603 Y75.822 E4.23141
G1 X72.388 Y82.150 E4.48511
G1 X75.475 Y84.694 E4.60887
G1 X73.675 Y86.878 E4.69645
G1 X73.455 Y87.101 E4.70614
G1 X73.257 Y87.243 E4.71366
G1 X73.038 Y87.347 E4.72118
G1 X72.804 Y87.412 E4.72870
G1 X72.562 Y87.435 E4.73621
G1 X72.320 Y87.416 E4.74373
G1 X72.085 Y87.356 E4.75125
G1 X71.863 Y87.255 E4.75877
G1 X71.605 Y87.078 E4.76846
G1 X68.519 Y84.534 E4.89223
G1 X67.915 Y84.119 E4.91490
G1 X67.184 Y83.786 E4.93974
G1 X66.407 Y83.585 E4.96458
G1 X65.606 Y83.522 E4.98942
G1 X64.807 Y83.599 E5.01426
G1 X64.034 Y83.814 E5.03910
G1 X63.309 Y84.159 E5.06395
G1 X62.655 Y84.626 E5.08879
G1 X62.142 Y85.148 E5.11146
G1 X42.705 Y108.731 E6.05704
G1 X42.292 Y109.333 E6.07962
G1 X41.960 Y110.060 E6.10437
G1 X41.758 Y110.834 E6.12911
G1 X41.694 Y111.631 E6.15386
G1 X41.768 Y112.428 E6.17860
G1 X41.979 Y113.199 E6.20335
G1 X42.320 Y113.922 E6.22809
G1 X42.781 Y114.576 E6.25284
G1 X43.348 Y115.139 E6.27758
G1 X44.004 Y115.597 E6.30233
G1 X44.730 Y115.933 E6.32707
G1 X45.503 Y116.140 E6.35182
G1 X46.230 Y116.203 E6.37440
G1 X46.730 Y116.203 E6.38988
G1 X47.042 Y116.230 E6.39957
G1 X47.277 Y116.293 E6.40709
G1 X47.497 Y116.396 E6.41461
G1 X47.696 Y116.535 E6.42213
G1 X47.868 Y116.707 E6.42965
G1 X48.007 Y116.906 E6.43717
G1 X48.110 Y117.126 E6.44469
G1 X48.173 Y117.361 E6.45220
G1 X48.200 Y117.673 E6.46189
G1 X48.200 Y120.503 E6.54947
G1 X44.200 Y120.503 E6.67323
G1 X44.200 Y128.703 E6.92694
G1 X48.200 Y128.703 E7.05070
G1 X48.200 Y131.533 E7.13828
G1 X48.173 Y131.845 E7.14797
G1 X48.110 Y132.080 E7.15549
G1 X48.007 Y132.300 E7.16301
G1 X47.868 Y132.499 E7.17053
G1 X47.712 Y132.655 E7.17734
G1 X47.490 Y132.814 E7.18579
G1 X47.277 Y132.913 E7.19307
G1 X47.042 Y132.976 E7.20059
G1 X46.730 Y133.003 E7.21028
G1 X38.200 Y133.003 E7.47420
G1 X38.200 Y134.503 E7.52061
G1 X32.200 Y134.503 E7.70626
G1 X32.200 Y189.503 E9.40804
G1 X29.400 Y189.503 E9.49468
G1 X29.400 Y28.404 E14.47930
G1 X51.714 Y11.711 E15.34156
G1 X52.569 Y11.173 E15.37281
G1 X53.439 Y10.803 E15.40207
G1 X54.357 Y10.578 E15.43133
G1 X55.364 Y10.497 E15.46258
G1 X170.600 Y10.497 E19.02813
G1 X170.600 Y21.650 E19.37324
G1 X101.875 Y21.650 E21.49968
G1 X102.425 Y22.275 F7800.000
G1 F1800
G1 X102.425 Y37.253 E21.96312
G1 X79.089 Y65.568 E23.09844
G1 X78.720 Y66.105 E23.11858
G1 X78.432 Y66.736 E23.14004
G1 X78.259 Y67.407 E23.16149
