; generated by Slic3r 1.3.1-dev on 2018-09-19 at 00:03:02

; external perimeters extrusion width = 0.55mm (4.37mm^3/s)
; perimeters extrusion width = 0.70mm (11.44mm^3/s)
; infill extrusion width = 0.63mm (13.45mm^3/s)
; solid infill extrusion width = 0.70mm (3.81mm^3/s)
; top infill extrusion width = 0.70mm (2.86mm^3/s)

M107
M104 S200 ; set temperature
G28 ; home all axes
G1 Z5 F5000 ; lift nozzle

; Filament gcode

M109 S200 ; set temperature and wait for it to be reached
G21 ; set units to millimeters
G90 ; use absolute coordinates
M82 ; use absolute distances for extrusion
G92 E0
G92 E0
G1 Z0.350 F7800.000
G1 E-2.00000 F2400.00000
G92 E0
G1 X23.168 Y123.661 F7800.000
G1 E2.00000 F2400.00000
G1 F1800
G1 X143.425 Y6.033 E7.20498
G1 X144.258 Y5.342 E7.23846
G1 X145.400 Y4.542 E7.28162
G1 X146.400 Y3.964 E7.31734
G1 X147.665 Y3.375 E7.36050
G1 X148.749 Y2.980 E7.39621
G1 X150.096 Y2.619 E7.43936
G1 X151.233 Y2.419 E7.47509
G1 X152.623 Y2.297 E7.51825
G1 X153.200 Y2.272 E7.53612
G1 X166.200 Y2.272 E7.93836
G1 X168.459 Y2.669 E8.00932
G1 X170.447 Y3.812 E8.08028
G1 X171.926 Y5.565 E8.15125
G1 X172.786 Y8.178 E8.23637
G1 X178.786 Y63.178 E9.94824
G1 X178.825 Y63.897 E9.97050
G1 X178.825 Y123.897 E11.82698
G1 X178.804 Y124.429 E11.84345
G1 X178.732 Y125.312 E11.87088
G1 X178.562 Y126.360 E11.90372
G1 X178.351 Y127.218 E11.93107
G1 X178.203 Y127.729 E11.94753
G1 X158.101 Y188.068 E13.91536
G1 X157.918 Y188.551 E13.93136
G1 X157.463 Y189.629 E13.96756
G1 X156.988 Y190.547 E13.99954
G1 X156.371 Y191.541 E14.03574
G1 X155.758 Y192.374 E14.06772
G1 X154.994 Y193.259 E14.10392
G1 X154.260 Y193.987 E14.13589
G1 X153.367 Y194.743 E14.17209
G1 X152.529 Y195.347 E14.20406
G1 X151.529 Y195.955 E14.24026
G1 X150.607 Y196.422 E14.27224
G1 X149.525 Y196.867 E14.30844
G1 X148.542 Y197.184 E14.34041
G1 X147.404 Y197.456 E14.37661
G1 X146.383 Y197.617 E14.40859
G1 X145.217 Y197.708 E14.44478
G1 X144.700 Y197.728 E14.46079
G1 X27.800 Y197.728 E18.07783
G1 X25.541 Y197.331 E18.14879
G1 X23.553 Y196.188 E18.21975
G1 X22.074 Y194.435 E18.29072
G1 X21.281 Y192.283 E18.36168
G1 X21.175 Y191.103 E18.39833
G1 X21.175 Y128.397 E20.33854
G1 X21.572 Y126.138 E20.40950
G1 X23.127 Y123.724 E20.49835
G1 E18.49835 F2400.00000
G92 E0
G1 X141.794 Y181.925 F7800.000
G1 E2.00000 F2400.00000
G1 F1800
G1 X142.129 Y181.446 E2.01810
G1 X142.543 Y181.032 E2.03620
G1 X143.022 Y180.697 E2.05430
G1 X143.552 Y180.450 E2.07240
G1 X144.117 Y180.298 E2.09050
G1 X144.692 Y180.248 E2.10836
G1 X145.280 Y180.298 E2.12662
G1 X145.848 Y180.450 E2.14480
G1 X146.378 Y180.697 E2.16290
G1 X146.857 Y181.032 E2.18100
G1 X147.271 Y181.446 E2.19909
G1 X147.606 Y181.925 E2.21719
G1 X147.854 Y182.455 E2.23529
G1 X148.005 Y183.020 E2.25339
G1 X148.056 Y183.603 E2.27149
G1 X148.005 Y184.186 E2.28959
G1 X147.854 Y184.751 E2.30770
G1 X147.606 Y185.281 E2.32579
G1 X147.271 Y185.760 E2.34389
G1 X146.857 Y186.174 E2.36199
G1 X146.378 Y186.509 E2.38009
G1 X145.848 Y186.757 E2.39819
G1 X145.290 Y186.906 E2.41605
G1 X144.702 Y186.959 E2.43432
G1 X144.117 Y186.908 E2.45249
G1 X143.552 Y186.757 E2.47059
G1 X143.022 Y186.509 E2.48869
G1 X142.543 Y186.174 E2.50679
G1 X142.129 Y185.760 E2.52489
G1 X141.794 Y185.281 E2.54299
G1 X141.547 Y184.751 E2.56109
G1 X141.395 Y184.186 E2.57919
G1 X141.344 Y183.603 E2.59729
G1 X141.395 Y183.020 E2.61539
G1 X141.547 Y182.455 E2.63349
G1 X141.762 Y181.993 E2.64926
G1 X142.337 Y182.239 F7800.000
G1 F1800
G1 X142.610 Y181.849 E2.66398
G1 X142.946 Y181.513 E2.67870
G1 X143.336 Y181.240 E2.69342
G1 X143.767 Y181.039 E2.70813
G1 X144.226 Y180.916 E2.72285
G1 X144.693 Y180.875 E2.73735
G1 X145.172 Y180.916 E2.75223
G1 X145.633 Y181.039 E2.76700
G1 X146.064 Y181.240 E2.78171
G1 X146.454 Y181.513 E2.79643
G1 X146.790 Y181.849 E2.81114
G1 X147.063 Y182.239 E2.82586
G1 X147.264 Y182.670 E2.84058
G1 X147.387 Y183.129 E2.85529
G1 X147.429 Y183.603 E2.87001
G1 X147.387 Y184.077 E2.88473
G1 X147.264 Y184.536 E2.89945
G1 X147.063 Y184.967 E2.91416
G1 X146.790 Y185.357 E2.92888
G1 X146.454 Y185.693 E2.94359
G1 X146.064 Y185.966 E2.95831
G1 X145.633 Y186.167 E2.97303
G1 X145.180 Y186.289 E2.98753
G1 X144.702 Y186.332 E3.00241
G1 X144.226 Y186.290 E3.01717
G1 X143.767 Y186.167 E3.03189
G1 X143.336 Y185.966 E3.04661
G1 X142.946 Y185.693 E3.06132
G1 X142.610 Y185.357 E3.07604
G1 X142.337 Y184.967 E3.09076
G1 X142.136 Y184.536 E3.10547
G1 X142.013 Y184.077 E3.12019
G1 X141.971 Y183.603 E3.13491
G1 X142.013 Y183.129 E3.14962
G1 X142.136 Y182.670 E3.16434
G1 X142.305 Y182.307 E3.17674
G1 X142.880 Y182.552 F7800.000
G1 F1800
G1 X143.090 Y182.252 E3.18807
G1 X143.349 Y181.993 E3.19940
G1 X143.649 Y181.783 E3.21074
G1 X143.981 Y181.629 E3.22207
G1 X144.335 Y181.534 E3.23340
G1 X144.694 Y181.502 E3.24455
G1 X145.064 Y181.534 E3.25605
G1 X145.419 Y181.629 E3.26740
G1 X145.751 Y181.783 E3.27873
G1 X146.051 Y181.993 E3.29007
G1 X146.310 Y182.252 E3.30140
G1 X146.520 Y182.552 E3.31273
G1 X146.675 Y182.884 E3.32407
G1 X146.769 Y183.238 E3.33540
G1 X146.801 Y183.603 E3.34673
G1 X146.769 Y183.968 E3.35807
G1 X146.675 Y184.322 E3.36940
G1 X146.520 Y184.654 E3.38073
G1 X146.310 Y184.954 E3.39207
G1 X146.051 Y185.213 E3.40340
G1 X145.751 Y185.423 E3.41473
G1 X145.419 Y185.578 E3.42607
G1 X145.071 Y185.671 E3.43722
G1 X144.701 Y185.704 E3.44872
G1 X144.335 Y185.673 E3.46007
G1 X143.981 Y185.578 E3.47140
G1 X143.649 Y185.423 E3.48273
G1 X143.349 Y185.213 E3.49407
G1 X143.090 Y184.954 E3.50540
G1 X142.880 Y184.654 E3.51673
G1 X142.725 Y184.322 E3.52807
G1 X142.631 Y183.968 E3.53940
G1 X142.599 Y183.603 E3.55073
G1 X142.631 Y183.238 E3.56207
G1 X142.725 Y182.884 E3.57340
G1 X142.849 Y182.620 E3.58241
G1 X142.880 Y182.552 F7800.000
G1 E1.58241 F2400.00000
G92 E0
G1 X150.265 Y138.709 F7800.000
G1 E2.00000 F2400.00000
G1 F1800
G1 X149.784 Y138.581 E2.01540
G1 X149.333 Y138.370 E2.03081
G1 X148.925 Y138.085 E2.04621
G1 X148.573 Y137.733 E2.06161
G1 X148.288 Y137.325 E2.07702
G1 X148.077 Y136.874 E2.09242
G1 X147.949 Y136.393 E2.10782
G1 X147.905 Y135.897 E2.12323
G1 X147.949 Y135.401 E2.13863
G1 X148.077 Y134.920 E2.15403
G1 X148.288 Y134.469 E2.16943
G1 X148.573 Y134.061 E2.18484
G1 X148.925 Y133.709 E2.20024
G1 X149.333 Y133.424 E2.21564
G1 X149.784 Y133.213 E2.23105
G1 X150.265 Y133.084 E2.24645
G1 X150.761 Y133.041 E2.26185
G1 X151.257 Y133.084 E2.27726
G1 X151.738 Y133.213 E2.29266
G1 X152.189 Y133.424 E2.30806
G1 X152.597 Y133.709 E2.32346
G1 X152.949 Y134.061 E2.33887
G1 X153.234 Y134.469 E2.35427
G1 X153.445 Y134.920 E2.36967
G1 X153.574 Y135.401 E2.38508
G1 X153.617 Y135.897 E2.40048
G1 X153.574 Y136.393 E2.41588
G1 X153.445 Y136.874 E2.43128
G1 X153.234 Y137.325 E2.44669
G1 X152.949 Y137.733 E2.46209
G1 X152.597 Y138.085 E2.47749
G1 X152.189 Y138.370 E2.49290
G1 X151.738 Y138.581 E2.50830
G1 X151.257 Y138.709 E2.52371
G1 X150.761 Y138.753 E2.53911
G1 X150.340 Y138.716 E2.55219
G1 X150.374 Y138.092 F7800.000
G1 F1800
G1 X149.999 Y137.991 E2.56421
G1 X149.647 Y137.827 E2.57623
G1 X149.329 Y137.604 E2.58825
G1 X149.054 Y137.329 E2.60027
G1 X148.831 Y137.011 E2.61229
G1 X148.667 Y136.659 E2.62431
G1 X148.566 Y136.284 E2.63633
G1 X148.532 Y135.897 E2.64835
G1 X148.566 Y135.510 E2.66037
G1 X148.667 Y135.135 E2.67239
G1 X148.831 Y134.783 E2.68441
G1 X149.054 Y134.464 E2.69643
G1 X149.329 Y134.190 E2.70845
G1 X149.647 Y133.967 E2.72047
G1 X149.999 Y133.803 E2.73249
G1 X150.374 Y133.702 E2.74451
G1 X150.761 Y133.668 E2.75653
G1 X151.148 Y133.702 E2.76855
G1 X151.523 Y133.803 E2.78057
G1 X151.875 Y133.967 E2.79259
G1 X152.194 Y134.190 E2.80461
G1 X152.468 Y134.464 E2.81663
G1 X152.691 Y134.783 E2.82865
G1 X152.855 Y135.135 E2.84067
G1 X152.956 Y135.510 E2.85269
G1 X152.990 Y135.897 E2.86471
G1 X152.956 Y136.284 E2.87672
G1 X152.855 Y136.659 E2.88874
G1 X152.691 Y137.011 E2.90076
G1 X152.468 Y137.329 E2.91278
G1 X152.194 Y137.604 E2.92480
G1 X151.875 Y137.827 E2.93682
G1 X151.523 Y137.991 E2.94884
G1 X151.148 Y138.092 E2.96087
G1 X150.761 Y138.126 E2.97288
G1 X150.449 Y138.098 E2.98258
G1 X150.483 Y137.474 F7800.000
G1 F1800
G1 X150.213 Y137.402 E2.99122
G1 X149.960 Y137.284 E2.99986
G1 X149.732 Y137.124 E3.00849
G1 X149.534 Y136.926 E3.01713
G1 X149.374 Y136.698 E3.02577
G1 X149.256 Y136.445 E3.03440
G1 X149.184 Y136.175 E3.04304
G1 X149.160 Y135.897 E3.05168
G1 X149.184 Y135.619 E3.06031
G1 X149.256 Y135.349 E3.06895
G1 X149.374 Y135.096 E3.07759
G1 X149.534 Y134.868 E3.08622
G1 X149.732 Y134.670 E3.09486
G1 X149.960 Y134.510 E3.10350
G1 X150.213 Y134.392 E3.11213
G1 X150.483 Y134.320 E3.12077
G1 X150.761 Y134.296 E3.12941
G1 X151.039 Y134.320 E3.13804
G1 X151.309 Y134.392 E3.14668
G1 X151.562 Y134.510 E3.15532
G1 X151.790 Y134.670 E3.16395
G1 X151.988 Y134.868 E3.17259
G1 X152.148 Y135.096 E3.18123
G1 X152.266 Y135.349 E3.18986
G1 X152.338 Y135.619 E3.19850
G1 X152.362 Y135.897 E3.20714
G1 X152.338 Y136.175 E3.21577
G1 X152.266 Y136.445 E3.22441
G1 X152.148 Y136.698 E3.23305
G1 X151.988 Y136.926 E3.24168
G1 X151.790 Y137.124 E3.25032
G1 X151.562 Y137.284 E3.25896
G1 X151.309 Y137.402 E3.26759
G1 X151.039 Y137.474 E3.27623
G1 X150.761 Y137.498 E3.28487
G1 X150.558 Y137.480 E3.29118
G1 X150.483 Y137.474 F7800.000
G1 E1.29118 F2400.00000
G92 E0
G1 X164.397 Y125.829 F7800.000
G1 E2.00000 F2400.00000
G1 F1800
G1 X164.097 Y125.400 E2.01621
G1 X163.875 Y124.925 E2.03242
G1 X163.740 Y124.419 E2.04864
G1 X163.694 Y123.897 E2.06485
G1 X163.740 Y123.375 E2.08106
G1 X163.875 Y122.869 E2.09727
G1 X164.097 Y122.394 E2.11348
G1 X164.397 Y121.965 E2.12970
G1 X164.768 Y121.594 E2.14591
G1 X165.197 Y121.294 E2.16212
G1 X165.672 Y121.072 E2.17833
G1 X166.178 Y120.937 E2.19454
G1 X166.700 Y120.891 E2.21076
G1 X167.222 Y120.937 E2.22697
G1 X167.728 Y121.072 E2.24318
G1 X168.203 Y121.294 E2.25939
G1 X168.632 Y121.594 E2.27560
G1 X169.003 Y121.965 E2.29182
G1 X169.303 Y122.394 E2.30803
G1 X169.525 Y122.869 E2.32424
G1 X169.660 Y123.375 E2.34045
G1 X169.706 Y123.897 E2.35666
G1 X169.660 Y124.419 E2.37288
G1 X169.525 Y124.925 E2.38909
G1 X169.303 Y125.400 E2.40530
G1 X169.003 Y125.829 E2.42151
G1 X168.632 Y126.199 E2.43772
G1 X168.203 Y126.500 E2.45393
G1 X167.728 Y126.722 E2.47015
G1 X167.222 Y126.857 E2.48636
G1 X166.700 Y126.903 E2.50257
G1 X166.178 Y126.857 E2.51878
G1 X165.672 Y126.722 E2.53500
G1 X165.197 Y126.500 E2.55121
G1 X164.768 Y126.199 E2.56742
G1 X164.450 Y125.882 E2.58131
G1 X164.878 Y125.426 F7800.000
G1 F1800
G1 X164.640 Y125.086 E2.59414
G1 X164.465 Y124.710 E2.60697
G1 X164.358 Y124.310 E2.61980
G1 X164.321 Y123.897 E2.63263
G1 X164.358 Y123.484 E2.64546
G1 X164.465 Y123.083 E2.65829
G1 X164.640 Y122.708 E2.67111
G1 X164.878 Y122.368 E2.68394
G1 X165.171 Y122.075 E2.69677
G1 X165.511 Y121.837 E2.70960
G1 X165.887 Y121.662 E2.72243
G1 X166.287 Y121.554 E2.73526
G1 X166.700 Y121.518 E2.74809
G1 X167.113 Y121.554 E2.76091
G1 X167.514 Y121.662 E2.77374
G1 X167.889 Y121.837 E2.78657
G1 X168.229 Y122.075 E2.79940
G1 X168.522 Y122.368 E2.81223
G1 X168.760 Y122.708 E2.82506
G1 X168.935 Y123.083 E2.83789
G1 X169.043 Y123.484 E2.85072
G1 X169.079 Y123.897 E2.86355
G1 X169.043 Y124.310 E2.87638
G1 X168.935 Y124.710 E2.88921
G1 X168.760 Y125.086 E2.90203
G1 X168.522 Y125.426 E2.91486
G1 X168.229 Y125.719 E2.92769
G1 X167.889 Y125.957 E2.94052
G1 X167.514 Y126.132 E2.95335
G1 X167.113 Y126.239 E2.96618
G1 X166.700 Y126.276 E2.97901
G1 X166.287 Y126.239 E2.99183
G1 X165.886 Y126.132 E3.00466
G1 X165.511 Y125.957 E3.01749
G1 X165.171 Y125.719 E3.03032
G1 X164.931 Y125.479 E3.04083
G1 X165.358 Y125.023 F7800.000
G1 F1800
G1 X165.183 Y124.773 E3.05028
G1 X165.054 Y124.496 E3.05972
G1 X164.975 Y124.201 E3.06917
G1 X164.949 Y123.897 E3.07861
G1 X164.975 Y123.593 E3.08806
G1 X165.054 Y123.298 E3.09751
G1 X165.183 Y123.021 E3.10695
G1 X165.358 Y122.771 E3.11640
G1 X165.574 Y122.555 E3.12584
G1 X165.824 Y122.380 E3.13529
G1 X166.101 Y122.251 E3.14473
G1 X166.396 Y122.172 E3.15418
G1 X166.700 Y122.146 E3.16363
G1 X167.004 Y122.172 E3.17307
G1 X167.299 Y122.251 E3.18252
G1 X167.576 Y122.380 E3.19196
G1 X167.826 Y122.555 E3.20141
G1 X168.042 Y122.771 E3.21085
G1 X168.217 Y123.021 E3.22030
G1 X168.346 Y123.298 E3.22974
G1 X168.425 Y123.593 E3.23919
G1 X168.451 Y123.897 E3.24864
G1 X168.425 Y124.201 E3.25808
G1 X168.346 Y124.496 E3.26753
G1 X168.217 Y124.773 E3.27697
G1 X168.042 Y125.023 E3.28642
G1 X167.826 Y125.238 E3.29586
G1 X167.576 Y125.414 E3.30531
G1 X167.299 Y125.543 E3.31476
G1 X167.004 Y125.622 E3.32420
G1 X166.700 Y125.648 E3.33365
G1 X166.396 Y125.622 E3.34309
G1 X166.101 Y125.543 E3.35254
G1 X165.824 Y125.414 E3.36198
G1 X165.574 Y125.238 E3.37143
G1 X165.411 Y125.076 E3.37856
G1 X165.358 Y125.023 F7800.000
G1 E1.37856 F2400.00000
G92 E0
G1 X153.696 Y19.709 F7800.000
G1 E2.00000 F2400.00000
G1 F1800
G1 X153.200 Y19.753 E2.01540
G1 X152.704 Y19.709 E2.03081
G1 X152.223 Y19.581 E2.04621
G1 X151.772 Y19.370 E2.06161
G1 X151.364 Y19.085 E2.07701
G1 X151.012 Y18.733 E2.09242
G1 X150.727 Y18.325 E2.10782
G1 X150.516 Y17.874 E2.12322
G1 X150.388 Y17.393 E2.13863
G1 X150.344 Y16.897 E2.15403
G1 X150.388 Y16.401 E2.16943
G1 X150.516 Y15.920 E2.18484
G1 X150.727 Y15.469 E2.20024
G1 X151.012 Y15.061 E2.21564
G1 X151.364 Y14.709 E2.23105
G1 X151.772 Y14.424 E2.24645
G1 X152.223 Y14.213 E2.26185
G1 X152.704 Y14.084 E2.27725
G1 X153.200 Y14.041 E2.29266
G1 X153.696 Y14.084 E2.30806
G1 X154.177 Y14.213 E2.32346
G1 X154.628 Y14.424 E2.33887
G1 X155.036 Y14.709 E2.35427
G1 X155.388 Y15.061 E2.36967
G1 X155.673 Y15.469 E2.38507
G1 X155.884 Y15.920 E2.40048
G1 X156.013 Y16.401 E2.41588
G1 X156.056 Y16.897 E2.43128
G1 X156.013 Y17.393 E2.44669
G1 X155.884 Y17.874 E2.46209
G1 X155.673 Y18.325 E2.47749
G1 X155.388 Y18.733 E2.49290
G1 X155.036 Y19.085 E2.50830
G1 X154.628 Y19.370 E2.52370
G1 X154.177 Y19.581 E2.53911
G1 X153.768 Y19.690 E2.55219
G1 X153.587 Y19.092 F7800.000
G1 F1800
G1 X153.200 Y19.126 E2.56421
G1 X152.813 Y19.092 E2.57623
G1 X152.438 Y18.991 E2.58825
G1 X152.086 Y18.827 E2.60027
G1 X151.768 Y18.604 E2.61229
G1 X151.493 Y18.329 E2.62431
G1 X151.270 Y18.011 E2.63633
G1 X151.106 Y17.659 E2.64835
G1 X151.005 Y17.284 E2.66037
G1 X150.971 Y16.897 E2.67239
G1 X151.005 Y16.510 E2.68441
G1 X151.106 Y16.135 E2.69643
G1 X151.270 Y15.783 E2.70845
G1 X151.493 Y15.464 E2.72047
G1 X151.768 Y15.190 E2.73249
G1 X152.086 Y14.967 E2.74451
G1 X152.438 Y14.803 E2.75653
G1 X152.813 Y14.702 E2.76855
G1 X153.200 Y14.668 E2.78056
G1 X153.587 Y14.702 E2.79258
G1 X153.962 Y14.803 E2.80460
G1 X154.314 Y14.967 E2.81662
G1 X154.633 Y15.190 E2.82864
G1 X154.907 Y15.464 E2.84066
G1 X155.130 Y15.783 E2.85268
G1 X155.294 Y16.135 E2.86470
G1 X155.395 Y16.510 E2.87672
G1 X155.429 Y16.897 E2.88874
G1 X155.395 Y17.284 E2.90076
G1 X155.294 Y17.659 E2.91278
G1 X155.130 Y18.011 E2.92480
G1 X154.907 Y18.329 E2.93682
G1 X154.633 Y18.604 E2.94884
G1 X154.314 Y18.827 E2.96086
G1 X153.962 Y18.991 E2.97288
G1 X153.659 Y19.072 E2.98258
G1 X153.478 Y18.474 F7800.000
G1 F1800
G1 X153.200 Y18.498 E2.99122
G1 X152.922 Y18.474 E2.99986
G1 X152.652 Y18.402 E3.00849
G1 X152.399 Y18.284 E3.01713
G1 X152.171 Y18.124 E3.02577
G1 X151.973 Y17.926 E3.03440
G1 X151.813 Y17.698 E3.04304
G1 X151.695 Y17.445 E3.05168
G1 X151.623 Y17.175 E3.06031
G1 X151.599 Y16.897 E3.06895
G1 X151.623 Y16.619 E3.07758
G1 X151.695 Y16.349 E3.08622
G1 X151.813 Y16.096 E3.09486
G1 X151.973 Y15.868 E3.10350
G1 X152.171 Y15.670 E3.11213
G1 X152.399 Y15.510 E3.12077
G1 X152.652 Y15.392 E3.12941
G1 X152.922 Y15.320 E3.13804
G1 X153.200 Y15.296 E3.14668
G1 X153.478 Y15.320 E3.15532
G1 X153.748 Y15.392 E3.16395
G1 X154.001 Y15.510 E3.17259
G1 X154.229 Y15.670 E3.18123
G1 X154.427 Y15.868 E3.18986
G1 X154.587 Y16.096 E3.19850
G1 X154.705 Y16.349 E3.20714
G1 X154.777 Y16.619 E3.21577
G1 X154.801 Y16.897 E3.22441
G1 X154.777 Y17.175 E3.23305
G1 X154.705 Y17.445 E3.24168
G1 X154.587 Y17.698 E3.25032
G1 X154.427 Y17.926 E3.25896
G1 X154.229 Y18.124 E3.26759
G1 X154.001 Y18.284 E3.27623
G1 X153.748 Y18.402 E3.28487
G1 X153.551 Y18.454 E3.29118
G1 X153.478 Y18.474 F7800.000
G1 E1.29118 F2400.00000
G92 E0
G1 X164.600 Y65.497 F7800.000
G1 E2.00000 F2400.00000
G1 F1800
