; generated by Slic3r 1.3.1-dev on 2018-09-19 at 00:03:04

; external perimeters extrusion width = 0.55mm (4.37mm^3/s)
; perimeters extrusion width = 0.70mm (11.44mm^3/s)
; infill extrusion width = 0.63mm (13.45mm^3/s)
; solid infill extrusion width = 0.70mm (3.81mm^3/s)
; top infill extrusion width = 0.70mm (2.86mm^3/s)

M107
M104 S200 ; set temperature
G28 ; home all axes
G1 Z5 F5000 ; lift nozzle

; Filament gcode

M109 S200 ; set temperature and wait for it to be reached
G21 ; set units to millimeters
G90 ; use absolute coordinates
M82 ; use absolute distances for extrusion
G92 E0
G92 E0
G1 Z0.350 F7800.000
G1 E-2.00000 F2400.00000
G92 E0
G1 X27.214 Y8.178 F7800.000
G1 E2.00000 F2400.00000
G1 F1800
G1 X27.854 Y5.976 E2.07096
G1 X29.206 Y4.124 E2.14192
G1 X31.109 Y2.843 E2.21289
G1 X33.800 Y2.272 E2.29801
G1 X46.800 Y2.272 E2.70025
G1 X47.377 Y2.297 E2.71813
G1 X48.767 Y2.419 E2.76128
G1 X49.904 Y2.619 E2.79701
G1 X51.251 Y2.980 E2.84016
G1 X52.336 Y3.375 E2.87589
G1 X53.600 Y3.965 E2.91903
G1 X54.600 Y4.542 E2.95477
G1 X55.722 Y5.328 E2.99716
G1 X56.627 Y6.084 E3.03364
G1 X57.827 Y7.294 E3.08638
G1 X177.099 Y138.290 E8.56793
G1 X178.326 Y140.227 E8.63890
G1 X178.825 Y142.750 E8.71846
G1 X178.825 Y185.103 E10.02892
G1 X178.428 Y187.362 E10.09989
G1 X177.285 Y189.350 E10.17085
G1 X175.532 Y190.829 E10.24181
G1 X172.776 Y191.703 E10.33128
G1 X103.975 Y197.703 E12.46812
G1 X103.400 Y197.728 E12.48595
G1 X55.300 Y197.728 E13.97422
G1 X54.783 Y197.708 E13.99023
G1 X53.616 Y197.616 E14.02645
G1 X52.596 Y197.456 E14.05840
G1 X51.458 Y197.184 E14.09460
G1 X50.475 Y196.867 E14.12657
G1 X49.392 Y196.421 E14.16279
G1 X48.471 Y195.955 E14.19475
G1 X47.471 Y195.347 E14.23095
G1 X46.633 Y194.743 E14.26292
G1 X45.756 Y194.000 E14.29849
G1 X45.006 Y193.259 E14.33109
G1 X44.241 Y192.373 E14.36732
G1 X43.629 Y191.541 E14.39927
G1 X43.012 Y190.547 E14.43547
G1 X42.537 Y189.629 E14.46745
G1 X42.081 Y188.551 E14.50367
G1 X41.899 Y188.068 E14.51964
G1 X21.797 Y127.729 E16.48748
G1 X21.649 Y127.218 E16.50396
G1 X21.438 Y126.360 E16.53130
G1 X21.267 Y125.310 E16.56422
G1 X21.196 Y124.428 E16.59157
G1 X21.175 Y123.897 E16.60803
G1 X21.175 Y63.897 E18.46451
G1 X21.214 Y63.178 E18.48677
G1 X27.206 Y8.253 E20.19632
G1 E18.19632 F2400.00000
G92 E0
G1 X55.292 Y180.248 F7800.000
G1 E2.00000 F2400.00000
G1 F1800
G1 X55.880 Y180.298 E2.01826
G1 X56.448 Y180.450 E2.03644
G1 X56.978 Y180.697 E2.05454
G1 X57.457 Y181.032 E2.07264
G1 X57.871 Y181.446 E2.09074
G1 X58.206 Y181.925 E2.10884
G1 X58.453 Y182.455 E2.12694
G1 X58.605 Y183.020 E2.14504
G1 X58.656 Y183.603 E2.16314
G1 X58.605 Y184.186 E2.18123
G1 X58.453 Y184.751 E2.19934
G1 X58.206 Y185.281 E2.21743
G1 X57.871 Y185.760 E2.23554
G1 X57.457 Y186.174 E2.25363
G1 X56.984 Y186.505 E2.27149
G1 X56.450 Y186.756 E2.28976
G1 X55.883 Y186.908 E2.30793
G1 X55.300 Y186.959 E2.32603
G1 X54.717 Y186.908 E2.34413
G1 X54.152 Y186.757 E2.36223
G1 X53.622 Y186.509 E2.38033
G1 X53.143 Y186.174 E2.39843
G1 X52.735 Y185.766 E2.41629
G1 X52.395 Y185.283 E2.43455
G1 X52.146 Y184.751 E2.45273
G1 X51.995 Y184.186 E2.47083
G1 X51.944 Y183.603 E2.48893
G1 X51.995 Y183.020 E2.50703
G1 X52.146 Y182.455 E2.52512
G1 X52.394 Y181.925 E2.54322
G1 X52.729 Y181.446 E2.56132
G1 X53.143 Y181.032 E2.57942
G1 X53.622 Y180.697 E2.59753
G1 X54.152 Y180.450 E2.61562
G1 X54.717 Y180.298 E2.63372
G1 X55.218 Y180.254 E2.64926
G1 X55.293 Y180.875 F7800.000
G1 F1800
G1 X55.772 Y180.916 E2.66414
G1 X56.233 Y181.039 E2.67890
G1 X56.664 Y181.240 E2.69362
G1 X57.054 Y181.513 E2.70834
G1 X57.390 Y181.849 E2.72305
G1 X57.663 Y182.239 E2.73777
G1 X57.864 Y182.670 E2.75249
G1 X57.987 Y183.129 E2.76720
G1 X58.029 Y183.603 E2.78192
G1 X57.987 Y184.077 E2.79664
G1 X57.864 Y184.536 E2.81135
G1 X57.663 Y184.967 E2.82607
G1 X57.390 Y185.357 E2.84079
G1 X57.054 Y185.693 E2.85550
G1 X56.670 Y185.962 E2.87001
G1 X56.235 Y186.167 E2.88489
G1 X55.774 Y186.290 E2.89965
G1 X55.300 Y186.332 E2.91437
G1 X54.826 Y186.290 E2.92908
G1 X54.367 Y186.167 E2.94380
G1 X53.936 Y185.966 E2.95852
G1 X53.546 Y185.693 E2.97323
G1 X53.215 Y185.362 E2.98774
G1 X52.938 Y184.969 E3.00262
G1 X52.736 Y184.536 E3.01738
G1 X52.613 Y184.077 E3.03210
G1 X52.571 Y183.603 E3.04681
G1 X52.613 Y183.129 E3.06153
G1 X52.736 Y182.670 E3.07625
G1 X52.937 Y182.239 E3.09096
G1 X53.210 Y181.849 E3.10568
G1 X53.546 Y181.513 E3.12040
G1 X53.936 Y181.240 E3.13511
G1 X54.367 Y181.039 E3.14983
G1 X54.826 Y180.916 E3.16454
G1 X55.218 Y180.882 E3.17673
G1 X55.294 Y181.502 F7800.000
G1 F1800
G1 X55.664 Y181.534 E3.18823
G1 X56.019 Y181.629 E3.19958
G1 X56.351 Y181.783 E3.21091
G1 X56.651 Y181.993 E3.22224
G1 X56.910 Y182.252 E3.23358
G1 X57.120 Y182.552 E3.24491
G1 X57.275 Y182.884 E3.25624
G1 X57.369 Y183.238 E3.26758
G1 X57.401 Y183.603 E3.27891
G1 X57.369 Y183.968 E3.29024
G1 X57.275 Y184.322 E3.30158
G1 X57.120 Y184.654 E3.31291
G1 X56.910 Y184.954 E3.32424
G1 X56.651 Y185.213 E3.33558
G1 X56.355 Y185.420 E3.34673
G1 X56.019 Y185.578 E3.35823
G1 X55.665 Y185.673 E3.36958
G1 X55.300 Y185.704 E3.38091
G1 X54.935 Y185.673 E3.39224
G1 X54.581 Y185.578 E3.40358
G1 X54.249 Y185.423 E3.41491
G1 X53.949 Y185.213 E3.42624
G1 X53.694 Y184.958 E3.43739
G1 X53.480 Y184.654 E3.44889
G1 X53.325 Y184.322 E3.46024
G1 X53.231 Y183.968 E3.47157
G1 X53.199 Y183.603 E3.48291
G1 X53.231 Y183.238 E3.49424
G1 X53.325 Y182.884 E3.50557
G1 X53.480 Y182.552 E3.51691
G1 X53.690 Y182.252 E3.52824
G1 X53.949 Y181.993 E3.53957
G1 X54.249 Y181.783 E3.55091
G1 X54.581 Y181.629 E3.56224
G1 X54.935 Y181.534 E3.57357
G1 X55.219 Y181.509 E3.58240
G1 X55.294 Y181.502 F7800.000
G1 E1.58240 F2400.00000
G92 E0
G1 X49.796 Y138.709 F7800.000
G1 E2.00000 F2400.00000
G1 F1800
G1 X49.300 Y138.753 E2.01540
G1 X48.804 Y138.709 E2.03080
G1 X48.323 Y138.581 E2.04621
G1 X47.872 Y138.370 E2.06161
G1 X47.464 Y138.085 E2.07701
G1 X47.112 Y137.733 E2.09242
G1 X46.827 Y137.325 E2.10782
G1 X46.616 Y136.874 E2.12322
G1 X46.487 Y136.393 E2.13862
G1 X46.444 Y135.897 E2.15403
G1 X46.487 Y135.401 E2.16943
G1 X46.616 Y134.920 E2.18483
G1 X46.827 Y134.469 E2.20024
G1 X47.112 Y134.061 E2.21564
G1 X47.464 Y133.709 E2.23104
G1 X47.872 Y133.424 E2.24645
G1 X48.323 Y133.213 E2.26185
G1 X48.804 Y133.084 E2.27725
G1 X49.300 Y133.041 E2.29266
G1 X49.796 Y133.084 E2.30806
G1 X50.277 Y133.213 E2.32346
G1 X50.728 Y133.424 E2.33886
G1 X51.136 Y133.709 E2.35427
G1 X51.488 Y134.061 E2.36967
G1 X51.773 Y134.469 E2.38507
G1 X51.984 Y134.920 E2.40048
G1 X52.112 Y135.401 E2.41588
G1 X52.156 Y135.897 E2.43128
G1 X52.112 Y136.393 E2.44668
G1 X51.984 Y136.874 E2.46209
G1 X51.773 Y137.325 E2.47749
G1 X51.488 Y137.733 E2.49289
G1 X51.136 Y138.085 E2.50830
G1 X50.728 Y138.370 E2.52370
G1 X50.277 Y138.581 E2.53910
G1 X49.868 Y138.690 E2.55219
G1 X49.687 Y138.092 F7800.000
G1 F1800
G1 X49.300 Y138.126 E2.56421
G1 X48.913 Y138.092 E2.57623
G1 X48.538 Y137.991 E2.58825
G1 X48.186 Y137.827 E2.60027
G1 X47.867 Y137.604 E2.61229
G1 X47.593 Y137.329 E2.62431
G1 X47.370 Y137.011 E2.63633
G1 X47.206 Y136.659 E2.64835
G1 X47.105 Y136.284 E2.66037
G1 X47.071 Y135.897 E2.67239
G1 X47.105 Y135.510 E2.68441
G1 X47.206 Y135.135 E2.69642
G1 X47.370 Y134.783 E2.70844
G1 X47.593 Y134.464 E2.72046
G1 X47.867 Y134.190 E2.73248
G1 X48.186 Y133.967 E2.74450
G1 X48.538 Y133.803 E2.75652
G1 X48.913 Y133.702 E2.76854
G1 X49.300 Y133.668 E2.78056
G1 X49.687 Y133.702 E2.79258
G1 X50.062 Y133.803 E2.80460
G1 X50.414 Y133.967 E2.81662
G1 X50.732 Y134.190 E2.82864
G1 X51.007 Y134.464 E2.84066
G1 X51.230 Y134.783 E2.85268
G1 X51.394 Y135.135 E2.86470
G1 X51.495 Y135.510 E2.87672
G1 X51.529 Y135.897 E2.88874
G1 X51.495 Y136.284 E2.90076
G1 X51.394 Y136.659 E2.91278
G1 X51.230 Y137.011 E2.92480
G1 X51.007 Y137.329 E2.93682
G1 X50.732 Y137.604 E2.94884
G1 X50.414 Y137.827 E2.96086
G1 X50.062 Y137.991 E2.97288
G1 X49.759 Y138.072 E2.98258
G1 X49.578 Y137.474 F7800.000
G1 F1800
G1 X49.300 Y137.498 E2.99122
G1 X49.022 Y137.474 E2.99985
G1 X48.752 Y137.402 E3.00849
G1 X48.499 Y137.284 E3.01713
G1 X48.271 Y137.124 E3.02576
G1 X48.073 Y136.926 E3.03440
G1 X47.913 Y136.698 E3.04304
G1 X47.795 Y136.445 E3.05168
G1 X47.723 Y136.175 E3.06031
G1 X47.699 Y135.897 E3.06895
G1 X47.723 Y135.619 E3.07759
G1 X47.795 Y135.349 E3.08622
G1 X47.913 Y135.096 E3.09486
G1 X48.073 Y134.868 E3.10349
G1 X48.271 Y134.670 E3.11213
G1 X48.499 Y134.510 E3.12077
G1 X48.752 Y134.392 E3.12941
G1 X49.022 Y134.320 E3.13804
G1 X49.300 Y134.296 E3.14668
G1 X49.578 Y134.320 E3.15532
G1 X49.848 Y134.392 E3.16395
G1 X50.101 Y134.510 E3.17259
G1 X50.329 Y134.670 E3.18122
G1 X50.527 Y134.868 E3.18986
G1 X50.687 Y135.096 E3.19850
G1 X50.805 Y135.349 E3.20714
G1 X50.877 Y135.619 E3.21577
G1 X50.901 Y135.897 E3.22441
G1 X50.877 Y136.175 E3.23305
G1 X50.805 Y136.445 E3.24168
G1 X50.687 Y136.698 E3.25032
G1 X50.527 Y136.926 E3.25896
G1 X50.329 Y137.124 E3.26759
G1 X50.101 Y137.284 E3.27623
G1 X49.848 Y137.402 E3.28487
G1 X49.650 Y137.455 E3.29118
G1 X49.578 Y137.474 F7800.000
G1 E1.29118 F2400.00000
G92 E0
G1 X35.603 Y125.829 F7800.000
G1 E2.00000 F2400.00000
G1 F1800
G1 X35.232 Y126.200 E2.01621
G1 X34.803 Y126.500 E2.03242
G1 X34.328 Y126.722 E2.04864
G1 X33.822 Y126.857 E2.06485
G1 X33.300 Y126.903 E2.08106
G1 X32.778 Y126.857 E2.09727
G1 X32.272 Y126.722 E2.11348
G1 X31.797 Y126.500 E2.12970
G1 X31.368 Y126.199 E2.14591
G1 X30.997 Y125.829 E2.16212
G1 X30.697 Y125.400 E2.17833
G1 X30.475 Y124.925 E2.19454
G1 X30.340 Y124.419 E2.21076
G1 X30.294 Y123.897 E2.22697
G1 X30.340 Y123.375 E2.24318
G1 X30.475 Y122.869 E2.25939
G1 X30.697 Y122.394 E2.27560
G1 X30.997 Y121.965 E2.29182
G1 X31.368 Y121.594 E2.30803
G1 X31.797 Y121.294 E2.32424
G1 X32.272 Y121.072 E2.34045
G1 X32.778 Y120.937 E2.35667
G1 X33.300 Y120.891 E2.37288
G1 X33.822 Y120.937 E2.38909
G1 X34.328 Y121.072 E2.40530
G1 X34.803 Y121.294 E2.42151
G1 X35.232 Y121.594 E2.43772
G1 X35.603 Y121.965 E2.45394
G1 X35.903 Y122.394 E2.47015
G1 X36.125 Y122.869 E2.48636
G1 X36.260 Y123.375 E2.50257
G1 X36.306 Y123.897 E2.51878
G1 X36.260 Y124.419 E2.53500
G1 X36.125 Y124.925 E2.55121
G1 X35.903 Y125.400 E2.56742
G1 X35.646 Y125.768 E2.58131
G1 X35.122 Y125.426 F7800.000
G1 F1800
G1 X34.829 Y125.719 E2.59414
G1 X34.489 Y125.957 E2.60697
G1 X34.113 Y126.132 E2.61980
G1 X33.713 Y126.239 E2.63263
G1 X33.300 Y126.276 E2.64546
G1 X32.887 Y126.239 E2.65828
G1 X32.486 Y126.132 E2.67111
G1 X32.111 Y125.957 E2.68394
G1 X31.771 Y125.719 E2.69677
G1 X31.478 Y125.426 E2.70960
G1 X31.240 Y125.086 E2.72243
G1 X31.065 Y124.710 E2.73526
G1 X30.957 Y124.310 E2.74809
G1 X30.921 Y123.897 E2.76092
G1 X30.957 Y123.484 E2.77375
G1 X31.065 Y123.083 E2.78658
G1 X31.240 Y122.708 E2.79940
G1 X31.478 Y122.368 E2.81223
G1 X31.771 Y122.075 E2.82506
G1 X32.111 Y121.837 E2.83789
G1 X32.486 Y121.662 E2.85072
G1 X32.887 Y121.554 E2.86355
G1 X33.300 Y121.518 E2.87638
G1 X33.713 Y121.554 E2.88920
G1 X34.113 Y121.662 E2.90203
G1 X34.489 Y121.837 E2.91486
G1 X34.829 Y122.075 E2.92769
G1 X35.122 Y122.368 E2.94052
G1 X35.360 Y122.708 E2.95335
G1 X35.535 Y123.083 E2.96618
G1 X35.642 Y123.484 E2.97901
G1 X35.679 Y123.897 E2.99184
G1 X35.642 Y124.310 E3.00467
G1 X35.535 Y124.710 E3.01749
G1 X35.360 Y125.086 E3.03032
G1 X35.165 Y125.364 E3.04083
G1 X34.642 Y125.023 F7800.000
G1 F1800
G1 X34.426 Y125.238 E3.05028
G1 X34.176 Y125.414 E3.05972
G1 X33.899 Y125.543 E3.06917
G1 X33.604 Y125.622 E3.07861
G1 X33.300 Y125.648 E3.08806
G1 X32.996 Y125.622 E3.09751
G1 X32.701 Y125.543 E3.10695
G1 X32.424 Y125.414 E3.11640
G1 X32.174 Y125.238 E3.12584
G1 X31.958 Y125.023 E3.13529
G1 X31.783 Y124.773 E3.14473
G1 X31.654 Y124.496 E3.15418
G1 X31.575 Y124.201 E3.16363
G1 X31.549 Y123.897 E3.17307
G1 X31.575 Y123.593 E3.18252
G1 X31.654 Y123.298 E3.19196
G1 X31.783 Y123.021 E3.20141
G1 X31.958 Y122.771 E3.21085
G1 X32.174 Y122.555 E3.22030
G1 X32.424 Y122.380 E3.22975
G1 X32.701 Y122.251 E3.23919
G1 X32.996 Y122.172 E3.24864
G1 X33.300 Y122.146 E3.25808
G1 X33.604 Y122.172 E3.26753
G1 X33.899 Y122.251 E3.27697
G1 X34.176 Y122.380 E3.28642
G1 X34.426 Y122.555 E3.29587
G1 X34.642 Y122.771 E3.30531
G1 X34.817 Y123.021 E3.31476
G1 X34.946 Y123.298 E3.32420
G1 X35.025 Y123.593 E3.33365
G1 X35.051 Y123.897 E3.34309
G1 X35.025 Y124.201 E3.35254
G1 X34.946 Y124.496 E3.36199
G1 X34.817 Y124.773 E3.37143
G1 X34.685 Y124.961 E3.37856
G1 X34.642 Y125.023 F7800.000
G1 E1.37856 F2400.00000
G92 E0
G1 X46.304 Y19.709 F7800.000
G1 E2.00000 F2400.00000
G1 F1800
G1 X45.823 Y19.581 E2.01540
G1 X45.372 Y19.370 E2.03081
G1 X44.964 Y19.085 E2.04621
G1 X44.612 Y18.733 E2.06161
G1 X44.327 Y18.325 E2.07702
G1 X44.116 Y17.874 E2.09242
G1 X43.987 Y17.393 E2.10782
G1 X43.944 Y16.897 E2.12322
G1 X43.987 Y16.401 E2.13863
G1 X44.116 Y15.920 E2.15403
G1 X44.327 Y15.469 E2.16943
G1 X44.612 Y15.061 E2.18484
G1 X44.964 Y14.709 E2.20024
G1 X45.372 Y14.424 E2.21564
G1 X45.823 Y14.213 E2.23105
G1 X46.304 Y14.084 E2.24645
G1 X46.800 Y14.041 E2.26185
G1 X47.296 Y14.084 E2.27725
G1 X47.777 Y14.213 E2.29266
G1 X48.228 Y14.424 E2.30806
G1 X48.636 Y14.709 E2.32346
G1 X48.988 Y15.061 E2.33887
G1 X49.273 Y15.469 E2.35427
G1 X49.484 Y15.920 E2.36967
G1 X49.612 Y16.401 E2.38508
G1 X49.656 Y16.897 E2.40048
G1 X49.612 Y17.393 E2.41588
G1 X49.484 Y17.874 E2.43128
G1 X49.273 Y18.325 E2.44669
G1 X48.988 Y18.733 E2.46209
G1 X48.636 Y19.085 E2.47749
G1 X48.228 Y19.370 E2.49290
G1 X47.777 Y19.581 E2.50830
G1 X47.296 Y19.709 E2.52370
G1 X46.800 Y19.753 E2.53911
G1 X46.379 Y19.716 E2.55219
G1 X46.413 Y19.092 F7800.000
G1 F1800
G1 X46.038 Y18.991 E2.56421
G1 X45.686 Y18.827 E2.57623
G1 X45.367 Y18.604 E2.58825
G1 X45.093 Y18.329 E2.60027
G1 X44.870 Y18.011 E2.61229
G1 X44.706 Y17.659 E2.62431
G1 X44.605 Y17.284 E2.63633
G1 X44.571 Y16.897 E2.64835
G1 X44.605 Y16.510 E2.66037
G1 X44.706 Y16.135 E2.67239
G1 X44.870 Y15.783 E2.68441
G1 X45.093 Y15.464 E2.69643
G1 X45.367 Y15.190 E2.70845
G1 X45.686 Y14.967 E2.72047
G1 X46.038 Y14.803 E2.73249
G1 X46.413 Y14.702 E2.74451
G1 X46.800 Y14.668 E2.75653
G1 X47.187 Y14.702 E2.76855
G1 X47.562 Y14.803 E2.78057
G1 X47.914 Y14.967 E2.79259
G1 X48.232 Y15.190 E2.80461
G1 X48.507 Y15.464 E2.81662
G1 X48.730 Y15.783 E2.82865
G1 X48.894 Y16.135 E2.84067
G1 X48.995 Y16.510 E2.85268
G1 X49.029 Y16.897 E2.86470
G1 X48.995 Y17.284 E2.87672
G1 X48.894 Y17.659 E2.88874
G1 X48.730 Y18.011 E2.90076
G1 X48.507 Y18.329 E2.91278
G1 X48.232 Y18.604 E2.92480
G1 X47.914 Y18.827 E2.93682
G1 X47.562 Y18.991 E2.94884
G1 X47.187 Y19.092 E2.96086
G1 X46.800 Y19.126 E2.97288
G1 X46.488 Y19.098 E2.98258
G1 X46.522 Y18.474 F7800.000
G1 F1800
G1 X46.252 Y18.402 E2.99122
G1 X45.999 Y18.284 E2.99986
G1 X45.771 Y18.124 E3.00849
G1 X45.573 Y17.926 E3.01713
G1 X45.413 Y17.698 E3.02577
G1 X45.295 Y17.445 E3.03440
G1 X45.223 Y17.175 E3.04304
G1 X45.199 Y16.897 E3.05168
G1 X45.223 Y16.619 E3.06031
G1 X45.295 Y16.349 E3.06895
G1 X45.413 Y16.096 E3.07759
G1 X45.573 Y15.868 E3.08622
G1 X45.771 Y15.670 E3.09486
G1 X45.999 Y15.510 E3.10350
G1 X46.252 Y15.392 E3.11213
G1 X46.522 Y15.320 E3.12077
G1 X46.800 Y15.296 E3.12941
G1 X47.078 Y15.320 E3.13804
G1 X47.348 Y15.392 E3.14668
G1 X47.601 Y15.510 E3.15532
G1 X47.829 Y15.670 E3.16395
G1 X48.027 Y15.868 E3.17259
G1 X48.187 Y16.096 E3.18123
G1 X48.305 Y16.349 E3.18986
G1 X48.377 Y16.619 E3.19850
G1 X48.401 Y16.897 E3.20714
G1 X48.377 Y17.175 E3.21577
G1 X48.305 Y17.445 E3.22441
G1 X48.187 Y17.698 E3.23305
G1 X48.027 Y17.926 E3.24168
G1 X47.829 Y18.124 E3.25032
G1 X47.601 Y18.284 E3.25896
G1 X47.348 Y18.402 E3.26759
G1 X47.078 Y18.474 E3.27623
G1 X46.800 Y18.498 E3.28487
G1 X46.597 Y18.480 E3.29118
G1 X46.522 Y18.474 F7800.000
G1 E1.29118 F2400.00000
G92 E0
G1 X35.400 Y65.497 F7800.000
G1 E2.00000 F2400.00000
G1 F1800
G1 X35.400 Y10.497 E3.70177
G1 X46.730 Y10.497 E4.05235
G1 X47.888 Y10.598 E4.08832
G1 X48.989 Y10.889 E4.12355
G1 X49.997 Y11.359 E4.15797
G1 X50.910 Y11.999 E4.19245
G1 X51.698 Y12.787 E4.22694
G1 X52.337 Y13.700 E4.26142
G1 X52.808 Y14.710 E4.29591
G1 X53.097 Y15.787 E4.33040
G1 X53.200 Y16.967 E4.36705
G1 X53.200 Y66.625 E5.90355
G1 X53.336 Y68.203 E5.95257
G1 X53.759 Y69.802 E6.00372
G1 X54.450 Y71.304 E6.05487
G1 X55.348 Y72.609 E6.10389
