; generated by Slic3r 1.3.1-dev on 2018-09-19 at 00:03:06

; external perimeters extrusion width = 0.55mm (4.37mm^3/s)
; perimeters extrusion width = 0.70mm (11.44mm^3/s)
; infill extrusion width = 0.63mm (13.45mm^3/s)
; solid infill extrusion width = 0.70mm (3.81mm^3/s)
; top infill extrusion width = 0.70mm (2.86mm^3/s)

M107
M104 S200 ; set temperature
G28 ; home all axes
G1 Z5 F5000 ; lift nozzle

; Filament gcode

M109 S200 ; set temperature and wait for it to be reached
G21 ; set units to millimeters
G90 ; use absolute coordinates
M82 ; use absolute distances for extrusion
G92 E0
G92 E0
G1 Z0.350 F7800.000
G1 E-2.00000 F2400.00000
G92 E0
G1 X22.715 Y19.003 F7800.000
G1 E2.00000 F2400.00000
G1 F1800
G1 X24.468 Y17.524 E2.07096
G1 X26.447 Y16.765 E2.13654
G1 X95.247 Y2.412 E4.31114
G1 X96.600 Y2.272 E4.35323
G1 X144.700 Y2.272 E5.84150
G1 X145.231 Y2.293 E5.85795
G1 X146.431 Y2.390 E5.89518
G1 X147.479 Y2.560 E5.92805
G1 X148.648 Y2.847 E5.96527
G1 X149.656 Y3.182 E5.99816
G1 X150.764 Y3.652 E6.03538
G1 X151.705 Y4.144 E6.06825
G1 X152.723 Y4.785 E6.10548
G1 X153.161 Y5.087 E6.12193
G1 X176.169 Y22.298 E7.01096
G1 X177.739 Y23.969 E7.08193
G1 X178.646 Y26.076 E7.15289
G1 X178.825 Y27.603 E7.20047
G1 X178.825 Y191.103 E12.25937
G1 X178.428 Y193.362 E12.33033
G1 X177.285 Y195.350 E12.40130
G1 X175.532 Y196.829 E12.47226
G1 X173.380 Y197.622 E12.54322
G1 X172.200 Y197.728 E12.57987
G1 X166.200 Y197.728 E12.76552
G1 X163.941 Y197.331 E12.83648
G1 X161.280 Y195.539 E12.93575
G1 X22.880 Y42.039 E19.33072
G1 X21.662 Y40.096 E19.40168
G1 X21.175 Y37.603 E19.48027
G1 X21.175 Y23.250 E19.92437
G1 X21.572 Y20.991 E19.99533
G1 X22.678 Y19.068 E20.06398
G1 E18.06398 F2400.00000
G92 E0
G1 X163.740 Y41.581 F7800.000
G1 E2.00000 F2400.00000
G1 F1800
G1 X163.875 Y41.075 E2.01621
G1 X164.097 Y40.600 E2.03242
G1 X164.397 Y40.171 E2.04864
G1 X164.768 Y39.800 E2.06485
G1 X165.197 Y39.500 E2.08106
G1 X165.672 Y39.278 E2.09727
G1 X166.178 Y39.143 E2.11348
G1 X166.700 Y39.097 E2.12970
G1 X167.222 Y39.143 E2.14591
G1 X167.728 Y39.278 E2.16212
G1 X168.203 Y39.500 E2.17833
G1 X168.632 Y39.800 E2.19455
G1 X169.003 Y40.171 E2.21076
G1 X169.303 Y40.600 E2.22697
G1 X169.525 Y41.075 E2.24318
G1 X169.660 Y41.581 E2.25939
G1 X169.706 Y42.103 E2.27560
G1 X169.660 Y42.625 E2.29182
G1 X169.525 Y43.131 E2.30803
G1 X169.303 Y43.606 E2.32424
G1 X169.003 Y44.035 E2.34045
G1 X168.632 Y44.406 E2.35666
G1 X168.203 Y44.706 E2.37287
G1 X167.728 Y44.928 E2.38909
G1 X167.222 Y45.063 E2.40530
G1 X166.700 Y45.109 E2.42151
G1 X166.178 Y45.063 E2.43773
G1 X165.672 Y44.928 E2.45394
G1 X165.197 Y44.706 E2.47015
G1 X164.768 Y44.406 E2.48636
G1 X164.397 Y44.035 E2.50257
G1 X164.097 Y43.606 E2.51879
G1 X163.875 Y43.131 E2.53500
G1 X163.740 Y42.625 E2.55121
G1 X163.694 Y42.103 E2.56742
G1 X163.733 Y41.656 E2.58131
G1 X164.358 Y41.690 F7800.000
G1 F1800
G1 X164.465 Y41.290 E2.59414
G1 X164.640 Y40.914 E2.60697
G1 X164.878 Y40.574 E2.61980
G1 X165.171 Y40.281 E2.63263
G1 X165.511 Y40.043 E2.64546
G1 X165.886 Y39.868 E2.65828
G1 X166.287 Y39.761 E2.67111
G1 X166.700 Y39.724 E2.68394
G1 X167.113 Y39.761 E2.69677
G1 X167.514 Y39.868 E2.70960
G1 X167.889 Y40.043 E2.72243
G1 X168.229 Y40.281 E2.73526
G1 X168.522 Y40.574 E2.74809
G1 X168.760 Y40.914 E2.76092
G1 X168.935 Y41.290 E2.77375
G1 X169.043 Y41.690 E2.78657
G1 X169.079 Y42.103 E2.79940
G1 X169.043 Y42.516 E2.81223
G1 X168.935 Y42.917 E2.82506
G1 X168.760 Y43.292 E2.83789
G1 X168.522 Y43.632 E2.85072
G1 X168.229 Y43.925 E2.86355
G1 X167.889 Y44.163 E2.87637
G1 X167.514 Y44.338 E2.88920
G1 X167.113 Y44.446 E2.90203
G1 X166.700 Y44.482 E2.91486
G1 X166.287 Y44.446 E2.92769
G1 X165.886 Y44.338 E2.94052
G1 X165.511 Y44.163 E2.95335
G1 X165.171 Y43.925 E2.96618
G1 X164.878 Y43.632 E2.97901
G1 X164.640 Y43.292 E2.99184
G1 X164.465 Y42.917 E3.00466
G1 X164.358 Y42.516 E3.01749
G1 X164.321 Y42.103 E3.03032
G1 X164.351 Y41.765 E3.04083
G1 X164.975 Y41.799 F7800.000
G1 F1800
G1 X165.054 Y41.504 E3.05028
G1 X165.183 Y41.227 E3.05972
G1 X165.358 Y40.977 E3.06917
G1 X165.574 Y40.762 E3.07861
G1 X165.824 Y40.586 E3.08806
G1 X166.101 Y40.457 E3.09750
G1 X166.396 Y40.378 E3.10695
G1 X166.700 Y40.352 E3.11640
G1 X167.004 Y40.378 E3.12584
G1 X167.299 Y40.457 E3.13529
G1 X167.576 Y40.586 E3.14473
G1 X167.826 Y40.762 E3.15418
G1 X168.042 Y40.977 E3.16363
G1 X168.217 Y41.227 E3.17307
G1 X168.346 Y41.504 E3.18252
G1 X168.425 Y41.799 E3.19196
G1 X168.451 Y42.103 E3.20141
G1 X168.425 Y42.407 E3.21085
G1 X168.346 Y42.702 E3.22030
G1 X168.217 Y42.979 E3.22974
G1 X168.042 Y43.229 E3.23919
G1 X167.826 Y43.445 E3.24864
G1 X167.576 Y43.620 E3.25808
G1 X167.299 Y43.749 E3.26753
G1 X167.004 Y43.828 E3.27697
G1 X166.700 Y43.854 E3.28642
G1 X166.396 Y43.828 E3.29586
G1 X166.101 Y43.749 E3.30531
G1 X165.824 Y43.620 E3.31476
G1 X165.574 Y43.445 E3.32420
G1 X165.358 Y43.229 E3.33365
G1 X165.183 Y42.979 E3.34309
G1 X165.054 Y42.702 E3.35254
G1 X164.975 Y42.407 E3.36198
G1 X164.949 Y42.103 E3.37143
G1 X164.969 Y41.874 E3.37856
G1 X164.975 Y41.799 F7800.000
G1 E1.37856 F2400.00000
G92 E0
G1 X152.949 Y31.939 F7800.000
G1 E2.00000 F2400.00000
G1 F1800
G1 X152.597 Y32.291 E2.01540
G1 X152.189 Y32.576 E2.03080
G1 X151.738 Y32.787 E2.04621
G1 X151.257 Y32.916 E2.06161
G1 X150.761 Y32.959 E2.07701
G1 X150.265 Y32.916 E2.09242
G1 X149.784 Y32.787 E2.10782
G1 X149.333 Y32.576 E2.12322
G1 X148.925 Y32.291 E2.13862
G1 X148.573 Y31.939 E2.15403
G1 X148.288 Y31.531 E2.16943
G1 X148.077 Y31.080 E2.18484
G1 X147.949 Y30.599 E2.20024
G1 X147.905 Y30.103 E2.21564
G1 X147.949 Y29.607 E2.23104
G1 X148.077 Y29.126 E2.24645
G1 X148.288 Y28.675 E2.26185
G1 X148.573 Y28.267 E2.27725
G1 X148.925 Y27.915 E2.29266
G1 X149.333 Y27.630 E2.30806
G1 X149.784 Y27.419 E2.32346
G1 X150.265 Y27.291 E2.33886
G1 X150.761 Y27.247 E2.35427
G1 X151.257 Y27.291 E2.36967
G1 X151.738 Y27.419 E2.38507
G1 X152.189 Y27.630 E2.40048
G1 X152.597 Y27.915 E2.41588
G1 X152.949 Y28.267 E2.43128
G1 X153.234 Y28.675 E2.44669
G1 X153.445 Y29.126 E2.46209
G1 X153.574 Y29.607 E2.47749
G1 X153.617 Y30.103 E2.49290
G1 X153.574 Y30.599 E2.50830
G1 X153.445 Y31.080 E2.52370
G1 X153.234 Y31.531 E2.53911
G1 X152.992 Y31.877 E2.55219
G1 X152.468 Y31.536 F7800.000
G1 F1800
G1 X152.194 Y31.810 E2.56421
G1 X151.875 Y32.033 E2.57623
G1 X151.523 Y32.197 E2.58825
G1 X151.148 Y32.298 E2.60027
G1 X150.761 Y32.332 E2.61229
G1 X150.374 Y32.298 E2.62431
G1 X149.999 Y32.197 E2.63633
G1 X149.647 Y32.033 E2.64835
G1 X149.329 Y31.810 E2.66037
G1 X149.054 Y31.536 E2.67238
G1 X148.831 Y31.217 E2.68441
G1 X148.667 Y30.865 E2.69643
G1 X148.566 Y30.490 E2.70845
G1 X148.532 Y30.103 E2.72046
G1 X148.566 Y29.716 E2.73248
G1 X148.667 Y29.341 E2.74450
G1 X148.831 Y28.989 E2.75652
G1 X149.054 Y28.671 E2.76854
G1 X149.329 Y28.396 E2.78056
G1 X149.647 Y28.173 E2.79259
G1 X149.999 Y28.009 E2.80460
G1 X150.374 Y27.908 E2.81662
G1 X150.761 Y27.874 E2.82864
G1 X151.148 Y27.908 E2.84066
G1 X151.523 Y28.009 E2.85268
G1 X151.875 Y28.173 E2.86470
G1 X152.194 Y28.396 E2.87672
G1 X152.468 Y28.671 E2.88874
G1 X152.691 Y28.989 E2.90076
G1 X152.855 Y29.341 E2.91278
G1 X152.956 Y29.716 E2.92480
G1 X152.990 Y30.103 E2.93682
G1 X152.956 Y30.490 E2.94884
G1 X152.855 Y30.865 E2.96086
G1 X152.691 Y31.217 E2.97288
G1 X152.511 Y31.474 E2.98258
G1 X151.988 Y31.132 F7800.000
G1 F1800
G1 X151.790 Y31.330 E2.99122
G1 X151.562 Y31.490 E2.99985
G1 X151.309 Y31.608 E3.00849
G1 X151.039 Y31.680 E3.01713
G1 X150.761 Y31.704 E3.02577
G1 X150.483 Y31.680 E3.03440
G1 X150.213 Y31.608 E3.04304
G1 X149.960 Y31.490 E3.05168
G1 X149.732 Y31.330 E3.06031
G1 X149.534 Y31.132 E3.06895
G1 X149.374 Y30.904 E3.07759
G1 X149.256 Y30.651 E3.08622
G1 X149.184 Y30.381 E3.09486
G1 X149.160 Y30.103 E3.10350
G1 X149.184 Y29.825 E3.11213
G1 X149.256 Y29.555 E3.12077
G1 X149.374 Y29.302 E3.12940
G1 X149.534 Y29.074 E3.13804
G1 X149.732 Y28.876 E3.14668
G1 X149.960 Y28.716 E3.15532
G1 X150.213 Y28.598 E3.16395
G1 X150.483 Y28.526 E3.17259
G1 X150.761 Y28.502 E3.18123
G1 X151.039 Y28.526 E3.18986
G1 X151.309 Y28.598 E3.19850
G1 X151.562 Y28.716 E3.20714
G1 X151.790 Y28.876 E3.21577
G1 X151.988 Y29.074 E3.22441
G1 X152.148 Y29.302 E3.23305
G1 X152.266 Y29.555 E3.24168
G1 X152.338 Y29.825 E3.25032
G1 X152.362 Y30.103 E3.25896
G1 X152.338 Y30.381 E3.26759
G1 X152.266 Y30.651 E3.27623
G1 X152.148 Y30.904 E3.28487
G1 X152.031 Y31.071 E3.29118
G1 X151.988 Y31.132 F7800.000
G1 E1.29118 F2400.00000
G92 E0
G1 X146.378 Y19.303 F7800.000
G1 E2.00000 F2400.00000
G1 F1800
G1 X145.848 Y19.550 E2.01810
G1 X145.290 Y19.700 E2.03596
G1 X144.702 Y19.753 E2.05422
G1 X144.117 Y19.702 E2.07240
G1 X143.552 Y19.550 E2.09050
G1 X143.022 Y19.303 E2.10860
G1 X142.543 Y18.968 E2.12670
G1 X142.129 Y18.554 E2.14479
G1 X141.794 Y18.075 E2.16290
G1 X141.547 Y17.545 E2.18099
G1 X141.395 Y16.980 E2.19909
G1 X141.344 Y16.397 E2.21719
G1 X141.395 Y15.814 E2.23529
G1 X141.547 Y15.249 E2.25339
G1 X141.794 Y14.719 E2.27149
G1 X142.129 Y14.240 E2.28959
G1 X142.543 Y13.826 E2.30769
G1 X143.022 Y13.491 E2.32579
G1 X143.552 Y13.243 E2.34389
G1 X144.117 Y13.092 E2.36199
G1 X144.692 Y13.042 E2.37985
G1 X145.280 Y13.091 E2.39811
G1 X145.848 Y13.243 E2.41629
G1 X146.378 Y13.491 E2.43439
G1 X146.857 Y13.826 E2.45249
G1 X147.271 Y14.240 E2.47059
G1 X147.606 Y14.719 E2.48869
G1 X147.854 Y15.249 E2.50679
G1 X148.005 Y15.814 E2.52489
G1 X148.056 Y16.397 E2.54299
G1 X148.005 Y16.980 E2.56109
G1 X147.854 Y17.545 E2.57919
G1 X147.606 Y18.075 E2.59729
G1 X147.271 Y18.554 E2.61539
G1 X146.857 Y18.968 E2.63349
G1 X146.439 Y19.260 E2.64927
G1 X146.064 Y18.760 F7800.000
G1 F1800
G1 X145.633 Y18.961 E2.66398
G1 X145.180 Y19.082 E2.67849
G1 X144.702 Y19.126 E2.69337
G1 X144.226 Y19.084 E2.70813
G1 X143.767 Y18.961 E2.72285
G1 X143.336 Y18.760 E2.73756
G1 X142.946 Y18.487 E2.75228
G1 X142.610 Y18.151 E2.76699
G1 X142.337 Y17.761 E2.78171
G1 X142.136 Y17.330 E2.79643
G1 X142.013 Y16.871 E2.81114
G1 X141.971 Y16.397 E2.82586
G1 X142.013 Y15.923 E2.84058
G1 X142.136 Y15.464 E2.85529
G1 X142.337 Y15.033 E2.87001
G1 X142.610 Y14.643 E2.88473
G1 X142.946 Y14.307 E2.89944
G1 X143.336 Y14.034 E2.91416
G1 X143.767 Y13.833 E2.92888
G1 X144.226 Y13.710 E2.94359
G1 X144.693 Y13.669 E2.95810
G1 X145.172 Y13.709 E2.97298
G1 X145.633 Y13.833 E2.98774
G1 X146.064 Y14.034 E3.00246
G1 X146.454 Y14.307 E3.01717
G1 X146.790 Y14.643 E3.03189
G1 X147.063 Y15.033 E3.04661
G1 X147.264 Y15.464 E3.06132
G1 X147.387 Y15.923 E3.07604
G1 X147.429 Y16.397 E3.09076
G1 X147.387 Y16.871 E3.10547
G1 X147.264 Y17.330 E3.12019
G1 X147.063 Y17.761 E3.13491
G1 X146.790 Y18.151 E3.14962
G1 X146.454 Y18.487 E3.16434
G1 X146.126 Y18.717 E3.17674
G1 X145.751 Y18.217 F7800.000
G1 F1800
G1 X145.419 Y18.372 E3.18807
G1 X145.071 Y18.465 E3.19922
G1 X144.701 Y18.498 E3.21072
G1 X144.335 Y18.466 E3.22207
G1 X143.981 Y18.372 E3.23340
G1 X143.649 Y18.217 E3.24473
G1 X143.349 Y18.007 E3.25607
G1 X143.090 Y17.748 E3.26740
G1 X142.880 Y17.448 E3.27873
G1 X142.725 Y17.116 E3.29007
G1 X142.631 Y16.762 E3.30140
G1 X142.599 Y16.397 E3.31273
G1 X142.631 Y16.032 E3.32407
G1 X142.725 Y15.678 E3.33540
G1 X142.880 Y15.346 E3.34673
G1 X143.090 Y15.046 E3.35807
G1 X143.349 Y14.787 E3.36940
G1 X143.649 Y14.577 E3.38074
G1 X143.981 Y14.422 E3.39207
G1 X144.335 Y14.327 E3.40340
G1 X144.694 Y14.296 E3.41455
G1 X145.064 Y14.327 E3.42605
G1 X145.419 Y14.422 E3.43740
G1 X145.751 Y14.577 E3.44873
G1 X146.051 Y14.787 E3.46007
G1 X146.310 Y15.046 E3.47140
G1 X146.520 Y15.346 E3.48273
G1 X146.675 Y15.678 E3.49407
G1 X146.769 Y16.032 E3.50540
G1 X146.801 Y16.397 E3.51673
G1 X146.769 Y16.762 E3.52807
G1 X146.675 Y17.116 E3.53940
G1 X146.520 Y17.448 E3.55073
G1 X146.310 Y17.748 E3.56207
G1 X146.051 Y18.007 E3.57340
G1 X145.812 Y18.174 E3.58241
G1 X145.751 Y18.217 F7800.000
G1 E1.58241 F2400.00000
G92 E0
G1 X98.200 Y24.850 F7800.000
G1 E2.00000 F2400.00000
G1 F1800
G1 X98.200 Y10.497 E2.44410
G1 X144.636 Y10.497 E3.88089
G1 X145.624 Y10.576 E3.91156
G1 X146.563 Y10.804 E3.94146
G1 X147.431 Y11.173 E3.97065
G1 X148.286 Y11.711 E4.00190
G1 X170.600 Y28.404 E4.86416
G1 X170.600 Y189.503 E9.84877
G1 X167.800 Y189.503 E9.93542
G1 X167.800 Y134.503 E11.63720
G1 X161.800 Y134.503 E11.82284
G1 X161.800 Y114.198 E12.45112
G1 X97.355 Y36.003 E15.58637
G1 X29.400 Y36.003 E17.68899
G1 X29.400 Y24.850 E18.03410
G1 X98.125 Y24.850 E20.16054
G1 X97.575 Y24.225 F7800.000
G1 F1800
G1 X97.575 Y9.872 E20.60465
G1 X144.661 Y9.872 E22.06155
G1 X145.723 Y9.957 E22.09452
G1 X146.760 Y10.209 E22.12753
G1 X147.722 Y10.617 E22.15986
G1 X148.640 Y11.195 E22.19344
G1 X171.225 Y28.091 E23.06616
G1 X171.225 Y190.128 E28.07979
G1 X167.175 Y190.128 E28.20511
G1 X167.175 Y135.128 E29.90688
G1 X161.175 Y135.128 E30.09253
G1 X161.175 Y114.422 E30.73320
G1 X97.060 Y36.628 E33.85239
G1 X28.775 Y36.628 E35.96522
G1 X28.775 Y24.225 E36.34900
G1 X97.500 Y24.225 E38.47545
G1 X96.950 Y23.600 F7800.000
G1 F1800
G1 X96.950 Y9.247 E38.91955
G1 X144.686 Y9.247 E40.39656
G1 X145.823 Y9.338 E40.43184
G1 X146.957 Y9.614 E40.46796
G1 X148.012 Y10.062 E40.50343
G1 X148.994 Y10.680 E40.53934
G1 X171.850 Y27.778 E41.42252
G1 X171.850 Y190.753 E46.46517
G1 X166.550 Y190.753 E46.62916
G1 X166.550 Y135.753 E48.33093
G1 X160.550 Y135.753 E48.51658
G1 X160.550 Y114.646 E49.16965
G1 X96.765 Y37.253 E52.27277
G1 X28.150 Y37.253 E54.39582
G1 X28.150 Y23.600 E54.81827
G1 X96.875 Y23.600 E56.94471
G1 X97.449 Y23.567 F7800.000
G1 E54.94471 F2400.00000
G92 E0
G1 X98.582 Y25.018 F7800.000
G1 E2.00000 F2400.00000
G1 F1800
G1 X112.721 Y10.879 E2.61919
G1 X111.837 Y10.879 E2.64657
G1 X98.582 Y24.133 E3.22703
G1 X98.582 Y23.249 E3.25442
G1 X110.952 Y10.879 E3.79614
G1 X110.068 Y10.879 E3.82353
G1 X98.582 Y22.365 E4.32652
G1 X98.582 Y21.480 E4.35391
G1 X109.183 Y10.879 E4.81818
G1 X108.299 Y10.879 E4.84556
G1 X98.582 Y20.596 E5.27110
G1 X98.582 Y19.711 E5.29849
G1 X107.415 Y10.879 E5.68529
G1 X106.530 Y10.879 E5.71268
G1 X98.582 Y18.827 E6.06076
G1 X98.582 Y17.943 E6.08814
G1 X105.646 Y10.879 E6.39749
G1 X104.761 Y10.879 E6.42488
G1 X98.582 Y17.058 E6.69549
G1 X98.582 Y16.174 E6.72288
G1 X103.877 Y10.879 E6.95477
G1 X102.993 Y10.879 E6.98215
G1 X98.582 Y15.289 E7.17531
G1 X98.582 Y14.405 E7.20270
G1 X102.108 Y10.879 E7.35712
G1 X101.224 Y10.879 E7.38451
G1 X98.582 Y13.521 E7.50021
G1 X98.582 Y12.636 E7.52759
G1 X100.339 Y10.879 E7.60456
G1 X99.455 Y10.879 E7.63195
G1 X98.582 Y11.752 E7.67018
G1 X98.582 Y11.365 E7.68217
G1 X98.969 Y11.365 E7.69416
G1 E5.69416 F2400.00000
G92 E0
G1 X140.593 Y15.730 F7800.000
G1 E2.00000 F2400.00000
G1 F1800
G1 X140.714 Y15.278 E2.01451
G1 X141.008 Y14.648 E2.03601
G1 X141.406 Y14.080 E2.05751
G1 X141.897 Y13.589 E2.07901
G1 X142.465 Y13.190 E2.10050
G1 X143.095 Y12.897 E2.12200
G1 X143.547 Y12.776 E2.13651
G1 X145.400 Y10.923 E2.21767
G1 X145.767 Y10.952 E2.22907
G1 X146.160 Y11.047 E2.24158
G1 X144.542 Y12.665 E2.31244
G1 X145.145 Y12.716 E2.33119
G1 X145.327 Y12.765 E2.33701
G1 X146.838 Y11.254 E2.40319
G1 X147.450 Y11.527 E2.42393
G1 X145.997 Y12.980 E2.48756
G1 X146.449 Y13.190 E2.50300
G1 X146.579 Y13.282 E2.50793
G1 X147.992 Y11.868 E2.56982
G1 X148.511 Y12.235 E2.58947
G1 X147.087 Y13.658 E2.65181
G1 X147.525 Y14.104 E2.67118
G1 X149.016 Y12.613 E2.73647
G1 X149.522 Y12.991 E2.75604
G1 X147.890 Y14.624 E2.82754
G1 X148.175 Y15.224 E2.84809
G1 X150.028 Y13.370 E2.92926
G1 X150.534 Y13.748 E2.94883
G1 X148.370 Y15.913 E3.04360
G1 X148.440 Y16.640 E3.06623
G1 X148.432 Y16.735 E3.06919
G1 X151.040 Y14.127 E3.18341
G1 X151.546 Y14.505 E3.20298
G1 X148.255 Y17.796 E3.34710
G1 E1.34710 F2400.00000
G92 E0
G1 X147.634 Y29.030 F7800.000
G1 E2.00000 F2400.00000
G1 F1800
G1 X117.122 Y59.543 E3.33619
G1 X117.521 Y60.028 E3.35565
G1 X147.534 Y30.014 E4.66998
G1 X147.574 Y30.465 E4.68398
G1 X147.657 Y30.776 E4.69395
G1 X117.921 Y60.513 E5.99616
G1 X118.320 Y60.997 E6.01562
G1 X147.901 Y31.416 E7.31101
G1 X147.988 Y31.602 E7.31734
G1 X148.240 Y31.962 E7.33097
G1 X118.720 Y61.482 E8.62370
G1 X119.120 Y61.967 E8.64315
G1 X148.662 Y32.425 E9.93686
G1 X148.765 Y32.528 E9.94139
G1 X149.164 Y32.807 E9.95645
G1 X119.519 Y62.452 E11.25463
G1 X119.919 Y62.937 E11.27409
