; generated by Slic3r 1.3.1-dev on 2018-09-19 at 00:40:02

; external perimeters extrusion width = 0.55mm (4.37mm^3/s)
; perimeters extrusion width = 0.70mm (11.44mm^3/s)
; infill extrusion width = 0.63mm (13.45mm^3/s)
; solid infill extrusion width = 0.70mm (3.81mm^3/s)
; top infill extrusion width = 0.70mm (2.86mm^3/s)

M107
M104 S200 ; set temperature
G28 ; home all axes
G1 Z5 F5000 ; lift nozzle

; Filament gcode

M109 S200 ; set temperature and wait for it to be reached
G21 ; set units to millimeters
G90 ; use absolute coordinates
M82 ; use absolute distances for extrusion
G92 E0
G92 E0
G1 Z0.350 F7800.000
G1 E-2.00000 F2400.00000
G92 E0
G1 X87.415 Y88.153 F7800.000
G1 E2.00000 F2400.00000
G1 F1800
G1 X89.168 Y86.674 E2.07096
G1 X91.320 Y85.881 E2.14192
G1 X92.500 Y85.775 E2.17858
G1 X103.098 Y85.775 E2.50649
G1 X105.357 Y86.172 E2.57746
G1 X108.154 Y88.120 E2.68292
G1 X112.556 Y93.320 E2.89373
G1 X113.713 Y95.300 E2.96469
G1 X114.125 Y97.600 E3.03699
G1 X114.125 Y103.600 E3.22263
G1 X113.728 Y105.859 E3.29360
G1 X112.585 Y107.847 E3.36456
G1 X110.832 Y109.326 E3.43552
G1 X109.595 Y109.885 E3.47751
G1 X97.595 Y113.885 E3.86889
G1 X95.500 Y114.225 E3.93456
G1 X92.500 Y114.225 E4.02739
G1 X90.241 Y113.828 E4.09835
G1 X88.253 Y112.685 E4.16931
G1 X86.774 Y110.932 E4.24027
G1 X85.981 Y108.780 E4.31124
G1 X85.875 Y107.600 E4.34789
G1 X85.875 Y92.400 E4.81820
G1 X86.272 Y90.141 E4.88916
G1 X87.378 Y88.218 E4.95780
G1 E2.95780 F2400.00000
G92 E0
G1 X101.498 Y99.200 F7800.000
G1 E2.00000 F2400.00000
G1 F1800
G1 X105.900 Y99.200 E2.13620
G1 X105.900 Y102.000 E2.22285
G1 X94.100 Y102.000 E2.58797
G1 X94.100 Y94.000 E2.83552
G1 X101.498 Y94.000 E3.06444
G1 X101.498 Y99.125 E3.22301
G1 X102.123 Y98.575 F7800.000
G1 F1800
G1 X106.525 Y98.575 E3.35921
G1 X106.525 Y102.625 E3.48453
G1 X94.525 Y102.625 E3.85583
G1 X94.525 Y106.625 E3.97959
G1 X93.475 Y106.625 E4.01209
G1 X93.475 Y93.375 E4.42207
G1 X102.123 Y93.375 E4.68966
G1 X102.123 Y98.500 E4.84823
G1 X102.748 Y97.950 F7800.000
G1 F1800
G1 X107.150 Y97.950 E4.98443
G1 X107.150 Y103.250 E5.14842
G1 X95.150 Y103.250 E5.51972
G1 X95.150 Y107.250 E5.64348
G1 X92.850 Y107.250 E5.71465
G1 X92.850 Y92.750 E6.16330
G1 X102.748 Y92.750 E6.46956
G1 X102.748 Y97.875 E6.62813
G1 X102.925 Y98.418 F7800.000
G1 E4.62813 F2400.00000
G92 E0
G1 X105.032 Y101.618 F7800.000
G1 E2.00000 F2400.00000
G1 F1800
G1 X105.518 Y101.132 E2.02192
G1 X105.518 Y100.222 E2.05095
G1 X104.122 Y101.618 E2.11393
G1 X103.211 Y101.618 E2.14296
G1 X105.248 Y99.582 E2.23479
G1 X104.337 Y99.582 E2.26382
G1 X102.300 Y101.618 E2.35566
G1 X101.390 Y101.618 E2.38469
G1 X103.427 Y99.582 E2.47652
G1 X102.516 Y99.582 E2.50555
G1 X100.479 Y101.618 E2.59738
G1 X99.569 Y101.618 E2.62641
G1 X101.605 Y99.582 E2.71825
G1 X101.116 Y99.582 E2.73384
G1 X101.116 Y99.160 E2.74728
G1 X98.658 Y101.618 E2.85812
G1 X97.748 Y101.618 E2.88715
G1 X101.116 Y98.249 E3.03904
G1 X101.116 Y97.339 E3.06808
G1 X96.837 Y101.618 E3.26103
G1 X95.926 Y101.618 E3.29006
G1 X101.116 Y96.428 E3.52407
G1 X101.116 Y95.518 E3.55310
G1 X95.016 Y101.618 E3.82816
G1 X94.482 Y101.618 E3.84519
G1 X94.482 Y101.242 E3.85719
G1 X101.116 Y94.607 E4.15634
G1 X101.116 Y94.382 E4.16353
G1 X100.431 Y94.382 E4.18537
G1 X94.482 Y100.331 E4.45363
G1 X94.482 Y99.421 E4.48266
G1 X99.521 Y94.382 E4.70986
G1 X98.610 Y94.382 E4.73889
G1 X94.482 Y98.510 E4.92504
G1 X94.482 Y97.600 E4.95407
G1 X97.700 Y94.382 E5.09916
G1 X96.789 Y94.382 E5.12819
G1 X94.482 Y96.689 E5.23222
G1 X94.482 Y95.778 E5.26125
G1 X95.878 Y94.382 E5.32423
G1 X94.968 Y94.382 E5.35326
G1 X94.482 Y94.868 E5.37518
G1 E3.37518 F2400.00000
G92 E0
G1 X94.000 Y102.313 F7800.000
G1 E2.00000 F2400.00000
G1 F1800
G1 X94.000 Y106.313 E2.06936
G1 Z0.650 F7800.000
G1 E0.06936 F2400.00000
G92 E0
G1 X101.627 Y99.071 F7800.000
G1 E2.00000 F2400.00000
G1 F900
G1 X106.029 Y99.071 E2.11875
G1 X106.029 Y102.129 E2.20123
G1 X93.971 Y102.129 E2.52650
G1 X93.971 Y93.871 E2.74926
G1 X101.627 Y93.871 E2.95578
G1 X101.627 Y98.996 E3.09404
G1 X102.262 Y98.436 F7800.000
G1 F3600
G1 X106.664 Y98.436 E3.21279
G1 X106.664 Y102.764 E3.32956
G1 X94.664 Y102.764 E3.65328
G1 X94.664 Y106.764 E3.76118
G1 X93.336 Y106.764 E3.79703
G1 X93.336 Y93.236 E4.16199
G1 X102.262 Y93.236 E4.40280
G1 X102.262 Y98.361 E4.54106
G1 X102.823 Y97.875 F7800.000
G1 F1800
G1 X107.225 Y97.875 E4.63178
G1 X107.225 Y103.325 E4.74411
G1 X95.225 Y103.325 E4.99143
G1 X95.225 Y107.325 E5.07388
G1 X92.775 Y107.325 E5.12437
G1 X92.775 Y92.675 E5.42631
G1 X102.823 Y92.675 E5.63341
G1 X102.823 Y97.800 E5.73903
G1 X103.001 Y98.342 F7800.000
G1 E3.73903 F2400.00000
G92 E0
G1 X101.238 Y94.754 F7800.000
G1 E2.00000 F2400.00000
G1 F1200
G1 X100.744 Y94.260 E2.02004
G1 X99.789 Y94.260 E2.04742
G1 X101.238 Y95.709 E2.10617
G1 X101.238 Y96.664 E2.13354
G1 X98.834 Y94.260 E2.23101
G1 X97.879 Y94.260 E2.25838
G1 X101.238 Y97.619 E2.39455
G1 X101.238 Y98.574 E2.42193
G1 X96.924 Y94.260 E2.59681
G1 X95.969 Y94.260 E2.62418
G1 X101.238 Y99.529 E2.83778
G1 X101.238 Y99.954 E2.84995
G1 X101.663 Y99.954 E2.86212
G1 X103.449 Y101.740 E2.93453
G1 X102.494 Y101.740 E2.96190
G1 X95.014 Y94.260 E3.26511
G1 X94.360 Y94.260 E3.28386
G1 X94.360 Y94.561 E3.29248
G1 X101.539 Y101.740 E3.58350
G1 X100.584 Y101.740 E3.61087
G1 X94.360 Y95.516 E3.86318
G1 X94.360 Y96.471 E3.89055
G1 X99.629 Y101.740 E4.10414
G1 X98.674 Y101.740 E4.13151
G1 X94.360 Y97.426 E4.30640
G1 X94.360 Y98.381 E4.33377
G1 X97.719 Y101.740 E4.46995
G1 X96.764 Y101.740 E4.49732
G1 X94.360 Y99.336 E4.59478
G1 X94.360 Y100.291 E4.62216
G1 X95.809 Y101.740 E4.68091
G1 X94.854 Y101.740 E4.70828
G1 X94.360 Y101.246 E4.72833
G1 X103.449 Y101.740 F7800.000
G1 F1200
G1 X104.404 Y101.740 E4.75570
G1 X102.124 Y99.460 E4.84815
G1 X103.079 Y99.460 E4.87552
G1 X105.360 Y101.740 E4.96796
G1 X105.640 Y101.740 E4.97601
G1 X105.640 Y101.066 E4.99533
G1 X104.034 Y99.460 E5.06045
G1 X104.989 Y99.460 E5.08782
G1 X105.640 Y100.111 E5.11423
G1 X94.000 Y102.447 F7800.000
G1 F1200
G1 X94.000 Y106.447 E5.22097
G1 Z0.950 F7800.000
G1 X98.962 Y93.871 F7800.000
G1 F900
G1 X98.962 Y102.129 E5.44373
G1 X93.971 Y102.129 E5.57837
G1 X93.971 Y93.871 E5.80113
G1 X98.887 Y93.871 E5.93374
G1 E3.93374 F2400.00000
G92 E0
G1 X103.038 Y99.071 F7800.000
G1 E2.00000 F2400.00000
G1 F900
G1 X106.029 Y99.071 E2.08068
G1 X106.029 Y102.129 E2.16316
G1 X103.038 Y102.129 E2.24384
G1 X103.038 Y99.146 E2.32430
G1 X102.402 Y101.436 F7800.000
G1 F3600
G1 X102.402 Y98.436 E2.40523
G1 X106.664 Y98.436 E2.52021
G1 X106.664 Y102.764 E2.63698
G1 X94.664 Y102.764 E2.96070
G1 X94.664 Y106.764 E3.06861
G1 X93.336 Y106.764 E3.10445
G1 X93.336 Y93.236 E3.46941
G1 X99.598 Y93.236 E3.63834
G1 X99.598 Y101.436 E3.85955
G1 X102.327 Y101.436 E3.93318
G1 X101.842 Y100.875 F7800.000
G1 F1800
G1 X101.842 Y92.675 E4.10219
G1 X102.823 Y92.675 E4.12241
G1 X102.823 Y97.875 E4.22959
G1 X107.225 Y97.875 E4.32031
G1 X107.225 Y103.325 E4.43264
G1 X95.225 Y103.325 E4.67996
G1 X95.225 Y107.325 E4.76241
G1 X92.775 Y107.325 E4.81290
G1 X92.775 Y92.675 E5.11484
G1 X100.158 Y92.675 E5.26701
G1 X100.158 Y100.875 E5.43602
G1 X101.767 Y100.875 E5.46917
G1 X102.291 Y101.095 F7800.000
G1 X102.720 Y102.100 F7800.000
G1 F1200
G1 X99.280 Y102.100 E5.56097
G1 X98.079 Y101.740 F7800.000
G1 F1200
G1 X98.574 Y101.246 E5.58140
G1 X98.574 Y100.273 E5.60983
G1 X97.106 Y101.740 E5.67045
G1 X96.133 Y101.740 E5.69888
G1 X98.574 Y99.299 E5.79971
G1 X98.574 Y98.326 E5.82813
G1 X95.159 Y101.740 E5.96916
G1 X94.360 Y101.740 E5.99252
G1 X94.360 Y101.567 E5.99759
G1 X98.574 Y97.353 E6.17165
G1 X98.574 Y96.380 E6.20007
G1 X94.360 Y100.594 E6.37414
G1 X94.360 Y99.620 E6.40256
G1 X98.574 Y95.406 E6.57662
G1 X98.574 Y94.433 E6.60505
G1 X94.360 Y98.647 E6.77911
G1 X94.360 Y97.674 E6.80753
G1 X97.774 Y94.260 E6.94856
G1 X96.801 Y94.260 E6.97699
G1 X94.360 Y96.701 E7.07781
G1 X94.360 Y95.727 E7.10624
G1 X95.827 Y94.260 E7.16687
G1 X94.854 Y94.260 E7.19529
G1 X94.360 Y94.754 E7.21571
G1 X94.000 Y102.447 F7800.000
G1 F1200
G1 X94.000 Y106.447 E7.32246
G1 E5.32246 F2400.00000
G92 E0
G1 X103.696 Y99.954 F7800.000
G1 E2.00000 F2400.00000
G1 F1200
G1 X103.426 Y99.954 E2.00873
G1 X103.426 Y100.224 E2.01746
G1 X104.190 Y99.460 E2.05245
G1 X105.269 Y99.460 E2.08736
G1 X103.426 Y101.302 E2.17173
G1 X103.426 Y101.740 E2.18591
G1 X104.067 Y101.740 E2.20665
G1 X105.640 Y100.167 E2.27867
G1 X105.640 Y101.246 E2.31359
G1 X105.146 Y101.740 E2.33623
G1 E0.33623 F2400.00000
G92 E0
G1 X102.332 Y98.155 F7800.000
G1 E2.00000 F2400.00000
G1 F1200
G1 X102.332 Y92.955 E2.07864
M106 S242.25
G1 Z1.250 F7800.000
G1 E0.07864 F2400.00000
G92 E0
G1 X98.087 Y102.129 F7800.000
G1 E2.00000 F2400.00000
G1 F900
G1 X93.971 Y102.129 E2.11103
G1 X93.971 Y93.871 E2.33379
G1 X98.087 Y93.871 E2.44481
G1 X98.087 Y102.054 E2.66555
G1 X103.913 Y102.129 F7800.000
G1 F900
G1 X103.913 Y99.071 E2.74803
G1 X106.029 Y99.071 E2.80510
G1 X106.029 Y102.129 E2.88759
G1 X103.988 Y102.129 E2.94264
G1 X103.277 Y101.436 F7800.000
G1 F3600
G1 X103.277 Y98.436 E3.02357
G1 X106.664 Y98.436 E3.11493
G1 X106.664 Y102.764 E3.23171
G1 X94.664 Y102.764 E3.55543
G1 X94.664 Y106.764 E3.66333
G1 X93.336 Y106.764 E3.69918
G1 X93.336 Y93.236 E4.06414
G1 X98.723 Y93.236 E4.20946
G1 X98.723 Y101.436 E4.43067
G1 X103.202 Y101.436 E4.55152
G1 X102.717 Y100.875 F7800.000
G1 F1800
G1 X102.717 Y97.875 E4.61335
G1 X107.225 Y97.875 E4.70626
G1 X107.225 Y103.325 E4.81859
G1 X95.225 Y103.325 E5.06591
G1 X95.225 Y107.325 E5.14836
G1 X92.775 Y107.325 E5.19885
G1 X92.775 Y92.675 E5.50079
G1 X99.283 Y92.675 E5.63493
G1 X99.283 Y100.875 E5.80393
G1 X102.642 Y100.875 E5.87316
G1 X103.179 Y101.066 F7800.000
G1 E3.87316 F2400.00000
G92 E0
G1 X102.770 Y97.875 F7800.000
G1 E2.00000 F2400.00000
G1 F1800
G1 X102.770 Y92.400 E2.13752
G1 E0.13752 F2400.00000
G92 E0
G1 X97.699 Y94.754 F7800.000
G1 E2.00000 F2400.00000
G1 F1200
G1 X97.204 Y94.260 E2.02063
G1 X96.221 Y94.260 E2.04963
G1 X97.699 Y95.737 E2.11128
G1 X97.699 Y96.720 E2.14028
G1 X95.238 Y94.260 E2.24295
G1 X94.360 Y94.260 E2.26886
G1 X94.360 Y94.364 E2.27195
G1 X97.699 Y97.703 E2.41125
G1 X97.699 Y98.686 E2.44025
G1 X94.360 Y95.348 E2.57956
G1 X94.360 Y96.331 E2.60856
G1 X97.699 Y99.669 E2.74786
G1 X97.699 Y100.652 E2.77687
G1 X94.360 Y97.314 E2.91617
G1 X94.360 Y98.297 E2.94517
G1 X97.699 Y101.636 E3.08448
G1 X97.699 Y101.740 E3.08757
G1 X96.820 Y101.740 E3.11348
G1 X94.360 Y99.280 E3.21614
G1 X94.360 Y100.263 E3.24514
G1 X95.837 Y101.740 E3.30679
G1 X94.854 Y101.740 E3.33579
G1 X94.360 Y101.246 E3.35642
G1 X94.000 Y102.447 F7800.000
G1 F1200
G1 X94.000 Y106.447 E3.46317
G1 E1.46317 F2400.00000
G92 E0
G1 X98.405 Y102.100 F7800.000
G1 E2.00000 F2400.00000
G1 F1200
G1 X103.595 Y102.100 E2.13851
G1 X104.301 Y100.773 F7800.000
G1 F1200
G1 X105.269 Y101.740 E2.18281
G1 X105.640 Y101.740 E2.19483
G1 X105.640 Y101.033 E2.21773
G1 X104.301 Y99.694 E2.27903
G1 X104.301 Y99.460 E2.28661
G1 X105.146 Y99.460 E2.31394
G1 X105.640 Y99.954 E2.33658
M106 S244.8
G1 Z1.550 F7800.000
G1 E0.33658 F2400.00000
G92 E0
G1 X97.597 Y102.129 F7800.000
G1 E2.00000 F2400.00000
G1 F900
G1 X93.971 Y102.129 E2.09782
G1 X93.971 Y93.871 E2.32058
G1 X97.597 Y93.871 E2.41840
G1 X97.597 Y102.054 E2.63913
G1 X104.403 Y102.129 F7800.000
G1 F900
G1 X104.403 Y99.071 E2.72161
G1 X106.029 Y99.071 E2.76548
G1 X106.029 Y102.129 E2.84796
G1 X104.478 Y102.129 E2.88980
G1 X103.767 Y101.436 F7800.000
G1 F3600
G1 X103.767 Y98.436 E2.97073
G1 X106.664 Y98.436 E3.04889
G1 X106.664 Y102.764 E3.16567
G1 X94.664 Y102.764 E3.48939
G1 X94.664 Y106.764 E3.59729
G1 X93.336 Y106.764 E3.63314
G1 X93.336 Y93.236 E3.99810
G1 X98.233 Y93.236 E4.13021
G1 X98.233 Y101.436 E4.35142
G1 X103.692 Y101.436 E4.49868
G1 X103.206 Y100.875 F7800.000
G1 F1800
G1 X103.206 Y97.875 E4.56052
G1 X107.225 Y97.875 E4.64334
G1 X107.225 Y103.325 E4.75567
G1 X95.225 Y103.325 E5.00299
G1 X95.225 Y107.325 E5.08543
G1 X92.775 Y107.325 E5.13593
G1 X92.775 Y92.675 E5.43787
G1 X98.794 Y92.675 E5.56191
G1 X98.794 Y100.875 E5.73092
G1 X103.131 Y100.875 E5.82032
G1 X103.675 Y101.051 F7800.000
G1 X104.085 Y102.100 F7800.000
G1 F1200
G1 X97.915 Y102.100 E5.98497
G1 X96.714 Y101.740 F7800.000
G1 F1200
G1 X97.209 Y101.246 E6.00457
G1 X97.209 Y100.312 E6.03076
G1 X95.780 Y101.740 E6.08739
G1 X94.846 Y101.740 E6.11358
G1 X97.209 Y99.378 E6.20724
G1 X97.209 Y98.444 E6.23343
G1 X94.360 Y101.293 E6.34638
G1 X94.360 Y100.359 E6.37257
G1 X97.209 Y97.509 E6.48552
G1 X97.209 Y96.575 E6.51171
G1 X94.360 Y99.425 E6.62466
G1 X94.360 Y98.491 E6.65085
G1 X97.209 Y95.641 E6.76380
G1 X97.209 Y94.707 E6.78999
G1 X94.360 Y97.556 E6.90294
G1 X94.360 Y96.622 E6.92913
G1 X96.722 Y94.260 E7.02279
G1 X95.788 Y94.260 E7.04898
G1 X94.360 Y95.688 E7.10562
G1 X94.360 Y94.754 E7.13180
G1 X94.854 Y94.260 E7.15141
G1 X94.000 Y102.447 F7800.000
G1 F1200
G1 X94.000 Y106.447 E7.25815
G1 E5.25815 F2400.00000
G92 E0
G1 X105.216 Y101.811 F7800.000
G1 E2.00000 F2400.00000
G1 F1200
G1 X105.216 Y99.389 E2.09519
G1 Z1.850 F7800.000
G1 E0.09519 F2400.00000
G92 E0
G1 X97.250 Y102.129 F7800.000
G1 E2.00000 F2400.00000
G1 F900
G1 X93.971 Y102.129 E2.08845
G1 X93.971 Y93.871 E2.31121
G1 X97.250 Y93.871 E2.39966
G1 X97.250 Y102.054 E2.62040
G1 X104.750 Y102.129 F7800.000
G1 F900
G1 X104.750 Y99.071 E2.70288
G1 X106.029 Y99.071 E2.73737
G1 X106.029 Y102.129 E2.81985
G1 X104.825 Y102.129 E2.85233
G1 X104.114 Y101.436 F7800.000
G1 F3600
G1 X104.115 Y98.436 E2.93326
G1 X106.664 Y98.436 E3.00204
G1 X106.664 Y102.764 E3.11881
G1 X94.664 Y102.764 E3.44253
G1 X94.664 Y106.764 E3.55044
G1 X93.336 Y106.764 E3.58628
G1 X93.336 Y93.236 E3.95124
G1 X97.886 Y93.236 E4.07399
G1 X97.886 Y101.436 E4.29520
G1 X104.039 Y101.436 E4.46119
G1 X103.554 Y100.875 F7800.000
G1 F1800
G1 X103.554 Y97.875 E4.52303
G1 X107.225 Y97.875 E4.59868
G1 X107.225 Y103.325 E4.71100
G1 X95.225 Y103.325 E4.95833
G1 X95.225 Y107.325 E5.04077
G1 X92.775 Y107.325 E5.09126
G1 X92.775 Y92.675 E5.39321
G1 X98.446 Y92.675 E5.51009
G1 X98.446 Y100.875 E5.67910
G1 X103.479 Y100.875 E5.78282
G1 X104.025 Y101.041 F7800.000
G1 X104.432 Y102.100 F7800.000
G1 F1200
G1 X97.568 Y102.100 E5.96598
G1 X94.360 Y101.246 F7800.000
G1 F1200
G1 X94.854 Y101.740 E5.98486
G1 X95.754 Y101.740 E6.00913
G1 X94.360 Y100.346 E6.06234
G1 X94.360 Y99.447 E6.08661
G1 X96.653 Y101.740 E6.17415
G1 X96.862 Y101.740 E6.17978
G1 X96.862 Y101.050 E6.19842
G1 X94.360 Y98.548 E6.29392
G1 X94.360 Y97.648 E6.31820
G1 X96.862 Y100.150 E6.41370
G1 X96.862 Y99.251 E6.43797
G1 X94.360 Y96.749 E6.53347
G1 X94.360 Y95.850 E6.55775
G1 X96.862 Y98.352 E6.65325
G1 X96.862 Y97.452 E6.67752
G1 X94.360 Y94.950 E6.77302
G1 X94.360 Y94.260 E6.79166
G1 X94.568 Y94.260 E6.79730
G1 X96.862 Y96.553 E6.88483
G1 X96.862 Y95.654 E6.90911
G1 X95.468 Y94.260 E6.96231
G1 X96.367 Y94.260 E6.98659
G1 X96.862 Y94.754 E7.00546
G1 X94.000 Y102.447 F7800.000
G1 F1200
G1 X94.000 Y106.447 E7.11220
G1 E5.11220 F2400.00000
G92 E0
G1 X105.389 Y101.811 F7800.000
G1 E2.00000 F2400.00000
G1 F1200
G1 X105.390 Y99.389 E2.05952
M106 S247.35
G1 Z2.150 F7800.000
G1 E0.05952 F2400.00000
G92 E0
G1 X96.977 Y102.129 F7800.000
G1 E2.00000 F2400.00000
G1 F900
G1 X93.971 Y102.129 E2.08108
G1 X93.971 Y93.871 E2.30384
G1 X96.977 Y93.871 E2.38492
G1 X96.977 Y102.054 E2.60565
G1 X105.023 Y102.129 F7800.000
G1 F900
G1 X105.023 Y99.071 E2.68813
G1 X106.029 Y99.071 E2.71526
G1 X106.029 Y102.129 E2.79774
G1 X105.098 Y102.129 E2.82284
G1 X104.388 Y101.436 F7800.000
G1 F3600
G1 X104.388 Y98.436 E2.90377
G1 X106.664 Y98.436 E2.96519
G1 X106.664 Y102.764 E3.08197
G1 X94.664 Y102.764 E3.40568
G1 X94.664 Y106.764 E3.51359
G1 X93.336 Y106.764 E3.54944
G1 X93.336 Y93.236 E3.91439
G1 X97.612 Y93.236 E4.02977
G1 X97.612 Y101.436 E4.25097
G1 X104.313 Y101.436 E4.43172
G1 X103.827 Y100.875 F7800.000
G1 F1800
G1 X103.827 Y97.875 E4.49355
G1 X107.225 Y97.875 E4.56359
G1 X107.225 Y103.325 E4.67591
G1 X95.225 Y103.325 E4.92324
G1 X95.225 Y107.325 E5.00568
G1 X92.775 Y107.325 E5.05618
G1 X92.775 Y92.675 E5.35812
G1 X98.173 Y92.675 E5.46937
G1 X98.173 Y100.875 E5.63838
G1 X103.752 Y100.875 E5.75336
G1 X104.301 Y101.033 F7800.000
