; generated by Slic3r 1.3.1-dev on 2018-09-19 at 00:40:02

; external perimeters extrusion width = 0.55mm (4.37mm^3/s)
; perimeters extrusion width = 0.70mm (11.44mm^3/s)
; infill extrusion width = 0.63mm (13.45mm^3/s)
; solid infill extrusion width = 0.70mm (3.81mm^3/s)
; top infill extrusion width = 0.70mm (2.86mm^3/s)

M107
M104 S200 ; set temperature
G28 ; home all axes
G1 Z5 F5000 ; lift nozzle

; Filament gcode

M109 S200 ; set temperature and wait for it to be reached
G21 ; set units to millimeters
G90 ; use absolute coordinates
M82 ; use absolute distances for extrusion
G92 E0
G92 E0
G1 Z0.350 F7800.000
G1 E-2.00000 F2400.00000
G92 E0
G1 X87.415 Y88.153 F7800.000
G1 E2.00000 F2400.00000
G1 F1800
G1 X89.168 Y86.674 E2.07096
G1 X91.320 Y85.881 E2.14192
G1 X92.500 Y85.775 E2.17858
G1 X95.500 Y85.775 E2.27140
G1 X97.595 Y86.115 E2.33707
G1 X109.595 Y90.115 E2.72845
G1 X111.612 Y91.206 E2.79941
G1 X113.137 Y92.919 E2.87037
G1 X113.986 Y95.050 E2.94134
G1 X114.125 Y96.400 E2.98333
G1 X114.125 Y102.400 E3.16898
G1 X113.728 Y104.659 E3.23994
G1 X112.556 Y106.680 E3.31223
G1 X108.154 Y111.880 E3.52304
G1 X106.392 Y113.348 E3.59400
G1 X103.098 Y114.225 E3.69947
G1 X92.500 Y114.225 E4.02739
G1 X90.241 Y113.828 E4.09835
G1 X88.253 Y112.685 E4.16931
G1 X86.774 Y110.932 E4.24027
G1 X85.981 Y108.780 E4.31124
G1 X85.875 Y107.600 E4.34789
G1 X85.875 Y92.400 E4.81820
G1 X86.272 Y90.141 E4.88916
G1 X87.378 Y88.218 E4.95780
G1 E2.95780 F2400.00000
G92 E0
G1 X101.498 Y100.800 F7800.000
G1 E2.00000 F2400.00000
G1 F1800
G1 X101.498 Y106.000 E2.16089
G1 X94.100 Y106.000 E2.38981
G1 X94.100 Y98.000 E2.63736
G1 X105.900 Y98.000 E3.00248
G1 X105.900 Y100.800 E3.08913
G1 X101.573 Y100.800 E3.22301
G1 X102.123 Y101.425 F7800.000
G1 F1800
G1 X102.123 Y106.625 E3.38391
G1 X93.475 Y106.625 E3.65149
G1 X93.475 Y93.375 E4.06147
G1 X94.525 Y93.375 E4.09397
G1 X94.525 Y97.375 E4.21773
G1 X106.525 Y97.375 E4.58903
G1 X106.525 Y101.425 E4.71435
G1 X102.198 Y101.425 E4.84823
G1 X102.748 Y102.050 F7800.000
G1 F1800
G1 X102.748 Y107.250 E5.00913
G1 X92.850 Y107.250 E5.31538
G1 X92.850 Y92.750 E5.76403
G1 X95.150 Y92.750 E5.83520
G1 X95.150 Y96.750 E5.95896
G1 X107.150 Y96.750 E6.33026
G1 X107.150 Y102.050 E6.49425
G1 X102.823 Y102.050 E6.62813
G1 X102.269 Y102.194 F7800.000
G1 E4.62813 F2400.00000
G92 E0
G1 X104.909 Y100.418 F7800.000
G1 E2.00000 F2400.00000
G1 F1800
G1 X105.518 Y99.809 E2.02781
G1 X105.518 Y98.887 E2.05753
G1 X103.987 Y100.418 E2.12737
G1 X103.066 Y100.418 E2.15709
G1 X105.103 Y98.382 E2.25001
G1 X104.182 Y98.382 E2.27974
G1 X102.145 Y100.418 E2.37266
G1 X101.223 Y100.418 E2.40238
G1 X103.260 Y98.382 E2.49530
G1 X102.339 Y98.382 E2.52502
G1 E0.52502 F2400.00000
G92 E0
G1 X94.968 Y98.382 F7800.000
G1 E2.00000 F2400.00000
G1 F1800
G1 X94.482 Y98.868 E2.02218
G1 X94.482 Y99.789 E2.05190
G1 X95.889 Y98.382 E2.11612
G1 X96.811 Y98.382 E2.14584
G1 X94.482 Y100.711 E2.25209
G1 X94.482 Y101.632 E2.28182
G1 X97.732 Y98.382 E2.43010
G1 X98.653 Y98.382 E2.45982
G1 X94.482 Y102.553 E2.65014
G1 X94.482 Y103.475 E2.67986
G1 X99.575 Y98.382 E2.91222
G1 X100.496 Y98.382 E2.94194
G1 X94.482 Y104.396 E3.21632
G1 X94.482 Y105.317 E3.24605
G1 X101.417 Y98.382 E3.56247
G1 X102.339 Y98.382 E3.59219
G1 X95.102 Y105.618 E3.92234
G1 X96.023 Y105.618 E3.95206
G1 X101.116 Y100.525 E4.18442
G1 X101.116 Y101.447 E4.21414
G1 X96.945 Y105.618 E4.40446
G1 X97.866 Y105.618 E4.43418
G1 X101.116 Y102.368 E4.58246
G1 X101.116 Y103.289 E4.61218
G1 X98.787 Y105.618 E4.71843
G1 X99.709 Y105.618 E4.74816
G1 X101.116 Y104.211 E4.81237
G1 X101.116 Y105.132 E4.84209
G1 X100.630 Y105.618 E4.86427
G1 E2.86427 F2400.00000
G92 E0
G1 X94.000 Y97.687 F7800.000
G1 E2.00000 F2400.00000
G1 F1800
G1 X94.000 Y93.687 E2.06936
G1 Z0.650 F7800.000
G1 E0.06936 F2400.00000
G92 E0
G1 X101.627 Y100.929 F7800.000
G1 E2.00000 F2400.00000
G1 F900
G1 X101.627 Y106.129 E2.14028
G1 X93.971 Y106.129 E2.34680
G1 X93.971 Y97.871 E2.56956
G1 X106.029 Y97.871 E2.89483
G1 X106.029 Y100.929 E2.97731
G1 X101.702 Y100.929 E3.09404
G1 X102.262 Y101.564 F7800.000
G1 F3600
G1 X102.262 Y106.764 E3.23431
G1 X93.336 Y106.764 E3.47513
G1 X93.336 Y93.236 E3.84009
G1 X94.664 Y93.236 E3.87593
G1 X94.664 Y97.236 E3.98384
G1 X106.664 Y97.236 E4.30756
G1 X106.664 Y101.564 E4.42433
G1 X102.337 Y101.564 E4.54106
G1 X102.823 Y102.125 F7800.000
G1 F1800
G1 X102.823 Y107.325 E4.64823
G1 X92.775 Y107.325 E4.85533
G1 X92.775 Y92.675 E5.15727
G1 X95.225 Y92.675 E5.20776
G1 X95.225 Y96.675 E5.29020
G1 X107.225 Y96.675 E5.53753
G1 X107.225 Y102.125 E5.64985
G1 X102.898 Y102.125 E5.73903
G1 X102.345 Y102.271 F7800.000
G1 X105.640 Y98.754 F7800.000
G1 F1200
G1 X105.146 Y98.260 E5.75867
G1 X104.210 Y98.260 E5.78492
G1 X105.640 Y99.690 E5.84169
G1 X105.640 Y100.540 E5.86557
G1 X105.556 Y100.540 E5.86795
G1 X103.275 Y98.260 E5.95849
G1 X102.340 Y98.260 E5.98475
G1 X104.620 Y100.540 E6.07529
G1 X103.685 Y100.540 E6.10155
G1 X101.404 Y98.260 E6.19209
G1 X100.469 Y98.260 E6.21835
G1 X102.750 Y100.540 E6.30889
G1 X101.814 Y100.540 E6.33515
G1 X99.533 Y98.260 E6.42569
G1 X98.598 Y98.260 E6.45195
G1 X101.238 Y100.900 E6.55677
G1 X101.238 Y101.835 E6.58303
G1 X97.663 Y98.260 E6.72498
G1 X96.727 Y98.260 E6.75123
G1 X101.238 Y102.771 E6.93032
G1 X101.238 Y103.706 E6.95658
G1 X95.792 Y98.260 E7.17280
G1 X94.857 Y98.260 E7.19905
G1 X101.238 Y104.641 E7.45241
G1 X101.238 Y105.577 E7.47867
G1 X94.360 Y98.698 E7.75175
G1 X94.360 Y99.633 E7.77800
G1 X100.467 Y105.740 E8.02044
G1 X99.531 Y105.740 E8.04670
G1 X94.360 Y100.569 E8.25200
G1 X94.360 Y101.504 E8.27826
G1 X98.596 Y105.740 E8.44643
G1 X97.660 Y105.740 E8.47269
G1 X94.360 Y102.440 E8.60372
G1 X94.360 Y103.375 E8.62998
G1 X96.725 Y105.740 E8.72388
G1 X95.790 Y105.740 E8.75014
G1 X94.360 Y104.310 E8.80691
G1 X94.360 Y105.246 E8.83316
G1 X94.854 Y105.740 E8.85279
G1 X94.000 Y97.553 F7800.000
G1 F1200
G1 X94.000 Y93.553 E8.95953
G1 Z0.950 F7800.000
G1 X98.962 Y106.129 F7800.000
G1 F900
G1 X93.971 Y106.129 E9.09417
G1 X93.971 Y97.871 E9.31693
G1 X98.962 Y97.871 E9.45156
G1 X98.962 Y106.054 E9.67230
G1 E7.67230 F2400.00000
G92 E0
G1 X103.038 Y100.929 F7800.000
G1 E2.00000 F2400.00000
G1 F900
G1 X103.038 Y97.871 E2.08248
G1 X106.029 Y97.871 E2.16316
G1 X106.029 Y100.929 E2.24564
G1 X103.113 Y100.929 E2.32430
G1 X102.402 Y98.564 F7800.000
G1 F3600
G1 X99.598 Y98.564 E2.39996
G1 X99.598 Y106.764 E2.62117
G1 X93.336 Y106.764 E2.79010
G1 X93.336 Y93.236 E3.15506
G1 X94.664 Y93.236 E3.19090
G1 X94.664 Y97.236 E3.29881
G1 X106.664 Y97.236 E3.62253
G1 X106.664 Y101.564 E3.73930
G1 X102.402 Y101.564 E3.85428
G1 X102.402 Y98.639 E3.93318
G1 X101.842 Y99.125 F7800.000
G1 F1800
G1 X100.158 Y99.125 E3.96788
G1 X100.158 Y107.325 E4.13689
G1 X92.775 Y107.325 E4.28906
G1 X92.775 Y92.675 E4.59100
G1 X95.225 Y92.675 E4.64149
G1 X95.225 Y96.675 E4.72393
G1 X107.225 Y96.675 E4.97126
G1 X107.225 Y102.125 E5.08359
G1 X102.823 Y102.125 E5.17431
G1 X102.823 Y107.325 E5.28148
G1 X101.842 Y107.325 E5.30171
G1 X101.842 Y99.200 E5.46917
G1 X101.822 Y98.625 F7800.000
G1 X102.720 Y97.900 F7800.000
G1 F1200
G1 X99.280 Y97.900 E5.56097
G1 X103.696 Y98.754 F7800.000
G1 F1200
G1 X103.426 Y98.754 E5.56971
G1 X103.426 Y99.024 E5.57844
G1 X104.190 Y98.260 E5.61342
G1 X105.269 Y98.260 E5.64834
G1 X103.426 Y100.102 E5.73270
G1 X103.426 Y100.540 E5.74688
G1 X104.067 Y100.540 E5.76762
G1 X105.640 Y98.967 E5.83965
G1 X105.640 Y100.046 E5.87457
G1 X105.146 Y100.540 E5.89721
G1 E3.89721 F2400.00000
G92 E0
G1 X102.332 Y101.845 F7800.000
G1 E2.00000 F2400.00000
G1 F1200
G1 X102.332 Y107.045 E2.07864
G1 E0.07864 F2400.00000
G92 E0
G1 X98.079 Y105.740 F7800.000
G1 E2.00000 F2400.00000
G1 F1200
G1 X98.574 Y105.246 E2.02043
G1 X98.574 Y104.273 E2.04885
G1 X97.106 Y105.740 E2.10948
G1 X96.133 Y105.740 E2.13791
G1 X98.574 Y103.299 E2.23873
G1 X98.574 Y102.326 E2.26716
G1 X95.159 Y105.740 E2.40819
G1 X94.360 Y105.740 E2.43155
G1 X94.360 Y105.567 E2.43661
G1 X98.574 Y101.353 E2.61067
G1 X98.574 Y100.380 E2.63910
G1 X94.360 Y104.594 E2.81316
G1 X94.360 Y103.620 E2.84159
G1 X98.574 Y99.406 E3.01565
G1 X98.574 Y98.433 E3.04407
G1 X94.360 Y102.647 E3.21813
G1 X94.360 Y101.674 E3.24656
G1 X97.774 Y98.260 E3.38759
G1 X96.801 Y98.260 E3.41601
G1 X94.360 Y100.701 E3.51684
G1 X94.360 Y99.727 E3.54527
G1 X95.827 Y98.260 E3.60589
G1 X94.854 Y98.260 E3.63432
G1 X94.360 Y98.754 E3.65474
G1 X94.000 Y97.553 F7800.000
G1 F1200
G1 X94.000 Y93.553 E3.76148
M106 S242.25
G1 Z1.250 F7800.000
G1 E1.76148 F2400.00000
G92 E0
G1 X98.087 Y97.871 F7800.000
G1 E2.00000 F2400.00000
G1 F900
G1 X98.087 Y106.129 E2.22276
G1 X93.971 Y106.129 E2.33379
G1 X93.971 Y97.871 E2.55655
G1 X98.012 Y97.871 E2.66555
G1 X103.913 Y97.871 F7800.000
G1 F900
G1 X106.029 Y97.871 E2.72262
G1 X106.029 Y100.929 E2.80510
G1 X103.913 Y100.929 E2.86218
G1 X103.913 Y97.946 E2.94264
G1 X103.277 Y98.564 F7800.000
G1 F3600
G1 X98.723 Y98.564 E3.06551
G1 X98.723 Y106.764 E3.28672
G1 X93.336 Y106.764 E3.43204
G1 X93.336 Y93.236 E3.79700
G1 X94.664 Y93.236 E3.83285
G1 X94.664 Y97.236 E3.94075
G1 X106.664 Y97.236 E4.26447
G1 X106.664 Y101.564 E4.38124
G1 X103.277 Y101.564 E4.47261
G1 X103.277 Y98.639 E4.55152
G1 X102.717 Y99.125 F7800.000
G1 F1800
G1 X99.283 Y99.125 E4.62229
G1 X99.283 Y107.325 E4.79129
G1 X92.775 Y107.325 E4.92543
G1 X92.775 Y92.675 E5.22737
G1 X95.225 Y92.675 E5.27786
G1 X95.225 Y96.675 E5.36031
G1 X107.225 Y96.675 E5.60763
G1 X107.225 Y102.125 E5.71996
G1 X102.717 Y102.125 E5.81287
G1 X102.717 Y99.200 E5.87316
G1 X102.556 Y98.652 F7800.000
G1 E3.87316 F2400.00000
G92 E0
G1 X102.770 Y102.125 F7800.000
G1 E2.00000 F2400.00000
G1 F1800
G1 X102.770 Y107.600 E2.13752
G1 E0.13752 F2400.00000
G92 E0
G1 X104.301 Y99.573 F7800.000
G1 E2.00000 F2400.00000
G1 F1200
G1 X105.269 Y100.540 E2.04430
G1 X105.640 Y100.540 E2.05632
G1 X105.640 Y99.833 E2.07922
G1 X104.301 Y98.494 E2.14051
G1 X104.301 Y98.260 E2.14810
G1 X105.146 Y98.260 E2.17543
G1 X105.640 Y98.754 E2.19807
G1 X103.595 Y97.900 F7800.000
G1 F1200
G1 X98.405 Y97.900 E2.33658
G1 X97.699 Y98.754 F7800.000
G1 F1200
G1 X97.204 Y98.260 E2.35722
G1 X96.221 Y98.260 E2.38622
G1 X97.699 Y99.737 E2.44787
G1 X97.699 Y100.720 E2.47687
G1 X95.238 Y98.260 E2.57953
G1 X94.360 Y98.260 E2.60544
G1 X94.360 Y98.364 E2.60853
G1 X97.699 Y101.703 E2.74784
G1 X97.699 Y102.686 E2.77684
G1 X94.360 Y99.348 E2.91614
G1 X94.360 Y100.331 E2.94514
G1 X97.699 Y103.669 E3.08445
G1 X97.699 Y104.652 E3.11345
G1 X94.360 Y101.314 E3.25275
G1 X94.360 Y102.297 E3.28176
G1 X97.699 Y105.636 E3.42106
G1 X97.699 Y105.740 E3.42415
G1 X96.820 Y105.740 E3.45006
G1 X94.360 Y103.280 E3.55272
G1 X94.360 Y104.263 E3.58173
G1 X95.837 Y105.740 E3.64337
G1 X94.854 Y105.740 E3.67238
G1 X94.360 Y105.246 E3.69301
G1 X94.000 Y97.553 F7800.000
G1 F1200
G1 X94.000 Y93.553 E3.79975
M106 S244.8
G1 Z1.550 F7800.000
G1 E1.79975 F2400.00000
G92 E0
G1 X97.597 Y97.871 F7800.000
G1 E2.00000 F2400.00000
G1 F900
G1 X97.597 Y106.129 E2.22276
G1 X93.971 Y106.129 E2.32058
G1 X93.971 Y97.871 E2.54334
G1 X97.522 Y97.871 E2.63913
G1 X104.403 Y97.871 F7800.000
G1 F900
G1 X106.029 Y97.871 E2.68300
G1 X106.029 Y100.929 E2.76548
G1 X104.403 Y100.929 E2.80935
G1 X104.403 Y97.946 E2.88980
G1 X103.767 Y98.564 F7800.000
G1 F3600
G1 X98.233 Y98.564 E3.03910
G1 X98.233 Y106.764 E3.26030
G1 X93.336 Y106.764 E3.39242
G1 X93.336 Y93.236 E3.75737
G1 X94.664 Y93.236 E3.79322
G1 X94.664 Y97.236 E3.90113
G1 X106.664 Y97.236 E4.22484
G1 X106.664 Y101.564 E4.34162
G1 X103.767 Y101.564 E4.41978
G1 X103.767 Y98.639 E4.49869
G1 X103.206 Y99.125 F7800.000
G1 F1800
G1 X98.794 Y99.125 E4.58964
G1 X98.794 Y107.325 E4.75864
G1 X92.775 Y107.325 E4.88269
G1 X92.775 Y92.675 E5.18463
G1 X95.225 Y92.675 E5.23512
G1 X95.225 Y96.675 E5.31756
G1 X107.225 Y96.675 E5.56489
G1 X107.225 Y102.125 E5.67721
G1 X103.206 Y102.125 E5.76004
G1 X103.206 Y99.200 E5.82032
G1 X103.054 Y98.649 F7800.000
G1 X104.085 Y97.900 F7800.000
G1 F1200
G1 X97.915 Y97.900 E5.98497
G1 X94.854 Y98.260 F7800.000
G1 F1200
G1 X94.360 Y98.754 E6.00457
G1 X94.360 Y99.688 E6.03076
G1 X95.788 Y98.260 E6.08739
G1 X96.722 Y98.260 E6.11358
G1 X94.360 Y100.622 E6.20724
G1 X94.360 Y101.556 E6.23343
G1 X97.209 Y98.707 E6.34638
G1 X97.209 Y99.641 E6.37257
G1 X94.360 Y102.491 E6.48552
G1 X94.360 Y103.425 E6.51171
G1 X97.209 Y100.575 E6.62466
G1 X97.209 Y101.509 E6.65085
G1 X94.360 Y104.359 E6.76380
G1 X94.360 Y105.293 E6.78999
G1 X97.209 Y102.444 E6.90294
G1 X97.209 Y103.378 E6.92913
G1 X94.846 Y105.740 E7.02279
G1 X95.780 Y105.740 E7.04898
G1 X97.209 Y104.312 E7.10562
G1 X97.209 Y105.246 E7.13180
G1 X96.714 Y105.740 E7.15141
G1 X94.000 Y97.553 F7800.000
G1 F1200
G1 X94.000 Y93.553 E7.25815
G1 E5.25815 F2400.00000
G92 E0
G1 X105.216 Y98.189 F7800.000
G1 E2.00000 F2400.00000
G1 F1200
G1 X105.216 Y100.611 E2.09519
G1 Z1.850 F7800.000
G1 E0.09519 F2400.00000
G92 E0
G1 X97.250 Y97.871 F7800.000
G1 E2.00000 F2400.00000
G1 F900
G1 X97.250 Y106.129 E2.22276
G1 X93.971 Y106.129 E2.31121
G1 X93.971 Y97.871 E2.53397
G1 X97.175 Y97.871 E2.62040
G1 X104.750 Y97.871 F7800.000
G1 F900
G1 X106.029 Y97.871 E2.65491
G1 X106.029 Y100.929 E2.73739
G1 X104.750 Y100.929 E2.77188
G1 X104.750 Y97.946 E2.85233
G1 X104.114 Y98.564 F7800.000
G1 F3600
G1 X97.886 Y98.564 E3.02036
G1 X97.886 Y106.764 E3.24156
G1 X93.336 Y106.764 E3.36431
G1 X93.336 Y93.236 E3.72927
G1 X94.664 Y93.236 E3.76511
G1 X94.664 Y97.236 E3.87302
G1 X106.664 Y97.236 E4.19674
G1 X106.664 Y101.564 E4.31351
G1 X104.115 Y101.564 E4.38229
G1 X104.114 Y98.639 E4.46119
G1 X103.554 Y99.125 F7800.000
G1 F1800
G1 X98.446 Y99.125 E4.56646
G1 X98.446 Y107.325 E4.73546
G1 X92.775 Y107.325 E4.85235
G1 X92.775 Y92.675 E5.15429
G1 X95.225 Y92.675 E5.20479
G1 X95.225 Y96.675 E5.28723
G1 X107.225 Y96.675 E5.53455
G1 X107.225 Y102.125 E5.64688
G1 X103.554 Y102.125 E5.72253
G1 X103.554 Y99.200 E5.78282
G1 X103.408 Y98.647 F7800.000
G1 X104.432 Y97.900 F7800.000
G1 F1200
G1 X97.568 Y97.900 E5.96598
G1 X96.862 Y98.754 F7800.000
G1 F1200
G1 X96.367 Y98.260 E5.98486
G1 X95.468 Y98.260 E6.00913
G1 X96.862 Y99.654 E6.06234
G1 X96.862 Y100.553 E6.08661
G1 X94.568 Y98.260 E6.17415
G1 X94.360 Y98.260 E6.17978
G1 X94.360 Y98.950 E6.19842
G1 X96.862 Y101.452 E6.29392
G1 X96.862 Y102.352 E6.31820
G1 X94.360 Y99.850 E6.41370
G1 X94.360 Y100.749 E6.43797
G1 X96.862 Y103.251 E6.53347
G1 X96.862 Y104.150 E6.55775
G1 X94.360 Y101.648 E6.65325
G1 X94.360 Y102.548 E6.67752
G1 X96.862 Y105.050 E6.77302
G1 X96.862 Y105.740 E6.79166
G1 X96.653 Y105.740 E6.79730
G1 X94.360 Y103.447 E6.88483
G1 X94.360 Y104.346 E6.90911
G1 X95.754 Y105.740 E6.96231
G1 X94.854 Y105.740 E6.98659
G1 X94.360 Y105.246 E7.00546
G1 X94.000 Y97.553 F7800.000
G1 F1200
G1 X94.000 Y93.553 E7.11220
G1 E5.11220 F2400.00000
G92 E0
G1 X105.389 Y98.189 F7800.000
G1 E2.00000 F2400.00000
G1 F1200
G1 X105.390 Y100.611 E2.05952
M106 S247.35
G1 Z2.150 F7800.000
G1 E0.05952 F2400.00000
G92 E0
G1 X96.977 Y97.871 F7800.000
G1 E2.00000 F2400.00000
G1 F900
G1 X96.977 Y106.129 E2.22276
G1 X93.971 Y106.129 E2.30384
G1 X93.971 Y97.871 E2.52660
G1 X96.902 Y97.871 E2.60565
G1 X105.023 Y97.871 F7800.000
G1 F900
G1 X106.029 Y97.871 E2.63278
G1 X106.029 Y100.929 E2.71526
G1 X105.023 Y100.929 E2.74238
G1 X105.023 Y97.946 E2.82284
G1 X104.388 Y98.564 F7800.000
G1 F3600
G1 X97.612 Y98.564 E3.00562
G1 X97.612 Y106.764 E3.22682
G1 X93.336 Y106.764 E3.34219
G1 X93.336 Y93.236 E3.70715
G1 X94.664 Y93.236 E3.74300
G1 X94.664 Y97.236 E3.85091
G1 X106.664 Y97.236 E4.17462
G1 X106.664 Y101.564 E4.29140
G1 X104.388 Y101.564 E4.35282
G1 X104.388 Y98.639 E4.43172
G1 X103.827 Y99.125 F7800.000
G1 F1800
G1 X98.173 Y99.125 E4.54826
G1 X98.173 Y107.325 E4.71726
G1 X92.775 Y107.325 E4.82851
G1 X92.775 Y92.675 E5.13046
G1 X95.225 Y92.675 E5.18095
G1 X95.225 Y96.675 E5.26339
G1 X107.225 Y96.675 E5.51072
G1 X107.225 Y102.125 E5.62304
G1 X103.827 Y102.125 E5.69308
G1 X103.827 Y99.200 E5.75336
G1 X103.688 Y98.645 F7800.000
G1 X104.705 Y97.900 F7800.000
G1 F1200
G1 X97.295 Y97.900 E5.95112
G1 X94.360 Y98.754 F7800.000
G1 F1200
G1 X94.854 Y98.260 E5.97146
G1 X95.823 Y98.260 E5.99963
G1 X94.360 Y99.723 E6.05981
G1 X94.360 Y100.692 E6.08798
