; generated by Slic3r 1.3.1-dev on 2018-09-19 at 00:40:03

; external perimeters extrusion width = 0.55mm (4.37mm^3/s)
; perimeters extrusion width = 0.70mm (11.44mm^3/s)
; infill extrusion width = 0.63mm (13.45mm^3/s)
; solid infill extrusion width = 0.70mm (3.81mm^3/s)
; top infill extrusion width = 0.70mm (2.86mm^3/s)

M107
M104 S200 ; set temperature
G28 ; home all axes
G1 Z5 F5000 ; lift nozzle

; Filament gcode

M109 S200 ; set temperature and wait for it to be reached
G21 ; set units to millimeters
G90 ; use absolute coordinates
M82 ; use absolute distances for extrusion
G92 E0
G92 E0
G1 Z0.350 F7800.000
G1 E-2.00000 F2400.00000
G92 E0
G1 X91.970 Y91.600 F7800.000
G1 E2.00000 F2400.00000
G1 F1800
G1 X92.485 Y91.136 E2.02146
G1 X92.892 Y90.806 E2.03765
G1 X93.453 Y90.399 E2.05911
G1 X93.892 Y90.114 E2.07530
G1 X94.492 Y89.767 E2.09675
G1 X94.959 Y89.529 E2.11295
G1 X95.592 Y89.247 E2.13440
G1 X96.081 Y89.060 E2.15060
G1 X96.740 Y88.846 E2.17205
G1 X97.246 Y88.710 E2.18826
G1 X97.924 Y88.566 E2.20970
G1 X98.441 Y88.484 E2.22590
G1 X99.131 Y88.412 E2.24735
G1 X99.654 Y88.384 E2.26356
G1 X100.347 Y88.384 E2.28500
G1 X100.869 Y88.412 E2.30120
G1 X101.559 Y88.484 E2.32265
G1 X102.076 Y88.566 E2.33884
G1 X102.754 Y88.710 E2.36030
G1 X103.260 Y88.846 E2.37649
G1 X103.919 Y89.060 E2.39795
G1 X104.408 Y89.248 E2.41416
G1 X105.041 Y89.529 E2.43560
G1 X105.508 Y89.767 E2.45179
G1 X106.108 Y90.114 E2.47325
G1 X106.547 Y90.399 E2.48944
G1 X107.108 Y90.806 E2.51090
G1 X107.515 Y91.136 E2.52709
G1 X108.030 Y91.600 E2.54855
G1 X108.400 Y91.970 E2.56474
G1 X108.864 Y92.485 E2.58620
G1 X109.194 Y92.892 E2.60239
G1 X109.601 Y93.453 E2.62385
G1 X109.886 Y93.892 E2.64004
G1 X110.233 Y94.492 E2.66150
G1 X110.471 Y94.959 E2.67769
G1 X110.753 Y95.592 E2.69914
G1 X110.940 Y96.081 E2.71534
G1 X111.154 Y96.740 E2.73679
G1 X111.290 Y97.246 E2.75299
G1 X111.434 Y97.924 E2.77444
G1 X111.516 Y98.441 E2.79064
G1 X111.588 Y99.131 E2.81209
G1 X111.616 Y99.653 E2.82829
G1 X111.616 Y100.347 E2.84974
G1 X111.588 Y100.869 E2.86594
G1 X111.516 Y101.559 E2.88739
G1 X111.434 Y102.076 E2.90359
G1 X111.290 Y102.754 E2.92504
G1 X111.154 Y103.260 E2.94123
G1 X110.940 Y103.919 E2.96269
G1 X110.753 Y104.408 E2.97889
G1 X110.471 Y105.041 E3.00034
G1 X110.233 Y105.508 E3.01653
G1 X109.886 Y106.108 E3.03799
G1 X109.601 Y106.547 E3.05418
G1 X109.194 Y107.108 E3.07564
G1 X108.864 Y107.515 E3.09183
G1 X108.400 Y108.030 E3.11329
G1 X108.030 Y108.400 E3.12948
G1 X107.515 Y108.864 E3.15094
G1 X107.108 Y109.194 E3.16713
G1 X106.547 Y109.601 E3.18859
G1 X106.108 Y109.886 E3.20478
G1 X105.508 Y110.233 E3.22624
G1 X105.041 Y110.471 E3.24243
G1 X104.408 Y110.753 E3.26389
G1 X103.919 Y110.940 E3.28008
G1 X103.260 Y111.154 E3.30153
G1 X102.754 Y111.290 E3.31774
G1 X102.076 Y111.434 E3.33918
G1 X101.559 Y111.516 E3.35539
G1 X100.869 Y111.588 E3.37683
G1 X100.347 Y111.616 E3.39303
G1 X99.653 Y111.616 E3.41448
G1 X99.131 Y111.588 E3.43068
G1 X98.441 Y111.516 E3.45213
G1 X97.924 Y111.434 E3.46833
G1 X97.246 Y111.290 E3.48978
G1 X96.740 Y111.154 E3.50597
G1 X96.081 Y110.940 E3.52743
G1 X95.592 Y110.753 E3.54363
G1 X94.959 Y110.471 E3.56508
G1 X94.492 Y110.233 E3.58127
G1 X93.892 Y109.886 E3.60273
G1 X93.453 Y109.601 E3.61893
G1 X92.892 Y109.194 E3.64038
G1 X92.485 Y108.864 E3.65657
G1 X91.970 Y108.400 E3.67803
G1 X91.600 Y108.030 E3.69422
G1 X91.136 Y107.515 E3.71568
G1 X90.806 Y107.108 E3.73187
G1 X90.399 Y106.547 E3.75333
G1 X90.114 Y106.108 E3.76952
G1 X89.767 Y105.508 E3.79098
G1 X89.529 Y105.041 E3.80717
G1 X89.247 Y104.408 E3.82863
G1 X89.065 Y103.933 E3.84435
G1 X88.846 Y103.260 E3.86627
G1 X88.710 Y102.754 E3.88248
G1 X88.566 Y102.076 E3.90392
G1 X88.484 Y101.559 E3.92012
G1 X88.412 Y100.869 E3.94157
G1 X88.384 Y100.347 E3.95777
G1 X88.384 Y99.653 E3.97922
G1 X88.412 Y99.130 E3.99543
G1 X88.484 Y98.441 E4.01687
G1 X88.566 Y97.924 E4.03308
G1 X88.710 Y97.246 E4.05452
G1 X88.846 Y96.740 E4.07071
G1 X89.060 Y96.081 E4.09217
G1 X89.248 Y95.592 E4.10838
G1 X89.529 Y94.959 E4.12982
G1 X89.767 Y94.492 E4.14602
G1 X90.114 Y93.892 E4.16747
G1 X90.399 Y93.453 E4.18366
G1 X90.806 Y92.892 E4.20512
G1 X91.136 Y92.485 E4.22131
G1 X91.600 Y91.970 E4.24277
G1 X91.917 Y91.653 E4.25664
G1 E2.25664 F2400.00000
G92 E0
G1 X102.090 Y101.754 F7800.000
G1 E2.00000 F2400.00000
G1 F1800
G1 X101.754 Y102.090 E2.01472
G1 X101.364 Y102.363 E2.02943
G1 X100.933 Y102.564 E2.04415
G1 X100.474 Y102.687 E2.05887
G1 X100.000 Y102.729 E2.07358
G1 X99.526 Y102.687 E2.08830
G1 X99.067 Y102.564 E2.10302
G1 X98.636 Y102.363 E2.11773
G1 X98.246 Y102.090 E2.13245
G1 X97.910 Y101.754 E2.14717
G1 X97.637 Y101.364 E2.16188
G1 X97.436 Y100.933 E2.17660
G1 X97.313 Y100.474 E2.19132
G1 X97.271 Y100.000 E2.20603
G1 X97.313 Y99.526 E2.22075
G1 X97.436 Y99.067 E2.23547
G1 X97.637 Y98.636 E2.25018
G1 X97.910 Y98.246 E2.26490
G1 X98.246 Y97.910 E2.27961
G1 X98.636 Y97.637 E2.29433
G1 X99.067 Y97.436 E2.30905
G1 X99.526 Y97.313 E2.32376
G1 X99.934 Y97.277 E2.33644
G1 X100.462 Y97.310 E2.35278
G1 X100.933 Y97.436 E2.36789
G1 X101.364 Y97.637 E2.38261
G1 X101.754 Y97.910 E2.39733
G1 X102.090 Y98.246 E2.41204
G1 X102.363 Y98.636 E2.42676
G1 X102.564 Y99.067 E2.44148
G1 X102.687 Y99.526 E2.45619
G1 X102.729 Y100.000 E2.47091
G1 X102.687 Y100.474 E2.48563
G1 X102.581 Y100.869 E2.49830
G1 X102.370 Y101.354 E2.51465
G1 X102.133 Y101.692 E2.52744
G1 X101.610 Y101.351 F7800.000
G1 F1800
G1 X101.351 Y101.610 E2.53877
G1 X101.051 Y101.820 E2.55010
G1 X100.719 Y101.975 E2.56144
G1 X100.365 Y102.069 E2.57277
G1 X100.000 Y102.101 E2.58410
G1 X99.635 Y102.069 E2.59544
G1 X99.281 Y101.975 E2.60677
G1 X98.949 Y101.820 E2.61810
G1 X98.649 Y101.610 E2.62944
G1 X98.390 Y101.351 E2.64077
G1 X98.180 Y101.051 E2.65210
G1 X98.025 Y100.719 E2.66344
G1 X97.931 Y100.365 E2.67477
G1 X97.899 Y100.000 E2.68610
G1 X97.931 Y99.635 E2.69744
G1 X98.025 Y99.281 E2.70877
G1 X98.180 Y98.949 E2.72010
G1 X98.390 Y98.649 E2.73144
G1 X98.649 Y98.390 E2.74277
G1 X98.949 Y98.180 E2.75410
G1 X99.281 Y98.025 E2.76544
G1 X99.635 Y97.931 E2.77677
G1 X99.942 Y97.904 E2.78631
G1 X100.360 Y97.929 E2.79928
G1 X100.719 Y98.025 E2.81075
G1 X101.051 Y98.180 E2.82208
G1 X101.351 Y98.390 E2.83342
G1 X101.610 Y98.649 E2.84475
G1 X101.820 Y98.949 E2.85608
G1 X101.975 Y99.281 E2.86742
G1 X102.069 Y99.635 E2.87875
G1 X102.101 Y100.000 E2.89008
G1 X102.069 Y100.365 E2.90142
G1 X101.990 Y100.663 E2.91096
G1 X101.822 Y101.047 E2.92392
G1 X101.653 Y101.289 E2.93308
G1 X101.610 Y101.351 F7800.000
G1 X103.100 Y102.557 F7800.000
G1 F1800
G1 X102.990 Y102.692 E2.93846
G1 X102.692 Y102.990 E2.95149
G1 X102.365 Y103.255 E2.96452
G1 X102.012 Y103.485 E2.97755
G1 X101.637 Y103.676 E2.99058
G1 X101.243 Y103.827 E3.00362
G1 X100.837 Y103.936 E3.01665
G1 X100.421 Y104.002 E3.02968
G1 X100.000 Y104.024 E3.04271
G1 X99.579 Y104.002 E3.05574
G1 X99.163 Y103.936 E3.06878
G1 X98.757 Y103.827 E3.08181
G1 X98.363 Y103.676 E3.09484
G1 X97.988 Y103.485 E3.10787
G1 X97.635 Y103.255 E3.12090
G1 X97.308 Y102.990 E3.13393
G1 X97.010 Y102.692 E3.14697
G1 X96.745 Y102.365 E3.16000
G1 X96.515 Y102.012 E3.17303
G1 X96.324 Y101.637 E3.18606
G1 X96.173 Y101.243 E3.19909
G1 X96.064 Y100.837 E3.21212
G1 X95.998 Y100.421 E3.22516
G1 X95.976 Y100.000 E3.23819
G1 X95.998 Y99.579 E3.25122
G1 X96.064 Y99.163 E3.26425
G1 X96.173 Y98.757 E3.27728
G1 X96.324 Y98.363 E3.29032
G1 X96.515 Y97.988 E3.30335
G1 X96.745 Y97.635 E3.31638
G1 X97.010 Y97.308 E3.32941
G1 X97.308 Y97.010 E3.34244
G1 X97.635 Y96.745 E3.35547
G1 X97.988 Y96.515 E3.36851
G1 X98.363 Y96.324 E3.38154
G1 X98.757 Y96.173 E3.39457
G1 X99.163 Y96.064 E3.40760
G1 X99.579 Y95.998 E3.42063
G1 X100.000 Y95.976 E3.43366
G1 X100.407 Y95.998 E3.44627
G1 X100.838 Y96.065 E3.45977
G1 X101.243 Y96.173 E3.47276
G1 X101.637 Y96.324 E3.48579
G1 X102.012 Y96.515 E3.49882
G1 X102.365 Y96.745 E3.51185
G1 X102.692 Y97.010 E3.52488
G1 X102.990 Y97.308 E3.53792
G1 X103.255 Y97.635 E3.55095
G1 X103.485 Y97.988 E3.56398
G1 X103.676 Y98.363 E3.57701
G1 X103.827 Y98.757 E3.59004
G1 X103.936 Y99.163 E3.60307
G1 X104.002 Y99.579 E3.61611
G1 X104.024 Y100.000 E3.62914
G1 X104.002 Y100.421 E3.64217
G1 X103.936 Y100.837 E3.65520
G1 X103.827 Y101.243 E3.66823
G1 X103.676 Y101.637 E3.68126
G1 X103.491 Y102.000 E3.69387
G1 X103.254 Y102.366 E3.70737
G1 X103.147 Y102.499 E3.71266
G1 X103.585 Y102.951 F7800.000
G1 F1800
G1 X103.455 Y103.111 E3.71905
G1 X103.111 Y103.455 E3.73411
G1 X102.733 Y103.762 E3.74917
G1 X102.325 Y104.027 E3.76423
G1 X101.891 Y104.248 E3.77928
G1 X101.437 Y104.422 E3.79434
G1 X100.967 Y104.548 E3.80940
G1 X100.486 Y104.624 E3.82446
G1 X100.000 Y104.650 E3.83952
G1 X99.514 Y104.624 E3.85458
G1 X99.033 Y104.548 E3.86963
G1 X98.563 Y104.422 E3.88469
G1 X98.109 Y104.248 E3.89975
G1 X97.675 Y104.027 E3.91481
G1 X97.267 Y103.762 E3.92987
G1 X96.889 Y103.455 E3.94493
G1 X96.545 Y103.111 E3.95998
G1 X96.238 Y102.733 E3.97504
G1 X95.973 Y102.325 E3.99010
G1 X95.752 Y101.891 E4.00516
G1 X95.578 Y101.437 E4.02022
G1 X95.452 Y100.967 E4.03528
G1 X95.376 Y100.486 E4.05033
G1 X95.350 Y100.000 E4.06539
G1 X95.376 Y99.514 E4.08045
G1 X95.452 Y99.033 E4.09551
G1 X95.578 Y98.563 E4.11057
G1 X95.752 Y98.109 E4.12563
G1 X95.973 Y97.675 E4.14068
G1 X96.238 Y97.267 E4.15574
G1 X96.545 Y96.889 E4.17080
G1 X96.889 Y96.545 E4.18586
G1 X97.267 Y96.238 E4.20092
G1 X97.675 Y95.973 E4.21598
G1 X98.109 Y95.752 E4.23103
G1 X98.563 Y95.578 E4.24609
G1 X99.033 Y95.452 E4.26115
G1 X99.514 Y95.376 E4.27621
G1 X100.000 Y95.350 E4.29127
G1 X100.471 Y95.375 E4.30587
G1 X100.967 Y95.452 E4.32140
G1 X101.437 Y95.578 E4.33644
G1 X101.891 Y95.752 E4.35150
G1 X102.325 Y95.973 E4.36656
G1 X102.733 Y96.238 E4.38161
G1 X103.111 Y96.545 E4.39667
G1 X103.455 Y96.889 E4.41173
G1 X103.762 Y97.267 E4.42679
G1 X104.027 Y97.675 E4.44185
G1 X104.248 Y98.109 E4.45691
G1 X104.422 Y98.563 E4.47196
G1 X104.548 Y99.033 E4.48702
G1 X104.624 Y99.514 E4.50208
G1 X104.650 Y100.000 E4.51714
G1 X104.624 Y100.486 E4.53220
G1 X104.548 Y100.967 E4.54726
G1 X104.422 Y101.437 E4.56231
G1 X104.248 Y101.891 E4.57737
G1 X104.033 Y102.312 E4.59198
G1 X103.761 Y102.733 E4.60750
G1 X103.633 Y102.892 E4.61383
G1 X103.381 Y102.923 F7800.000
G1 X102.603 Y102.146 F7800.000
G1 F1800
G1 X102.191 Y102.566 E4.63110
G1 X101.688 Y102.924 E4.64923
G1 X101.371 Y103.079 E4.65960
G1 X101.042 Y103.208 E4.66996
G1 X100.614 Y103.318 E4.68293
G1 X100.352 Y103.352 E4.69070
G1 X100.000 Y103.376 E4.70107
G1 X99.648 Y103.352 E4.71144
G1 X99.386 Y103.318 E4.71920
G1 X98.958 Y103.208 E4.73217
G1 X98.629 Y103.079 E4.74254
G1 X98.312 Y102.924 E4.75291
G1 X97.809 Y102.566 E4.77104
G1 X97.434 Y102.191 E4.78661
G1 X97.076 Y101.688 E4.80474
G1 X96.921 Y101.371 E4.81511
G1 X96.792 Y101.042 E4.82547
G1 X96.682 Y100.614 E4.83844
G1 X96.648 Y100.352 E4.84621
G1 X96.624 Y100.000 E4.85658
G1 X96.648 Y99.648 E4.86695
G1 X96.682 Y99.386 E4.87471
G1 X96.792 Y98.958 E4.88769
G1 X96.921 Y98.629 E4.89805
G1 X97.076 Y98.312 E4.90842
G1 X97.397 Y97.854 E4.92485
G1 X97.809 Y97.434 E4.94212
G1 X98.312 Y97.076 E4.96024
G1 X98.629 Y96.921 E4.97062
G1 X98.958 Y96.792 E4.98098
G1 X99.386 Y96.682 E4.99395
G1 X99.648 Y96.648 E5.00172
G1 X99.951 Y96.628 E5.01063
G1 X100.339 Y96.648 E5.02206
G1 X100.598 Y96.679 E5.02971
G1 X101.042 Y96.792 E5.04317
G1 X101.371 Y96.921 E5.05354
G1 X101.688 Y97.076 E5.06391
G1 X102.146 Y97.397 E5.08034
G1 X102.566 Y97.809 E5.09761
G1 X102.924 Y98.312 E5.11573
G1 X103.079 Y98.629 E5.12610
G1 X103.208 Y98.958 E5.13647
G1 X103.318 Y99.386 E5.14944
G1 X103.352 Y99.648 E5.15720
G1 X103.376 Y100.000 E5.16758
G1 X103.352 Y100.352 E5.17795
G1 X103.318 Y100.614 E5.18571
G1 X103.208 Y101.042 E5.19868
G1 X102.931 Y101.677 E5.21903
G1 X102.648 Y102.086 E5.23363
G1 Z0.650 F7800.000
G1 X101.983 Y101.664 F7800.000
G1 F900
G1 X101.664 Y101.983 E5.24580
G1 X101.294 Y102.242 E5.25798
G1 X100.885 Y102.433 E5.27015
G1 X100.450 Y102.549 E5.28232
G1 X100.000 Y102.589 E5.29450
G1 X99.550 Y102.549 E5.30667
G1 X99.115 Y102.433 E5.31884
G1 X98.706 Y102.242 E5.33102
G1 X98.336 Y101.983 E5.34319
G1 X98.017 Y101.664 E5.35536
G1 X97.758 Y101.294 E5.36754
G1 X97.567 Y100.885 E5.37971
G1 X97.451 Y100.450 E5.39188
G1 X97.411 Y100.000 E5.40406
G1 X97.451 Y99.550 E5.41623
G1 X97.567 Y99.115 E5.42841
G1 X97.758 Y98.706 E5.44058
G1 X98.017 Y98.336 E5.45275
G1 X98.336 Y98.017 E5.46493
G1 X98.706 Y97.758 E5.47710
G1 X99.115 Y97.567 E5.48927
G1 X99.550 Y97.451 E5.50145
G1 X100.000 Y97.411 E5.51362
G1 X100.450 Y97.451 E5.52579
G1 X100.885 Y97.567 E5.53797
G1 X101.294 Y97.758 E5.55014
G1 X101.664 Y98.017 E5.56231
G1 X101.983 Y98.336 E5.57449
G1 X102.242 Y98.706 E5.58666
G1 X102.433 Y99.115 E5.59883
G1 X102.549 Y99.550 E5.61101
G1 X102.589 Y100.000 E5.62318
G1 X102.549 Y100.450 E5.63535
G1 X102.433 Y100.885 E5.64753
G1 X102.242 Y101.294 E5.65970
G1 X102.026 Y101.603 E5.66985
G1 X101.552 Y101.302 F7800.000
G1 F900
G1 X101.302 Y101.552 E5.67713
G1 X101.013 Y101.755 E5.68441
G1 X100.693 Y101.904 E5.69169
G1 X100.352 Y101.995 E5.69897
G1 X100.000 Y102.026 E5.70624
G1 X99.648 Y101.995 E5.71352
G1 X99.307 Y101.904 E5.72080
G1 X98.987 Y101.755 E5.72808
G1 X98.698 Y101.552 E5.73536
G1 X98.448 Y101.302 E5.74264
G1 X98.245 Y101.013 E5.74992
G1 X98.096 Y100.693 E5.75720
G1 X98.005 Y100.352 E5.76447
G1 X97.974 Y100.000 E5.77175
G1 X98.005 Y99.648 E5.77903
G1 X98.096 Y99.307 E5.78631
G1 X98.245 Y98.987 E5.79359
G1 X98.448 Y98.698 E5.80087
G1 X98.698 Y98.448 E5.80815
G1 X98.987 Y98.245 E5.81543
G1 X99.307 Y98.096 E5.82271
G1 X99.648 Y98.005 E5.82998
G1 X100.000 Y97.974 E5.83726
G1 X100.352 Y98.005 E5.84454
G1 X100.693 Y98.096 E5.85182
G1 X101.013 Y98.245 E5.85910
G1 X101.302 Y98.448 E5.86638
G1 X101.552 Y98.698 E5.87366
G1 X101.755 Y98.987 E5.88094
G1 X101.904 Y99.307 E5.88821
G1 X101.995 Y99.648 E5.89549
G1 X102.026 Y100.000 E5.90277
G1 X101.995 Y100.352 E5.91005
G1 X101.904 Y100.693 E5.91733
G1 X101.755 Y101.013 E5.92461
G1 X101.595 Y101.241 E5.93034
G1 X101.552 Y101.302 F7800.000
G1 X103.209 Y102.644 F7800.000
G1 F900
G1 X103.094 Y102.786 E5.93527
G1 X102.786 Y103.094 E5.94702
G1 X102.447 Y103.368 E5.95878
G1 X102.082 Y103.605 E5.97053
G1 X101.693 Y103.803 E5.98229
G1 X101.287 Y103.959 E5.99404
G1 X100.866 Y104.072 E6.00580
G1 X100.435 Y104.140 E6.01756
G1 X100.000 Y104.163 E6.02931
G1 X99.565 Y104.140 E6.04107
G1 X99.134 Y104.072 E6.05282
G1 X98.713 Y103.959 E6.06458
G1 X98.307 Y103.803 E6.07633
G1 X97.918 Y103.605 E6.08809
G1 X97.553 Y103.368 E6.09985
G1 X97.214 Y103.094 E6.11160
G1 X96.906 Y102.786 E6.12336
G1 X96.632 Y102.447 E6.13511
G1 X96.395 Y102.082 E6.14687
G1 X96.197 Y101.693 E6.15862
G1 X96.041 Y101.287 E6.17038
G1 X95.928 Y100.866 E6.18213
G1 X95.860 Y100.435 E6.19389
G1 X95.837 Y100.000 E6.20565
G1 X95.860 Y99.565 E6.21740
G1 X95.928 Y99.134 E6.22916
G1 X96.041 Y98.713 E6.24091
G1 X96.197 Y98.307 E6.25267
G1 X96.395 Y97.918 E6.26442
G1 X96.632 Y97.553 E6.27618
G1 X96.906 Y97.214 E6.28794
G1 X97.214 Y96.906 E6.29969
G1 X97.553 Y96.632 E6.31145
G1 X97.918 Y96.395 E6.32320
G1 X98.307 Y96.197 E6.33496
G1 X98.713 Y96.041 E6.34671
G1 X99.134 Y95.928 E6.35847
G1 X99.565 Y95.860 E6.37023
G1 X100.000 Y95.837 E6.38198
G1 X100.395 Y95.857 E6.39265
G1 X100.869 Y95.929 E6.40558
G1 X101.287 Y96.041 E6.41724
G1 X101.693 Y96.197 E6.42900
G1 X102.082 Y96.395 E6.44075
G1 X102.447 Y96.632 E6.45251
G1 X102.786 Y96.906 E6.46426
G1 X103.094 Y97.214 E6.47602
G1 X103.368 Y97.553 E6.48778
G1 X103.605 Y97.918 E6.49953
G1 X103.803 Y98.307 E6.51129
G1 X103.959 Y98.713 E6.52304
G1 X104.072 Y99.134 E6.53480
G1 X104.140 Y99.565 E6.54655
G1 X104.163 Y100.000 E6.55831
G1 X104.140 Y100.435 E6.57007
G1 X104.072 Y100.866 E6.58182
G1 X103.959 Y101.287 E6.59358
G1 X103.803 Y101.693 E6.60533
G1 X103.637 Y102.020 E6.61523
G1 X103.365 Y102.451 E6.62898
G1 X103.256 Y102.586 E6.63364
G1 X103.644 Y102.997 F7800.000
G1 F900
G1 X103.511 Y103.161 E6.63801
G1 X103.161 Y103.511 E6.64820
G1 X102.777 Y103.822 E6.65840
G1 X102.362 Y104.092 E6.66859
G1 X101.922 Y104.316 E6.67878
G1 X101.460 Y104.493 E6.68897
G1 X100.982 Y104.621 E6.69917
G1 X100.494 Y104.699 E6.70936
G1 X100.000 Y104.725 E6.71955
G1 X99.506 Y104.699 E6.72974
