; generated by Slic3r 1.3.1-dev on 2018-09-19 at 00:03:01

; external perimeters extrusion width = 0.55mm (4.37mm^3/s)
; perimeters extrusion width = 0.70mm (11.44mm^3/s)
; infill extrusion width = 0.63mm (13.45mm^3/s)
; solid infill extrusion width = 0.70mm (3.81mm^3/s)
; top infill extrusion width = 0.70mm (2.86mm^3/s)

M107
M104 S200 ; set temperature
G28 ; home all axes
G1 Z5 F5000 ; lift nozzle

; Filament gcode

M109 S200 ; set temperature and wait for it to be reached
G21 ; set units to millimeters
G90 ; use absolute coordinates
M82 ; use absolute distances for extrusion
G92 E0
G92 E0
G1 Z0.350 F7800.000
G1 E-2.00000 F2400.00000
G92 E0
G1 X82.151 Y88.937 F7800.000
G1 E2.00000 F2400.00000
G1 F1800
G1 X82.746 Y88.427 E2.02424
G1 X83.585 Y87.816 E2.05636
G1 X84.253 Y87.405 E2.08060
G1 X85.176 Y86.933 E2.11271
G1 X85.900 Y86.632 E2.13695
G1 X86.886 Y86.309 E2.16907
G1 X87.648 Y86.125 E2.19331
G1 X89.191 Y85.938 E2.24141
G1 X114.984 Y85.875 E3.03947
G1 X117.244 Y86.267 E3.11043
G1 X119.234 Y87.405 E3.18140
G1 X120.718 Y89.154 E3.25236
G1 X121.516 Y91.304 E3.32332
G1 X121.625 Y92.500 E3.36047
G1 X121.625 Y107.500 E3.82459
G1 X121.228 Y109.759 E3.89555
G1 X120.085 Y111.747 E3.96652
G1 X118.332 Y113.226 E4.03748
G1 X116.180 Y114.019 E4.10844
G1 X115.000 Y114.125 E4.14509
G1 X102.762 Y114.125 E4.52376
G1 X89.176 Y114.062 E4.94411
G1 X87.648 Y113.875 E4.99176
G1 X86.886 Y113.691 E5.01600
G1 X85.900 Y113.368 E5.04812
G1 X85.208 Y113.081 E5.07130
G1 X84.252 Y112.595 E5.10447
G1 X83.585 Y112.184 E5.12871
G1 X82.746 Y111.573 E5.16083
G1 X82.151 Y111.063 E5.18507
G1 X81.418 Y110.328 E5.21719
G1 X80.910 Y109.732 E5.24142
G1 X80.301 Y108.892 E5.27354
G1 X79.892 Y108.224 E5.29778
G1 X79.421 Y107.298 E5.32990
G1 X79.122 Y106.574 E5.35414
G1 X78.802 Y105.587 E5.38626
G1 X78.627 Y104.859 E5.40943
G1 X78.457 Y103.800 E5.44261
G1 X78.375 Y102.500 E5.48291
G1 X78.375 Y97.500 E5.63762
G1 X78.457 Y96.200 E5.67792
G1 X78.619 Y95.175 E5.71004
G1 X78.802 Y94.413 E5.73429
G1 X79.122 Y93.426 E5.76639
G1 X79.421 Y92.702 E5.79063
G1 X79.892 Y91.776 E5.82275
G1 X80.301 Y91.108 E5.84699
G1 X80.910 Y90.268 E5.87911
G1 X81.418 Y89.672 E5.90335
G1 X82.098 Y88.990 E5.93314
G1 E3.93314 F2400.00000
G92 E0
G1 X98.189 Y102.609 F7800.000
G1 E2.00000 F2400.00000
G1 F1800
G1 X97.703 Y102.950 E2.01837
G1 X97.165 Y103.200 E2.03674
G1 X96.591 Y103.354 E2.05511
G1 X96.000 Y103.406 E2.07348
G1 X95.409 Y103.354 E2.09185
G1 X94.835 Y103.200 E2.11022
G1 X94.297 Y102.950 E2.12858
G1 X93.811 Y102.609 E2.14695
G1 X93.391 Y102.189 E2.16532
G1 X93.050 Y101.703 E2.18369
G1 X92.800 Y101.165 E2.20206
G1 X92.646 Y100.591 E2.22043
G1 X92.594 Y100.000 E2.23880
G1 X92.646 Y99.409 E2.25717
G1 X92.800 Y98.835 E2.27554
G1 X93.050 Y98.297 E2.29391
G1 X93.391 Y97.811 E2.31228
G1 X93.811 Y97.391 E2.33065
G1 X94.297 Y97.050 E2.34902
G1 X94.835 Y96.800 E2.36739
G1 X95.409 Y96.646 E2.38576
G1 X95.925 Y96.601 E2.40178
G1 X96.571 Y96.640 E2.42183
G1 X97.165 Y96.800 E2.44085
G1 X97.703 Y97.050 E2.45922
G1 X98.189 Y97.391 E2.47758
G1 X98.609 Y97.811 E2.49595
G1 X98.950 Y98.297 E2.51432
G1 X99.200 Y98.835 E2.53269
G1 X99.354 Y99.409 E2.55106
G1 X99.406 Y100.000 E2.56943
G1 X99.354 Y100.591 E2.58780
G1 X99.200 Y101.165 E2.60617
G1 X98.950 Y101.703 E2.62454
G1 X98.609 Y102.189 E2.64291
G1 X98.242 Y102.556 E2.65896
G1 X97.786 Y102.129 F7800.000
G1 F1800
G1 X97.389 Y102.406 E2.67395
G1 X96.950 Y102.611 E2.68893
G1 X96.482 Y102.736 E2.70392
G1 X96.000 Y102.779 E2.71890
G1 X95.518 Y102.736 E2.73389
G1 X95.050 Y102.611 E2.74888
G1 X94.611 Y102.406 E2.76386
G1 X94.214 Y102.129 E2.77885
G1 X93.871 Y101.786 E2.79383
G1 X93.594 Y101.389 E2.80882
G1 X93.389 Y100.950 E2.82381
G1 X93.264 Y100.482 E2.83879
G1 X93.221 Y100.000 E2.85378
G1 X93.264 Y99.518 E2.86877
G1 X93.389 Y99.050 E2.88375
G1 X93.594 Y98.611 E2.89874
G1 X93.871 Y98.214 E2.91372
G1 X94.214 Y97.871 E2.92871
G1 X94.611 Y97.594 E2.94370
G1 X95.050 Y97.389 E2.95868
G1 X95.517 Y97.264 E2.97367
G1 X95.933 Y97.227 E2.98656
G1 X96.470 Y97.260 E3.00323
G1 X96.950 Y97.389 E3.01861
G1 X97.389 Y97.594 E3.03359
G1 X97.786 Y97.871 E3.04858
G1 X98.129 Y98.214 E3.06357
G1 X98.406 Y98.611 E3.07855
G1 X98.611 Y99.050 E3.09354
G1 X98.736 Y99.518 E3.10853
G1 X98.779 Y100.000 E3.12351
G1 X98.736 Y100.482 E3.13850
G1 X98.611 Y100.950 E3.15348
G1 X98.406 Y101.389 E3.16847
G1 X98.129 Y101.786 E3.18346
G1 X97.839 Y102.076 E3.19612
G1 X97.383 Y101.648 F7800.000
G1 F1800
G1 X97.076 Y101.863 E3.20773
G1 X96.736 Y102.022 E3.21933
G1 X96.374 Y102.119 E3.23093
G1 X96.000 Y102.151 E3.24253
G1 X95.626 Y102.119 E3.25414
G1 X95.264 Y102.022 E3.26574
G1 X94.924 Y101.863 E3.27734
G1 X94.617 Y101.648 E3.28895
G1 X94.352 Y101.383 E3.30055
G1 X94.137 Y101.076 E3.31215
G1 X93.978 Y100.736 E3.32376
G1 X93.881 Y100.374 E3.33536
G1 X93.849 Y100.000 E3.34696
G1 X93.881 Y99.626 E3.35857
G1 X93.978 Y99.264 E3.37017
G1 X94.137 Y98.924 E3.38177
G1 X94.352 Y98.617 E3.39337
G1 X94.617 Y98.352 E3.40498
G1 X94.924 Y98.137 E3.41658
G1 X95.264 Y97.978 E3.42818
G1 X95.626 Y97.881 E3.43979
G1 X95.941 Y97.854 E3.44955
G1 X96.369 Y97.880 E3.46283
G1 X96.736 Y97.978 E3.47457
G1 X97.076 Y98.137 E3.48618
G1 X97.383 Y98.352 E3.49778
G1 X97.648 Y98.617 E3.50938
G1 X97.863 Y98.924 E3.52099
G1 X98.022 Y99.264 E3.53259
G1 X98.119 Y99.626 E3.54419
G1 X98.151 Y100.000 E3.55580
G1 X98.119 Y100.374 E3.56740
G1 X98.022 Y100.736 E3.57900
G1 X97.863 Y101.076 E3.59061
G1 X97.648 Y101.383 E3.60221
G1 X97.436 Y101.595 E3.61149
G1 X97.383 Y101.648 F7800.000
G1 E1.61149 F2400.00000
G92 E0
G1 X104.393 Y103.837 F7800.000
G1 E2.00000 F2400.00000
G1 F1800
G1 X87.607 Y103.837 E2.51935
G1 X87.607 Y104.911 E2.55258
G1 X87.251 Y104.493 E2.56958
G1 X86.989 Y104.064 E2.58514
G1 X86.769 Y103.543 E2.60265
G1 X86.646 Y103.030 E2.61895
G1 X86.600 Y102.437 E2.63735
G1 X86.600 Y97.563 E2.78818
G1 X86.646 Y96.970 E2.80658
G1 X86.770 Y96.452 E2.82305
G1 X86.974 Y95.961 E2.83951
G1 X87.251 Y95.507 E2.85597
G1 X87.596 Y95.102 E2.87243
G1 X87.978 Y94.775 E2.88799
G1 X88.458 Y94.475 E2.90550
G1 X88.945 Y94.273 E2.92179
G1 X89.400 Y94.163 E2.93630
G1 X113.400 Y94.104 E3.67889
G1 X113.400 Y105.900 E4.04389
G1 X104.393 Y105.900 E4.32260
G1 X104.393 Y103.912 E4.38412
G1 X103.768 Y104.462 F7800.000
G1 F1800
G1 X88.232 Y104.462 E4.86480
G1 X88.232 Y106.120 E4.91611
G1 X87.631 Y105.751 E4.93795
G1 X87.153 Y105.341 E4.95745
G1 X86.744 Y104.861 E4.97695
G1 X86.431 Y104.350 E4.99548
G1 X86.173 Y103.738 E5.01603
G1 X86.027 Y103.128 E5.03543
G1 X85.975 Y102.462 E5.05612
G1 X85.975 Y97.538 E5.20846
G1 X86.027 Y96.872 E5.22914
G1 X86.174 Y96.259 E5.24864
G1 X86.415 Y95.677 E5.26814
G1 X86.744 Y95.139 E5.28764
G1 X87.153 Y94.659 E5.30714
G1 X87.608 Y94.270 E5.32567
G1 X88.171 Y93.918 E5.34622
G1 X88.750 Y93.677 E5.36562
G1 X89.325 Y93.538 E5.38393
G1 X114.025 Y93.477 E6.14819
G1 X114.025 Y106.525 E6.55191
G1 X103.768 Y106.525 E6.86929
G1 X103.768 Y104.537 E6.93080
G1 X103.143 Y105.087 F7800.000
G1 F1800
G1 X88.857 Y105.087 E7.37281
G1 X88.857 Y106.992 E7.43176
G1 X88.555 Y106.919 E7.44138
G1 X87.883 Y106.639 E7.46392
G1 X87.262 Y106.257 E7.48646
G1 X86.709 Y105.783 E7.50900
G1 X86.236 Y105.229 E7.53154
G1 X85.874 Y104.636 E7.55305
G1 X85.578 Y103.933 E7.57663
G1 X85.408 Y103.226 E7.59914
G1 X85.350 Y102.486 E7.62210
G1 X85.350 Y97.514 E7.77596
G1 X85.408 Y96.774 E7.79892
G1 X85.578 Y96.066 E7.82146
G1 X85.856 Y95.392 E7.84400
G1 X86.236 Y94.771 E7.86653
G1 X86.709 Y94.217 E7.88907
G1 X87.237 Y93.764 E7.91058
G1 X87.884 Y93.361 E7.93417
G1 X88.555 Y93.081 E7.95667
G1 X89.249 Y92.913 E7.97878
G1 X114.650 Y92.851 E8.76471
G1 X114.650 Y107.150 E9.20714
G1 X103.143 Y107.150 E9.56319
G1 X103.143 Y105.162 E9.62471
G1 X102.919 Y104.640 F7800.000
G1 E7.62471 F2400.00000
G92 E0
G1 X98.054 Y103.132 F7800.000
G1 E2.00000 F2400.00000
G1 F1800
G1 X97.705 Y103.399 E2.00083
G1 F1800
G1 X97.526 Y103.525 E2.00225
G1 E0.00225 F2400.00000
G92 E0
G1 X94.474 Y103.525 F7800.000
G1 E2.00000 F2400.00000
G1 F1800
G1 X94.116 Y103.274 E2.00283
G1 F1800
G1 X93.946 Y103.132 E2.00327
G1 X92.502 Y103.455 F7800.000
G1 F1800
G1 X93.381 Y102.577 E2.04172
G1 X93.153 Y102.349 E2.05166
G1 X92.977 Y102.097 E2.06120
G1 X91.618 Y103.455 E2.12063
G1 X90.735 Y103.455 E2.14798
G1 X92.644 Y101.546 E2.23153
G1 X92.453 Y101.136 E2.24550
G1 X92.393 Y100.913 E2.25267
G1 X89.851 Y103.455 E2.36392
G1 X88.967 Y103.455 E2.39126
G1 X92.247 Y100.176 E2.53476
G1 X92.210 Y99.757 E2.54777
G1 X92.251 Y99.288 E2.56235
G1 X88.083 Y103.455 E2.74471
G1 X87.200 Y103.455 E2.77206
G1 E0.77206 F2400.00000
G92 E0
G1 X87.798 Y95.787 F7800.000
G1 E2.00000 F2400.00000
G1 F1800
G1 X88.284 Y95.301 E2.02127
G1 X88.592 Y95.037 E2.03381
G1 X88.989 Y94.789 E2.04828
G1 X89.383 Y94.626 E2.06148
G1 X89.719 Y94.544 E2.07218
G1 X89.925 Y94.544 E2.07856
G1 X87.011 Y97.458 E2.20607
G1 X86.982 Y97.830 E2.21764
G1 X86.982 Y98.371 E2.23436
G1 X90.811 Y94.542 E2.40192
G1 X91.697 Y94.539 E2.42933
G1 X86.982 Y99.254 E2.63566
G1 X86.982 Y100.138 E2.66300
G1 X92.583 Y94.537 E2.90809
G1 X93.469 Y94.535 E2.93550
G1 X86.982 Y101.022 E3.21936
G1 X86.982 Y101.906 E3.24670
G1 X94.354 Y94.533 E3.56932
G1 X95.240 Y94.531 E3.59673
G1 X86.991 Y102.780 E3.95769
G1 X87.022 Y103.175 E3.96998
G1 X87.089 Y103.455 E3.97888
G1 X87.200 Y103.455 E3.98228
G1 X92.121 Y98.534 E4.19762
G1 X92.264 Y98.226 E4.20812
G1 X92.667 Y97.651 E4.22988
G1 X93.165 Y97.153 E4.25163
G1 X93.740 Y96.750 E4.27338
G1 X94.048 Y96.607 E4.28388
G1 X96.126 Y94.528 E4.37482
G1 X97.012 Y94.526 E4.40224
G1 X95.288 Y96.251 E4.47770
G1 X95.673 Y96.217 E4.48969
G1 X96.174 Y96.248 E4.50521
G1 X97.898 Y94.524 E4.58064
G1 X98.784 Y94.522 E4.60806
G1 X96.913 Y96.393 E4.68994
G1 X97.136 Y96.453 E4.69710
G1 X97.546 Y96.644 E4.71107
G1 X99.670 Y94.520 E4.80402
G1 X100.556 Y94.518 E4.83144
G1 X98.097 Y96.977 E4.93903
G1 X98.349 Y97.153 E4.94857
G1 X98.577 Y97.381 E4.95852
G1 X101.442 Y94.515 E5.08389
G1 X102.328 Y94.513 E5.11130
G1 X98.988 Y97.853 E5.25743
G1 X99.250 Y98.226 E5.27154
G1 X99.329 Y98.396 E5.27733
G1 X103.214 Y94.511 E5.44732
G1 X104.099 Y94.509 E5.47473
G1 X99.589 Y99.020 E5.67211
G1 X99.729 Y99.543 E5.68886
G1 X99.747 Y99.746 E5.69516
G1 X104.985 Y94.507 E5.92440
G1 X105.871 Y94.505 E5.95181
G1 X99.757 Y100.619 E6.21935
G1 X99.729 Y100.943 E6.22944
G1 X99.547 Y101.622 E6.25119
G1 X99.468 Y101.792 E6.25696
G1 X106.757 Y94.502 E6.57592
G1 X107.643 Y94.500 E6.60333
G1 X98.691 Y103.452 E6.99505
G1 X99.572 Y103.455 E7.02230
G1 X108.529 Y94.498 E7.41425
G1 X109.415 Y94.496 E7.44166
G1 X100.456 Y103.455 E7.83370
G1 X101.339 Y103.455 E7.86104
G1 X110.301 Y94.494 E8.25317
G1 X111.187 Y94.492 E8.28059
G1 X102.223 Y103.455 E8.67281
G1 X103.107 Y103.455 E8.70016
G1 X112.073 Y94.489 E9.09248
G1 X112.959 Y94.487 E9.11989
G1 X103.991 Y103.455 E9.51231
G1 X104.774 Y103.455 E9.53656
G1 X104.774 Y103.555 E9.53965
G1 X113.018 Y95.311 E9.90040
G1 X113.018 Y96.195 E9.92774
G1 X104.774 Y104.439 E10.28848
G1 X104.774 Y105.323 E10.31583
G1 X113.018 Y97.079 E10.67657
G1 X113.018 Y97.962 E10.70391
G1 X105.462 Y105.518 E11.03455
G1 X106.346 Y105.518 E11.06190
G1 X113.018 Y98.846 E11.35387
G1 X113.018 Y99.730 E11.38121
G1 X107.230 Y105.518 E11.63451
G1 X108.114 Y105.518 E11.66185
G1 X113.018 Y100.614 E11.87648
G1 X113.018 Y101.497 E11.90382
G1 X108.997 Y105.518 E12.07978
G1 X109.881 Y105.518 E12.10712
G1 X113.018 Y102.381 E12.24441
G1 X113.018 Y103.265 E12.27175
G1 X110.765 Y105.518 E12.37037
G1 X111.648 Y105.518 E12.39771
G1 X113.018 Y104.148 E12.45766
G1 X113.018 Y105.032 E12.48500
G1 X112.532 Y105.518 E12.50628
G1 Z0.650 F7800.000
G1 X98.634 Y101.930 F7800.000
G1 F900
G1 X98.510 Y102.106 E12.51210
G1 X98.106 Y102.510 E12.52751
G1 X97.638 Y102.838 E12.54292
G1 X97.121 Y103.079 E12.55832
G1 X96.569 Y103.227 E12.57373
G1 X96.000 Y103.277 E12.58914
G1 X95.431 Y103.227 E12.60455
G1 X94.879 Y103.079 E12.61996
G1 X94.362 Y102.838 E12.63537
G1 X93.894 Y102.510 E12.65078
G1 X93.490 Y102.106 E12.66619
G1 X93.162 Y101.638 E12.68159
G1 X92.921 Y101.121 E12.69700
G1 X92.773 Y100.569 E12.71241
G1 X92.723 Y100.000 E12.72782
G1 X92.773 Y99.431 E12.74323
G1 X92.921 Y98.879 E12.75864
G1 X93.162 Y98.362 E12.77405
G1 X93.490 Y97.894 E12.78946
G1 X93.894 Y97.490 E12.80487
G1 X94.362 Y97.162 E12.82027
G1 X94.879 Y96.921 E12.83568
G1 X95.431 Y96.773 E12.85109
G1 X96.000 Y96.723 E12.86650
G1 X96.569 Y96.773 E12.88191
G1 X97.121 Y96.921 E12.89732
G1 X97.638 Y97.162 E12.91273
G1 X98.106 Y97.490 E12.92814
G1 X98.510 Y97.894 E12.94354
G1 X98.838 Y98.362 E12.95895
G1 X99.079 Y98.879 E12.97436
G1 X99.227 Y99.431 E12.98977
G1 X99.277 Y100.000 E13.00518
G1 X99.227 Y100.569 E13.02059
G1 X99.079 Y101.121 E13.03600
G1 X98.838 Y101.638 E13.05141
G1 X98.677 Y101.868 E13.05897
G1 X98.113 Y101.565 F7800.000
G1 F900
G1 X98.021 Y101.696 E13.06329
G1 X97.696 Y102.021 E13.07570
G1 X97.319 Y102.285 E13.08811
G1 X96.903 Y102.480 E13.10052
G1 X96.458 Y102.599 E13.11293
G1 X96.000 Y102.639 E13.12534
G1 X95.542 Y102.599 E13.13774
G1 X95.097 Y102.480 E13.15015
G1 X94.681 Y102.285 E13.16256
G1 X94.304 Y102.021 E13.17497
G1 X93.979 Y101.696 E13.18738
G1 X93.715 Y101.319 E13.19979
G1 X93.520 Y100.903 E13.21219
G1 X93.401 Y100.458 E13.22460
G1 X93.361 Y100.000 E13.23701
G1 X93.401 Y99.542 E13.24942
G1 X93.520 Y99.097 E13.26183
G1 X93.715 Y98.681 E13.27424
G1 X93.979 Y98.304 E13.28665
G1 X94.304 Y97.979 E13.29905
G1 X94.681 Y97.715 E13.31146
G1 X95.097 Y97.520 E13.32387
G1 X95.542 Y97.401 E13.33628
G1 X96.000 Y97.361 E13.34869
G1 X96.458 Y97.401 E13.36110
G1 X96.903 Y97.520 E13.37351
G1 X97.319 Y97.715 E13.38591
G1 X97.696 Y97.979 E13.39832
G1 X98.021 Y98.304 E13.41073
G1 X98.285 Y98.681 E13.42314
G1 X98.480 Y99.097 E13.43555
G1 X98.599 Y99.542 E13.44796
G1 X98.639 Y100.000 E13.46037
G1 X98.599 Y100.458 E13.47277
G1 X98.480 Y100.903 E13.48518
G1 X98.285 Y101.319 E13.49759
G1 X98.156 Y101.504 E13.50366
G1 X97.654 Y101.243 F7800.000
G1 F900
G1 X97.590 Y101.334 E13.50595
G1 X97.334 Y101.590 E13.51340
G1 X97.038 Y101.798 E13.52086
G1 X96.710 Y101.951 E13.52832
G1 X96.360 Y102.045 E13.53578
G1 X96.000 Y102.076 E13.54324
G1 X95.639 Y102.045 E13.55070
G1 X95.290 Y101.951 E13.55816
G1 X94.962 Y101.798 E13.56561
G1 X94.666 Y101.590 E13.57307
G1 X94.410 Y101.334 E13.58053
G1 X94.202 Y101.038 E13.58799
G1 X94.049 Y100.710 E13.59545
G1 X93.955 Y100.361 E13.60291
G1 X93.924 Y100.000 E13.61036
G1 X93.955 Y99.639 E13.61782
G1 X94.049 Y99.290 E13.62528
G1 X94.202 Y98.962 E13.63274
G1 X94.410 Y98.666 E13.64020
G1 X94.666 Y98.410 E13.64766
G1 X94.962 Y98.202 E13.65512
G1 X95.290 Y98.049 E13.66257
G1 X95.639 Y97.955 E13.67003
G1 X96.000 Y97.924 E13.67749
G1 X96.360 Y97.955 E13.68495
G1 X96.710 Y98.049 E13.69241
G1 X97.038 Y98.202 E13.69987
G1 X97.334 Y98.410 E13.70732
G1 X97.590 Y98.666 E13.71478
G1 X97.798 Y98.962 E13.72224
G1 X97.951 Y99.290 E13.72970
G1 X98.045 Y99.639 E13.73716
G1 X98.076 Y100.000 E13.74462
G1 X98.045 Y100.361 E13.75208
G1 X97.951 Y100.710 E13.75953
G1 X97.798 Y101.038 E13.76699
G1 X97.697 Y101.182 E13.77062
G1 X97.704 Y101.342 F7800.000
G1 X104.264 Y103.966 F7800.000
G1 F3600
G1 X87.736 Y103.966 E14.21648
G1 X87.736 Y105.260 E14.25141
G1 X87.147 Y104.569 E14.27591
G1 X86.859 Y104.098 E14.29080
G1 X86.648 Y103.587 E14.30570
G1 X86.519 Y103.050 E14.32060
G1 X86.471 Y102.442 E14.33705
G1 X86.471 Y97.558 E14.46882
G1 X86.519 Y96.950 E14.48528
G1 X86.648 Y96.413 E14.50018
G1 X86.859 Y95.902 E14.51507
G1 X87.147 Y95.431 E14.52997
G1 X87.505 Y95.011 E14.54486
G1 X87.924 Y94.652 E14.55976
G1 X88.395 Y94.363 E14.57466
G1 X88.905 Y94.150 E14.58955
G1 X89.385 Y94.034 E14.60288
G1 X113.529 Y93.975 E15.25420
G1 X113.529 Y106.029 E15.57938
G1 X104.264 Y106.029 E15.82931
G1 X104.264 Y104.041 E15.88294
G1 X103.628 Y104.601 F7800.000
G1 F3600
G1 X88.372 Y104.601 E16.29452
G1 X88.372 Y106.369 E16.34222
G1 X87.549 Y105.863 E16.36827
G1 X87.054 Y105.439 E16.38586
G1 X86.631 Y104.943 E16.40345
G1 X86.290 Y104.387 E16.42104
G1 X86.041 Y103.784 E16.43863
G1 X85.889 Y103.150 E16.45622
G1 X85.836 Y102.467 E16.47470
G1 X85.836 Y97.533 E16.60782
G1 X85.889 Y96.850 E16.62629
G1 X86.041 Y96.216 E16.64389
G1 X86.290 Y95.613 E16.66148
G1 X86.631 Y95.057 E16.67907
