; generated by Slic3r 1.3.1-dev on 2018-09-19 at 00:03:00

; external perimeters extrusion width = 0.55mm (4.37mm^3/s)
; perimeters extrusion width = 0.70mm (11.44mm^3/s)
; infill extrusion width = 0.63mm (13.45mm^3/s)
; solid infill extrusion width = 0.70mm (3.81mm^3/s)
; top infill extrusion width = 0.70mm (2.86mm^3/s)

M107
M104 S200 ; set temperature
G28 ; home all axes
G1 Z5 F5000 ; lift nozzle

; Filament gcode

M109 S200 ; set temperature and wait for it to be reached
G21 ; set units to millimeters
G90 ; use absolute coordinates
M82 ; use absolute distances for extrusion
G92 E0
G92 E0
G1 Z0.350 F7800.000
G1 E-2.00000 F2400.00000
G92 E0
G1 X82.151 Y88.937 F7800.000
G1 E2.00000 F2400.00000
G1 F1800
G1 X82.746 Y88.427 E2.02424
G1 X83.585 Y87.816 E2.05636
G1 X84.252 Y87.405 E2.08060
G1 X85.177 Y86.933 E2.11272
G1 X85.900 Y86.632 E2.13696
G1 X86.886 Y86.309 E2.16907
G1 X87.648 Y86.124 E2.19332
G1 X89.191 Y85.938 E2.24141
G1 X114.984 Y85.875 E3.03947
G1 X117.244 Y86.267 E3.11044
G1 X119.234 Y87.405 E3.18140
G1 X120.718 Y89.154 E3.25236
G1 X121.516 Y91.304 E3.32332
G1 X121.625 Y92.500 E3.36047
G1 X121.625 Y107.500 E3.82459
G1 X121.228 Y109.759 E3.89556
G1 X120.085 Y111.747 E3.96652
G1 X118.332 Y113.226 E4.03748
G1 X116.180 Y114.019 E4.10844
G1 X115.000 Y114.125 E4.14509
G1 X102.762 Y114.125 E4.52376
G1 X89.176 Y114.062 E4.94411
G1 X87.648 Y113.875 E4.99176
G1 X86.886 Y113.691 E5.01601
G1 X85.900 Y113.368 E5.04812
G1 X85.177 Y113.067 E5.07236
G1 X84.252 Y112.595 E5.10448
G1 X83.585 Y112.184 E5.12872
G1 X82.746 Y111.573 E5.16083
G1 X82.151 Y111.063 E5.18507
G1 X81.418 Y110.328 E5.21719
G1 X80.910 Y109.732 E5.24143
G1 X80.301 Y108.892 E5.27355
G1 X79.892 Y108.223 E5.29779
G1 X79.421 Y107.298 E5.32990
G1 X79.122 Y106.574 E5.35415
G1 X78.802 Y105.587 E5.38626
G1 X78.619 Y104.825 E5.41050
G1 X78.457 Y103.800 E5.44262
G1 X78.375 Y102.500 E5.48292
G1 X78.375 Y97.500 E5.63763
G1 X78.457 Y96.200 E5.67793
G1 X78.619 Y95.175 E5.71005
G1 X78.802 Y94.413 E5.73429
G1 X79.122 Y93.426 E5.76640
G1 X79.421 Y92.701 E5.79065
G1 X79.892 Y91.776 E5.82276
G1 X80.301 Y91.108 E5.84700
G1 X80.910 Y90.268 E5.87912
G1 X81.418 Y89.671 E5.90336
G1 X82.098 Y88.990 E5.93315
G1 E3.93315 F2400.00000
G92 E0
G1 X98.315 Y102.759 F7800.000
G1 E2.00000 F2400.00000
G1 F1800
G1 X97.801 Y103.119 E2.01942
G1 X97.232 Y103.384 E2.03885
G1 X96.625 Y103.547 E2.05827
G1 X96.000 Y103.601 E2.07769
G1 X95.375 Y103.547 E2.09712
G1 X94.768 Y103.384 E2.11654
G1 X94.199 Y103.119 E2.13597
G1 X93.685 Y102.759 E2.15539
G1 X93.241 Y102.315 E2.17481
G1 X92.881 Y101.801 E2.19424
G1 X92.616 Y101.232 E2.21366
G1 X92.453 Y100.625 E2.23308
G1 X92.399 Y100.000 E2.25251
G1 X92.453 Y99.375 E2.27193
G1 X92.616 Y98.768 E2.29135
G1 X92.881 Y98.199 E2.31078
G1 X93.241 Y97.685 E2.33020
G1 X93.685 Y97.241 E2.34962
G1 X94.199 Y96.881 E2.36905
G1 X94.768 Y96.616 E2.38847
G1 X95.375 Y96.453 E2.40789
G1 X95.965 Y96.402 E2.42624
G1 X96.624 Y96.453 E2.44667
G1 X97.232 Y96.616 E2.46615
G1 X97.801 Y96.881 E2.48557
G1 X98.315 Y97.241 E2.50500
G1 X98.759 Y97.685 E2.52442
G1 X99.119 Y98.199 E2.54384
G1 X99.384 Y98.768 E2.56327
G1 X99.547 Y99.375 E2.58269
G1 X99.601 Y100.000 E2.60212
G1 X99.547 Y100.625 E2.62154
G1 X99.384 Y101.232 E2.64096
G1 X99.119 Y101.801 E2.66039
G1 X98.759 Y102.315 E2.67981
G1 X98.368 Y102.706 E2.69691
G1 X98.315 Y102.759 F7800.000
G1 E0.69691 F2400.00000
G92 E0
G1 X104.393 Y103.837 F7800.000
G1 E2.00000 F2400.00000
G1 F1800
G1 X99.004 Y103.837 E2.16672
G1 X99.720 Y103.121 E2.19804
G1 X100.205 Y102.428 E2.22423
G1 X100.563 Y101.661 E2.25042
G1 X100.782 Y100.843 E2.27661
G1 X100.856 Y100.000 E2.30280
G1 X100.782 Y99.157 E2.32899
G1 X100.563 Y98.339 E2.35518
G1 X100.205 Y97.572 E2.38137
G1 X99.720 Y96.879 E2.40756
G1 X99.121 Y96.280 E2.43375
G1 X98.428 Y95.795 E2.45994
G1 X97.661 Y95.437 E2.48613
G1 X96.836 Y95.216 E2.51256
G1 X95.959 Y95.148 E2.53975
G1 X95.157 Y95.218 E2.56468
G1 X94.339 Y95.437 E2.59087
G1 X93.572 Y95.795 E2.61706
G1 X92.879 Y96.280 E2.64325
G1 X92.280 Y96.879 E2.66944
G1 X91.795 Y97.572 E2.69563
G1 X91.437 Y98.339 E2.72182
G1 X91.218 Y99.157 E2.74801
G1 X91.144 Y100.000 E2.77420
G1 X91.218 Y100.843 E2.80039
G1 X91.437 Y101.661 E2.82658
G1 X91.795 Y102.428 E2.85277
G1 X92.280 Y103.121 E2.87896
G1 X92.996 Y103.837 E2.91028
G1 X87.607 Y103.837 E3.07700
G1 X87.607 Y104.911 E3.11024
G1 X87.251 Y104.493 E3.12723
G1 X86.974 Y104.039 E3.14369
G1 X86.770 Y103.548 E3.16015
G1 X86.646 Y103.030 E3.17661
G1 X86.600 Y102.437 E3.19502
G1 X86.600 Y97.563 E3.34584
G1 X86.646 Y96.970 E3.36425
G1 X86.770 Y96.452 E3.38071
G1 X86.974 Y95.961 E3.39717
G1 X87.251 Y95.507 E3.41363
G1 X87.596 Y95.102 E3.43009
G1 X88.000 Y94.756 E3.44655
G1 X88.454 Y94.477 E3.46301
G1 X88.945 Y94.273 E3.47947
G1 X89.400 Y94.163 E3.49397
G1 X113.400 Y94.104 E4.23657
G1 X113.400 Y105.900 E4.60157
G1 X104.393 Y105.900 E4.88028
G1 X104.393 Y103.912 E4.94180
G1 X103.768 Y104.462 F7800.000
G1 F1800
G1 X96.884 Y104.462 E5.15480
G1 X96.841 Y104.136 E5.16497
G1 X97.446 Y103.974 E5.18437
G1 X98.114 Y103.662 E5.20718
G1 X98.718 Y103.239 E5.22998
G1 X99.239 Y102.718 E5.25279
G1 X99.662 Y102.114 E5.27560
G1 X99.974 Y101.446 E5.29840
G1 X100.164 Y100.734 E5.32121
G1 X100.229 Y100.000 E5.34402
G1 X100.164 Y99.266 E5.36682
G1 X99.974 Y98.554 E5.38963
G1 X99.662 Y97.886 E5.41244
G1 X99.239 Y97.282 E5.43524
G1 X98.718 Y96.761 E5.45805
G1 X98.114 Y96.338 E5.48086
G1 X97.446 Y96.026 E5.50366
G1 X96.730 Y95.834 E5.52662
G1 X95.962 Y95.775 E5.55043
G1 X95.266 Y95.836 E5.57207
G1 X94.554 Y96.026 E5.59488
G1 X93.886 Y96.338 E5.61768
G1 X93.282 Y96.761 E5.64049
G1 X92.761 Y97.282 E5.66330
G1 X92.338 Y97.886 E5.68610
G1 X92.026 Y98.554 E5.70891
G1 X91.836 Y99.266 E5.73172
G1 X91.771 Y100.000 E5.75452
G1 X91.836 Y100.734 E5.77733
G1 X92.026 Y101.446 E5.80014
G1 X92.338 Y102.114 E5.82294
G1 X92.761 Y102.718 E5.84575
G1 X93.282 Y103.239 E5.86856
G1 X93.886 Y103.662 E5.89136
G1 X94.554 Y103.974 E5.91417
G1 X95.159 Y104.136 E5.93357
G1 X95.116 Y104.462 E5.94374
G1 X88.232 Y104.462 E6.15675
G1 X88.232 Y106.120 E6.20806
G1 X87.658 Y105.767 E6.22893
G1 X87.150 Y105.338 E6.24948
G1 X86.744 Y104.861 E6.26888
G1 X86.415 Y104.323 E6.28838
G1 X86.174 Y103.741 E6.30788
G1 X86.027 Y103.128 E6.32738
G1 X85.975 Y102.462 E6.34806
G1 X85.975 Y97.538 E6.50040
G1 X86.027 Y96.872 E6.52109
G1 X86.174 Y96.259 E6.54059
G1 X86.415 Y95.677 E6.56009
G1 X86.744 Y95.139 E6.57958
G1 X87.153 Y94.659 E6.59908
G1 X87.631 Y94.249 E6.61858
G1 X88.168 Y93.919 E6.63808
G1 X88.750 Y93.677 E6.65758
G1 X89.325 Y93.538 E6.67589
G1 X114.025 Y93.477 E7.44015
G1 X114.025 Y106.525 E7.84386
G1 X103.768 Y106.525 E8.16124
G1 X103.768 Y104.537 E8.22276
G1 X103.143 Y105.087 F7800.000
G1 F1800
G1 X88.857 Y105.087 E8.66477
G1 X88.857 Y106.992 E8.72372
G1 X88.555 Y106.919 E8.73334
G1 X87.883 Y106.639 E8.75588
G1 X87.290 Y106.275 E8.77739
G1 X86.708 Y105.782 E8.80098
G1 X86.236 Y105.229 E8.82348
G1 X85.856 Y104.608 E8.84602
G1 X85.578 Y103.934 E8.86856
G1 X85.408 Y103.226 E8.89109
G1 X85.350 Y102.486 E8.91406
G1 X85.350 Y97.514 E9.06792
G1 X85.408 Y96.774 E9.09088
G1 X85.578 Y96.065 E9.11342
G1 X85.856 Y95.392 E9.13595
G1 X86.236 Y94.771 E9.15849
G1 X86.709 Y94.217 E9.18103
G1 X87.262 Y93.743 E9.20357
G1 X87.883 Y93.361 E9.22611
G1 X88.555 Y93.081 E9.24864
G1 X89.249 Y92.913 E9.27075
G1 X114.650 Y92.851 E10.05668
G1 X114.650 Y107.150 E10.49911
G1 X103.143 Y107.150 E10.85516
G1 X103.143 Y105.162 E10.91668
G1 X102.919 Y104.640 F7800.000
G1 E8.91668 F2400.00000
G92 E0
G1 X98.583 Y103.762 F7800.000
G1 E2.00000 F2400.00000
G1 F1800
G1 X98.301 Y103.998 E2.00066
G1 F1800
G1 X98.085 Y104.149 E2.00202
G1 E0.00202 F2400.00000
G92 E0
G1 X93.915 Y104.149 F7800.000
G1 E2.00000 F2400.00000
G1 F1800
G1 X93.553 Y103.876 E2.00234
G1 F1800
G1 X93.417 Y103.762 E2.00265
G1 E0.00265 F2400.00000
G92 E0
G1 X91.338 Y103.455 F7800.000
G1 E2.00000 F2400.00000
G1 F1800
G1 X91.824 Y102.969 E2.02248
G1 X91.494 Y102.499 E2.04126
G1 X91.452 Y102.407 E2.04456
G1 X90.404 Y103.455 E2.09303
G1 X89.470 Y103.455 E2.12358
G1 X91.155 Y101.770 E2.20150
G1 X91.091 Y101.632 E2.20648
G1 X90.936 Y101.055 E2.22602
G1 X88.536 Y103.455 E2.33702
G1 X87.602 Y103.455 E2.36756
G1 X90.803 Y100.254 E2.51562
G1 X90.760 Y99.757 E2.53192
G1 X90.798 Y99.325 E2.54610
G1 X87.017 Y103.106 E2.72094
G1 X86.982 Y102.656 E2.73570
G1 X86.982 Y102.207 E2.75037
G1 X91.011 Y98.178 E2.93673
G1 X91.091 Y97.882 E2.94675
G1 X91.494 Y97.015 E2.97800
G1 X92.043 Y96.232 E3.00926
G1 X92.719 Y95.557 E3.04051
G1 X93.501 Y95.008 E3.07177
G1 X93.576 Y94.974 E3.07446
G1 X93.541 Y94.713 E3.08304
G1 X86.982 Y101.273 E3.38641
G1 X86.982 Y100.339 E3.41695
G1 X92.784 Y94.537 E3.68530
G1 X91.848 Y94.539 E3.71592
G1 X86.982 Y99.405 E3.94097
G1 X86.982 Y98.471 E3.97152
G1 X90.912 Y94.541 E4.15327
G1 X89.975 Y94.544 E4.18388
G1 X87.007 Y97.512 E4.32118
G1 X87.022 Y97.311 E4.32780
G1 X87.124 Y96.889 E4.34198
G1 X87.289 Y96.488 E4.35616
G1 X87.516 Y96.118 E4.37035
G1 X87.796 Y95.789 E4.38449
G1 X88.284 Y95.301 E4.40706
G1 E2.40706 F2400.00000
G92 E0
G1 X93.913 Y94.839 F7800.000
G1 E2.00000 F2400.00000
G1 F1800
G1 X94.139 Y94.809 E2.00665
G1 F1800
G1 X94.591 Y94.749 E2.01807
G1 F1800
G1 X95.043 Y94.689 E2.02761
G1 F1800
G1 X95.942 Y94.647 E2.04266
G1 X96.439 Y94.664 E2.05100
G1 F1800
G1 X96.906 Y94.682 E2.06082
G1 X97.170 Y94.714 E2.06640
G1 F1800
G1 X97.615 Y94.772 E2.07766
G1 F1800
G1 X98.059 Y94.830 E2.09075
G1 X98.455 Y95.008 F7800.000
G1 F1800
G1 X98.941 Y94.522 E2.11267
G1 X99.854 Y94.519 E2.14178
G1 X98.722 Y95.651 E2.19281
G1 X99.258 Y96.026 E2.21366
G1 X100.767 Y94.517 E2.28170
G1 X101.680 Y94.515 E2.31081
G1 X99.717 Y96.478 E2.39932
G1 X99.957 Y96.719 E2.41017
G1 X100.134 Y96.971 E2.42000
G1 X102.593 Y94.513 E2.53086
G1 X103.506 Y94.510 E2.55997
G1 X100.508 Y97.508 E2.69511
G1 X100.798 Y98.129 E2.71696
G1 X104.418 Y94.508 E2.88021
G1 X105.331 Y94.506 E2.90932
G1 X101.028 Y98.809 E3.10337
G1 X101.157 Y99.291 E3.11927
G1 X101.181 Y99.567 E3.12810
G1 X106.244 Y94.504 E3.35641
G1 X107.157 Y94.501 E3.38552
G1 X101.223 Y100.435 E3.65308
G1 X101.157 Y101.195 E3.67741
G1 X101.077 Y101.492 E3.68720
G1 X108.070 Y94.499 E4.00252
G1 X108.983 Y94.497 E4.03162
G1 X100.514 Y102.965 E4.41348
G1 X100.176 Y103.455 E4.43246
G1 X100.935 Y103.455 E4.45667
G1 X109.896 Y94.495 E4.86071
G1 X110.809 Y94.492 E4.88982
G1 X101.846 Y103.455 E5.29396
G1 X102.757 Y103.455 E5.32299
G1 X111.722 Y94.490 E5.72723
G1 X112.635 Y94.488 E5.75634
G1 X103.667 Y103.455 E6.16068
G1 X104.578 Y103.455 E6.18972
G1 X113.018 Y95.015 E6.57030
G1 X113.018 Y95.926 E6.59934
G1 X104.774 Y104.170 E6.97107
G1 X104.774 Y105.080 E7.00011
G1 X113.018 Y96.836 E7.37184
G1 X113.018 Y97.747 E7.40088
G1 X105.247 Y105.518 E7.75131
G1 X106.158 Y105.518 E7.78035
G1 X113.018 Y98.658 E8.08971
G1 X113.018 Y99.568 E8.11875
G1 X107.068 Y105.518 E8.38705
G1 X107.979 Y105.518 E8.41609
G1 X113.018 Y100.479 E8.64333
G1 X113.018 Y101.390 E8.67236
G1 X108.890 Y105.518 E8.85854
G1 X109.800 Y105.518 E8.88757
G1 X113.018 Y102.300 E9.03269
G1 X113.018 Y103.211 E9.06172
G1 X110.711 Y105.518 E9.16577
G1 X111.622 Y105.518 E9.19481
G1 X113.018 Y104.122 E9.25780
G1 X113.018 Y105.032 E9.28683
G1 X112.532 Y105.518 E9.30876
G1 Z0.650 F7800.000
G1 X99.296 Y102.394 F7800.000
G1 F900
G1 X99.132 Y102.628 E9.31648
G1 X98.628 Y103.132 E9.33571
G1 X98.044 Y103.541 E9.35493
G1 X97.398 Y103.842 E9.37416
G1 X96.710 Y104.027 E9.39339
G1 X96.000 Y104.089 E9.41262
G1 X95.290 Y104.027 E9.43184
G1 X94.602 Y103.842 E9.45107
G1 X93.956 Y103.541 E9.47030
G1 X93.372 Y103.132 E9.48952
G1 X92.868 Y102.628 E9.50875
G1 X92.459 Y102.044 E9.52798
G1 X92.158 Y101.398 E9.54720
G1 X91.973 Y100.710 E9.56643
G1 X91.911 Y100.000 E9.58566
G1 X91.973 Y99.290 E9.60488
G1 X92.158 Y98.602 E9.62411
G1 X92.459 Y97.956 E9.64334
G1 X92.868 Y97.372 E9.66257
G1 X93.372 Y96.868 E9.68179
G1 X93.956 Y96.459 E9.70102
G1 X94.602 Y96.158 E9.72025
G1 X95.290 Y95.973 E9.73947
G1 X95.833 Y95.926 E9.75418
G1 X96.000 Y95.911 E9.75870
G1 X96.710 Y95.973 E9.77793
G1 X97.398 Y96.158 E9.79715
G1 X98.044 Y96.459 E9.81638
G1 X98.628 Y96.868 E9.83561
G1 X99.132 Y97.372 E9.85483
G1 X99.541 Y97.956 E9.87406
G1 X99.842 Y98.602 E9.89329
G1 X100.027 Y99.290 E9.91251
G1 X100.089 Y100.000 E9.93174
G1 X100.027 Y100.710 E9.95097
G1 X99.842 Y101.398 E9.97020
G1 X99.541 Y102.044 E9.98942
G1 X99.339 Y102.332 E9.99890
G1 X98.837 Y102.072 F7800.000
G1 F900
G1 X98.701 Y102.267 E10.00379
G1 X98.266 Y102.701 E10.01646
G1 X97.763 Y103.054 E10.02913
G1 X97.206 Y103.313 E10.04179
G1 X96.612 Y103.472 E10.05446
G1 X96.000 Y103.526 E10.06713
G1 X95.388 Y103.472 E10.07980
G1 X94.794 Y103.313 E10.09247
G1 X94.237 Y103.054 E10.10513
G1 X93.733 Y102.701 E10.11780
G1 X93.299 Y102.267 E10.13047
G1 X92.946 Y101.763 E10.14314
G1 X92.687 Y101.206 E10.15580
G1 X92.528 Y100.612 E10.16847
G1 X92.474 Y100.000 E10.18114
G1 X92.528 Y99.388 E10.19381
G1 X92.687 Y98.794 E10.20648
G1 X92.946 Y98.237 E10.21914
G1 X93.299 Y97.733 E10.23181
G1 X93.733 Y97.299 E10.24448
G1 X94.237 Y96.946 E10.25715
G1 X94.794 Y96.687 E10.26981
G1 X95.388 Y96.528 E10.28248
G1 X95.882 Y96.484 E10.29271
G1 X96.000 Y96.474 E10.29515
G1 X96.612 Y96.528 E10.30782
G1 X97.206 Y96.687 E10.32049
G1 X97.763 Y96.946 E10.33315
G1 X98.267 Y97.299 E10.34582
G1 X98.701 Y97.733 E10.35849
G1 X99.054 Y98.237 E10.37116
G1 X99.313 Y98.794 E10.38382
G1 X99.472 Y99.388 E10.39649
G1 X99.526 Y100.000 E10.40916
G1 X99.472 Y100.612 E10.42183
G1 X99.313 Y101.206 E10.43450
G1 X99.054 Y101.763 E10.44716
G1 X98.880 Y102.011 E10.45339
G1 X98.945 Y102.283 F7800.000
G1 X104.264 Y103.966 F7800.000
G1 F3600
G1 X99.011 Y103.966 E10.59509
G1 X98.927 Y103.699 E10.60264
G1 X99.038 Y103.621 E10.60630
G1 X99.621 Y103.038 E10.62852
G1 X100.094 Y102.363 E10.65075
G1 X100.442 Y101.617 E10.67298
G1 X100.655 Y100.821 E10.69521
G1 X100.727 Y100.000 E10.71743
G1 X100.655 Y99.179 E10.73966
G1 X100.442 Y98.383 E10.76189
G1 X100.094 Y97.637 E10.78411
G1 X99.621 Y96.962 E10.80634
G1 X99.038 Y96.379 E10.82857
G1 X98.363 Y95.906 E10.85080
G1 X97.617 Y95.558 E10.87302
G1 X96.821 Y95.345 E10.89525
G1 X96.000 Y95.273 E10.91748
G1 X95.179 Y95.345 E10.93971
G1 X94.383 Y95.558 E10.96193
G1 X93.637 Y95.906 E10.98416
G1 X92.962 Y96.379 E11.00639
G1 X92.379 Y96.962 E11.02861
G1 X91.906 Y97.637 E11.05084
G1 X91.558 Y98.383 E11.07307
G1 X91.345 Y99.179 E11.09530
G1 X91.273 Y100.000 E11.11752
G1 X91.345 Y100.821 E11.13975
G1 X91.558 Y101.617 E11.16198
G1 X91.906 Y102.363 E11.18420
G1 X92.379 Y103.038 E11.20643
G1 X92.962 Y103.621 E11.22866
G1 X93.073 Y103.699 E11.23232
G1 X92.989 Y103.966 E11.23986
G1 X87.736 Y103.966 E11.38156
G1 X87.736 Y105.260 E11.41649
G1 X87.147 Y104.569 E11.44099
G1 X86.859 Y104.098 E11.45589
G1 X86.648 Y103.587 E11.47078
G1 X86.519 Y103.050 E11.48568
G1 X86.471 Y102.442 E11.50213
G1 X86.471 Y97.558 E11.63390
G1 X86.519 Y96.950 E11.65036
G1 X86.648 Y96.413 E11.66526
G1 X86.859 Y95.902 E11.68015
G1 X87.147 Y95.431 E11.69505
G1 X87.505 Y95.011 E11.70994
G1 X87.924 Y94.652 E11.72484
G1 X88.395 Y94.363 E11.73974
G1 X88.905 Y94.150 E11.75463
G1 X89.385 Y94.034 E11.76796
G1 X113.529 Y93.975 E12.41928
G1 X113.529 Y106.029 E12.74446
G1 X104.264 Y106.029 E12.99439
G1 X104.264 Y104.041 E13.04802
G1 X103.628 Y104.601 F7800.000
G1 F3600
G1 X88.372 Y104.601 E13.45960
G1 X88.372 Y106.369 E13.50730
G1 X87.549 Y105.863 E13.53335
G1 X87.054 Y105.439 E13.55094
G1 X86.631 Y104.943 E13.56853
G1 X86.290 Y104.387 E13.58612
G1 X86.041 Y103.784 E13.60372
G1 X85.889 Y103.150 E13.62131
G1 X85.836 Y102.467 E13.63978
G1 X85.836 Y97.533 E13.77290
G1 X85.889 Y96.850 E13.79138
G1 X86.041 Y96.216 E13.80897
G1 X86.290 Y95.613 E13.82656
G1 X86.631 Y95.057 E13.84415
G1 X87.054 Y94.561 E13.86174
G1 X87.549 Y94.137 E13.87933
G1 X88.104 Y93.795 E13.89692
G1 X88.706 Y93.544 E13.91451
G1 X89.308 Y93.399 E13.93121
G1 X114.164 Y93.338 E14.60175
G1 X114.164 Y106.664 E14.96126
G1 X103.628 Y106.664 E15.24548
G1 X103.628 Y104.676 E15.29912
G1 X103.068 Y105.162 F7800.000
G1 F1800
G1 X88.932 Y105.162 E15.59046
G1 X88.932 Y107.087 E15.63014
G1 X88.532 Y106.990 E15.63864
G1 X87.848 Y106.706 E15.65389
G1 X87.218 Y106.318 E15.66915
