; generated by Slic3r 1.3.1-dev on 2018-09-19 at 00:02:57

; external perimeters extrusion width = 0.55mm (4.37mm^3/s)
; perimeters extrusion width = 0.70mm (11.44mm^3/s)
; infill extrusion width = 0.63mm (13.45mm^3/s)
; solid infill extrusion width = 0.70mm (3.81mm^3/s)
; top infill extrusion width = 0.70mm (2.86mm^3/s)

M107
M104 S200 ; set temperature
G28 ; home all axes
G1 Z5 F5000 ; lift nozzle

; Filament gcode

M109 S200 ; set temperature and wait for it to be reached
G21 ; set units to millimeters
G90 ; use absolute coordinates
M82 ; use absolute distances for extrusion
G92 E0
G92 E0
G1 Z0.350 F7800.000
G1 E-2.00000 F2400.00000
G92 E0
G1 X86.121 Y87.102 F7800.000
G1 E2.00000 F2400.00000
G1 F1800
G1 X86.746 Y86.548 E2.02582
G1 X88.152 Y85.558 E2.07906
G1 X88.495 Y85.351 E2.09145
G1 X88.952 Y85.116 E2.10733
G1 X90.215 Y84.532 E2.15040
G1 X90.695 Y84.353 E2.16626
G1 X91.071 Y84.240 E2.17839
G1 X92.159 Y83.949 E2.21323
G1 X92.639 Y83.840 E2.22848
G1 X93.299 Y83.748 E2.24908
G1 X94.424 Y83.650 E2.28402
G1 X95.000 Y83.625 E2.30187
G1 X105.000 Y83.625 E2.61128
G1 X105.585 Y83.651 E2.62941
G1 X106.702 Y83.748 E2.66408
G1 X107.280 Y83.825 E2.68215
G1 X107.848 Y83.951 E2.70012
G1 X109.214 Y84.324 E2.74396
G1 X109.972 Y84.614 E2.76905
G1 X111.052 Y85.118 E2.80594
G1 X111.658 Y85.440 E2.82716
G1 X112.981 Y86.346 E2.87679
G1 X113.514 Y86.762 E2.89772
G1 X113.880 Y87.103 E2.91319
G1 X114.668 Y87.891 E2.94766
G1 X115.167 Y88.451 E2.97088
G1 X115.372 Y88.722 E2.98139
G1 X123.383 Y99.888 E3.40659
G1 X124.377 Y101.955 E3.47755
G1 X124.625 Y103.750 E3.53363
G1 X124.625 Y109.750 E3.71928
G1 X124.228 Y112.009 E3.79024
G1 X123.085 Y113.997 E3.86120
G1 X121.332 Y115.476 E3.93216
G1 X119.180 Y116.269 E4.00312
G1 X118.000 Y116.375 E4.03978
G1 X82.000 Y116.375 E5.15366
G1 X79.741 Y115.978 E5.22463
G1 X77.753 Y114.835 E5.29559
G1 X76.274 Y113.082 E5.36655
G1 X75.481 Y110.930 E5.43751
G1 X75.375 Y109.750 E5.47416
G1 X75.375 Y103.750 E5.65981
G1 X75.772 Y101.491 E5.73077
G1 X76.617 Y99.888 E5.78685
G1 X84.628 Y88.722 E6.21204
G1 X85.129 Y88.105 E6.23665
G1 X86.068 Y87.155 E6.27798
G1 E4.27798 F2400.00000
G92 E0
G1 X109.900 Y100.350 F7800.000
G1 E2.00000 F2400.00000
G1 F1800
G1 X112.337 Y100.350 E2.07541
G1 X116.400 Y104.413 E2.25319
G1 X116.400 Y108.150 E2.36883
G1 X109.100 Y108.150 E2.59472
G1 X109.100 Y100.180 E2.84132
G1 X108.968 Y98.669 E2.88827
G1 X108.557 Y97.136 E2.93738
G1 X107.885 Y95.695 E2.98657
G1 X106.975 Y94.396 E3.03563
G1 X105.848 Y93.271 E3.08490
G1 X104.553 Y92.364 E3.13383
G1 X104.081 Y92.144 E3.14994
G1 X104.146 Y91.850 E3.15925
G1 X104.938 Y91.850 E3.18375
G1 X105.846 Y91.930 E3.21196
G1 X106.668 Y92.149 E3.23828
G1 X107.448 Y92.512 E3.26489
G1 X108.146 Y93.001 E3.29126
G1 X108.748 Y93.603 E3.31760
G1 X109.247 Y94.319 E3.34460
G1 X109.599 Y95.076 E3.37043
G1 X109.820 Y95.900 E3.39684
G1 X109.900 Y96.820 E3.42541
G1 X109.900 Y100.275 E3.53231
G1 E1.53231 F2400.00000
G92 E0
G1 X90.100 Y100.350 F7800.000
G1 E2.00000 F2400.00000
G1 F1800
G1 X90.100 Y96.819 E2.10924
G1 X90.178 Y95.918 E2.13724
G1 X90.399 Y95.084 E2.16392
G1 X90.765 Y94.298 E2.19076
G1 X91.251 Y93.604 E2.21696
G1 X91.854 Y93.001 E2.24336
G1 X92.553 Y92.511 E2.26977
G1 X93.313 Y92.157 E2.29572
G1 X94.155 Y91.930 E2.32269
G1 X95.070 Y91.850 E2.35110
G1 X95.855 Y91.850 E2.37540
G1 X95.920 Y92.144 E2.38471
G1 X95.447 Y92.364 E2.40084
G1 X94.152 Y93.271 E2.44977
G1 X93.024 Y94.397 E2.49910
G1 X92.114 Y95.696 E2.54816
G1 X91.443 Y97.136 E2.59730
G1 X91.032 Y98.669 E2.64641
G1 X90.900 Y100.180 E2.69335
G1 X90.900 Y108.150 E2.93996
G1 X83.600 Y108.150 E3.16584
G1 X83.600 Y104.413 E3.28149
G1 X87.663 Y100.350 E3.45927
G1 X90.025 Y100.350 E3.53236
G1 X89.475 Y99.725 F7800.000
G1 F1800
G1 X89.475 Y96.792 E3.62310
G1 X89.560 Y95.810 E3.65361
G1 X89.809 Y94.870 E3.68367
G1 X90.222 Y93.984 E3.71393
G1 X90.770 Y93.201 E3.74351
G1 X91.451 Y92.520 E3.77330
G1 X92.239 Y91.968 E3.80308
G1 X93.098 Y91.567 E3.83240
G1 X94.045 Y91.312 E3.86276
G1 X95.042 Y91.225 E3.89373
G1 X104.965 Y91.225 E4.20075
G1 X105.955 Y91.312 E4.23148
G1 X106.882 Y91.560 E4.26118
G1 X107.761 Y91.969 E4.29118
G1 X108.549 Y92.520 E4.32094
G1 X109.229 Y93.200 E4.35069
G1 X109.790 Y94.006 E4.38108
G1 X110.188 Y94.861 E4.41026
G1 X110.438 Y95.791 E4.44006
G1 X110.525 Y96.793 E4.47116
G1 X110.525 Y99.725 E4.56189
G1 X112.596 Y99.725 E4.62597
G1 X117.025 Y104.154 E4.81977
G1 X117.025 Y108.775 E4.96276
G1 X108.475 Y108.775 E5.22731
G1 X108.475 Y100.207 E5.49241
G1 X108.350 Y98.778 E5.53681
G1 X107.967 Y97.350 E5.58254
G1 X107.342 Y96.009 E5.62834
G1 X106.495 Y94.800 E5.67401
G1 X105.445 Y93.751 E5.71991
G1 X104.239 Y92.907 E5.76546
G1 X102.900 Y92.283 E5.81119
G1 X101.472 Y91.900 E5.85691
G1 X100.000 Y91.771 E5.90264
G1 X98.528 Y91.900 E5.94837
G1 X97.100 Y92.283 E5.99410
G1 X95.761 Y92.907 E6.03983
G1 X94.555 Y93.751 E6.08538
G1 X93.504 Y94.801 E6.13132
G1 X92.658 Y96.010 E6.17699
G1 X92.033 Y97.350 E6.22275
G1 X91.650 Y98.778 E6.26847
G1 X91.525 Y100.207 E6.31288
G1 X91.525 Y108.775 E6.57798
G1 X82.975 Y108.775 E6.84253
G1 X82.975 Y104.154 E6.98552
G1 X87.404 Y99.725 E7.17932
G1 X89.400 Y99.725 E7.24108
G1 X88.850 Y99.100 F7800.000
G1 F1800
G1 X88.850 Y96.765 E7.31332
G1 X88.942 Y95.702 E7.34634
G1 X89.219 Y94.657 E7.37979
G1 X89.678 Y93.671 E7.41346
G1 X90.290 Y92.798 E7.44643
G1 X91.048 Y92.040 E7.47960
G1 X91.926 Y91.425 E7.51276
G1 X92.883 Y90.978 E7.54545
G1 X93.936 Y90.694 E7.57920
G1 X95.015 Y90.600 E7.61272
G1 X104.993 Y90.600 E7.92143
G1 X106.063 Y90.694 E7.95469
G1 X107.096 Y90.970 E7.98776
G1 X108.074 Y91.425 E8.02115
G1 X108.952 Y92.040 E8.05430
G1 X109.710 Y92.798 E8.08745
G1 X110.334 Y93.693 E8.12123
G1 X110.778 Y94.647 E8.15378
G1 X111.055 Y95.682 E8.18695
G1 X111.150 Y96.765 E8.22059
G1 X111.150 Y99.100 E8.29283
G1 X112.855 Y99.100 E8.34558
G1 X117.650 Y103.895 E8.55540
G1 X117.650 Y109.400 E8.72573
G1 X107.850 Y109.400 E9.02896
G1 X107.850 Y100.235 E9.31254
G1 X107.732 Y98.887 E9.35441
G1 X107.378 Y97.565 E9.39676
G1 X106.798 Y96.322 E9.43917
G1 X106.014 Y95.203 E9.48145
G1 X105.042 Y94.232 E9.52397
G1 X103.926 Y93.451 E9.56614
G1 X102.685 Y92.872 E9.60849
G1 X101.363 Y92.518 E9.65083
G1 X100.000 Y92.399 E9.69318
G1 X98.637 Y92.518 E9.73552
G1 X97.315 Y92.872 E9.77787
G1 X96.074 Y93.451 E9.82021
G1 X94.958 Y94.232 E9.86239
G1 X93.985 Y95.204 E9.90494
G1 X93.201 Y96.324 E9.94723
G1 X92.622 Y97.565 E9.98960
G1 X92.268 Y98.887 E10.03194
G1 X92.150 Y100.235 E10.07381
G1 X92.150 Y109.400 E10.35740
G1 X82.350 Y109.400 E10.66062
G1 X82.350 Y103.895 E10.83096
G1 X87.145 Y99.100 E11.04077
G1 X88.775 Y99.100 E11.09121
G1 X89.339 Y98.995 F7800.000
G1 X88.165 Y100.732 F7800.000
G1 F1800
G1 X83.982 Y104.915 E11.27564
G1 X83.982 Y105.805 E11.30340
G1 X89.055 Y100.732 E11.52708
G1 X89.946 Y100.732 E11.55484
G1 X83.982 Y106.696 E11.81779
G1 X83.982 Y107.586 E11.84555
G1 X90.518 Y101.049 E12.13375
G1 X90.518 Y101.940 E12.16151
G1 X84.690 Y107.768 E12.41850
G1 X85.580 Y107.768 E12.44626
G1 X90.518 Y102.830 E12.66399
G1 X90.518 Y103.720 E12.69175
G1 X86.470 Y107.768 E12.87022
G1 X87.361 Y107.768 E12.89798
G1 X90.518 Y104.611 E13.03719
G1 X90.518 Y105.501 E13.06495
G1 X88.251 Y107.768 E13.16490
G1 X89.142 Y107.768 E13.19266
G1 X90.518 Y106.392 E13.25336
G1 X90.518 Y107.282 E13.28112
G1 X90.032 Y107.768 E13.30255
G1 E11.30255 F2400.00000
G92 E0
G1 X90.500 Y100.662 F7800.000
G1 E2.00000 F2400.00000
G1 F1800
G1 X90.500 Y100.159 E2.00251
G1 F1800
G1 X90.546 Y99.120 E2.01237
G1 F1800
G1 X90.571 Y98.573 E2.01892
G1 F1800
G1 X90.632 Y98.109 E2.02682
G1 F1800
G1 X90.693 Y97.644 E2.03701
G1 F1800
G1 X90.754 Y97.180 E2.04950
G1 F1800
G1 X90.815 Y96.715 E2.06429
G1 X90.976 Y96.381 F7800.000
G1 F1800
G1 X91.462 Y95.895 E2.08981
G1 X90.742 Y95.555 F7800.000
G1 F1800
G1 X93.287 Y93.010 E2.22344
G1 X93.537 Y92.833 F7800.000
G1 F1800
G1 X94.242 Y92.503 E2.24519
G1 F1800
G1 X94.947 Y92.174 E2.26396
G1 X96.186 Y91.899 F7800.000
G1 F1800
G1 X96.934 Y91.767 E2.27892
G1 F1800
G1 X97.299 Y91.718 E2.28506
G1 F1800
G1 X97.665 Y91.670 E2.28950
G1 F1800
G1 X98.031 Y91.622 E2.29223
G1 F1800
G1 X98.397 Y91.574 E2.29325
G1 E0.29325 F2400.00000
G92 E0
G1 X101.604 Y91.574 F7800.000
G1 E2.00000 F2400.00000
G1 F1800
G1 X101.787 Y91.598 E2.00051
G1 F1800
G1 X102.152 Y91.646 E2.00323
G1 F1800
G1 X102.518 Y91.695 E2.00766
G1 F1800
G1 X102.884 Y91.743 E2.01381
G1 F1800
G1 X103.815 Y91.899 E2.03239
G1 X105.050 Y92.174 F7800.000
G1 F1800
G1 X105.758 Y92.503 E2.05275
G1 F1800
G1 X106.465 Y92.833 E2.07613
G1 X106.822 Y93.266 F7800.000
G1 F1800
G1 X107.308 Y92.780 E2.10115
G1 X107.930 Y93.199 E2.12843
G1 X107.052 Y94.076 E2.17359
G1 X107.212 Y94.236 E2.18182
G1 X107.509 Y94.659 E2.20065
G1 X108.458 Y93.711 E2.24950
G1 X108.510 Y93.763 E2.25217
G1 X108.894 Y94.314 E2.27665
G1 X107.938 Y95.271 E2.32591
G1 X108.185 Y95.624 E2.34161
G1 X108.325 Y95.924 E2.35364
G1 X109.236 Y95.012 E2.40058
G1 X109.451 Y95.837 E2.43161
G1 X108.965 Y96.323 E2.45665
G1 X109.185 Y96.713 F7800.000
G1 F1800
G1 X109.215 Y96.946 E2.46405
G1 F1800
G1 X109.276 Y97.411 E2.47656
G1 F1800
G1 X109.338 Y97.876 E2.48676
G1 F1800
G1 X109.399 Y98.341 E2.49467
G1 F1800
G1 X109.432 Y98.601 E2.49781
G1 F1800
G1 X109.477 Y99.639 E2.50767
G1 F1800
G1 X109.500 Y100.662 E2.51276
G1 X109.482 Y101.530 F7800.000
G1 F1800
G1 X109.968 Y101.044 E2.53551
G1 X110.470 Y101.044 E2.55212
G1 X110.463 Y100.732 E2.56246
G1 X111.226 Y100.732 E2.58771
G1 X109.482 Y102.476 E2.66933
G1 X109.482 Y103.421 E2.70062
G1 X112.171 Y100.732 E2.82649
G1 X112.322 Y100.732 E2.83148
G1 X112.719 Y101.129 E2.85007
G1 X109.482 Y104.366 E3.00159
G1 X109.482 Y105.311 E3.03288
G1 X113.191 Y101.602 E3.20652
G1 X113.664 Y102.074 E3.22864
G1 X109.482 Y106.257 E3.42440
G1 X109.482 Y107.202 E3.45569
G1 X114.137 Y102.547 E3.67358
G1 X114.609 Y103.019 E3.69570
G1 X109.860 Y107.768 E3.91797
G1 X110.806 Y107.768 E3.94926
G1 X115.082 Y103.492 E4.14941
G1 X115.555 Y103.965 E4.17154
G1 X111.751 Y107.768 E4.34957
G1 X112.696 Y107.768 E4.38085
G1 X116.018 Y104.446 E4.53634
G1 X116.018 Y105.392 E4.56763
G1 X113.642 Y107.768 E4.67887
G1 X114.587 Y107.768 E4.71016
G1 X116.018 Y106.337 E4.77716
G1 X116.018 Y107.282 E4.80845
G1 X115.532 Y107.768 E4.83120
G1 E2.83120 F2400.00000
G92 E0
G1 X94.275 Y106.489 F7800.000
G1 E2.00000 F2400.00000
G1 F1800
G1 X95.282 Y107.295 E2.03991
G1 X96.531 Y107.986 E2.08408
G1 X97.891 Y108.463 E2.12867
G1 X97.838 Y108.775 E2.13847
G1 X94.275 Y108.775 E2.24872
G1 X94.275 Y106.564 E2.31713
G1 E0.31713 F2400.00000
G92 E0
G1 X102.109 Y108.463 F7800.000
G1 E2.00000 F2400.00000
G1 F1800
G1 X103.469 Y107.986 E2.04459
G1 X104.718 Y107.295 E2.08877
G1 X105.725 Y106.489 E2.12867
G1 X105.725 Y108.775 E2.19940
G1 X102.162 Y108.775 E2.30965
G1 X102.121 Y108.537 E2.31713
G1 E0.31713 F2400.00000
G92 E0
G1 X106.350 Y109.400 F7800.000
G1 E2.00000 F2400.00000
G1 F1800
G1 X93.650 Y109.400 E2.39295
G1 X93.650 Y104.883 E2.53271
G1 X94.599 Y105.948 E2.57683
G1 X95.631 Y106.773 E2.61774
G1 X96.788 Y107.414 E2.65864
G1 X98.036 Y107.852 E2.69955
G1 X99.339 Y108.073 E2.74046
G1 X100.661 Y108.073 E2.78137
G1 X101.964 Y107.852 E2.82228
G1 X103.212 Y107.414 E2.86319
G1 X104.369 Y106.773 E2.90410
G1 X105.401 Y105.948 E2.94501
G1 X106.350 Y104.883 E2.98913
G1 X106.350 Y109.325 E3.12656
G1 X105.896 Y109.190 F7800.000
G1 X104.741 Y108.463 F7800.000
G1 F1800
G1 X105.413 Y107.207 E3.17072
G1 E1.17072 F2400.00000
G92 E0
G1 X101.822 Y108.643 F7800.000
G1 E2.00000 F2400.00000
G1 F1800
G1 X101.105 Y108.704 E2.02652
G1 F1800
G1 X100.687 Y108.737 E2.04041
G1 X99.313 Y108.737 E2.08597
G1 X98.536 Y108.674 E2.11178
G1 F1800
G1 X98.178 Y108.643 E2.12504
G1 E0.12504 F2400.00000
G92 E0
G1 X95.259 Y108.463 F7800.000
G1 E2.00000 F2400.00000
G1 F1800
G1 X94.587 Y107.207 E2.04417
G1 Z0.650 F7800.000
G1 E0.04417 F2400.00000
G92 E0
G1 X110.029 Y100.221 F7800.000
G1 E2.00000 F2400.00000
G1 F3600
G1 X112.391 Y100.221 E2.06371
G1 X116.529 Y104.359 E2.22159
G1 X116.529 Y108.279 E2.32732
G1 X108.971 Y108.279 E2.53119
G1 X108.971 Y100.186 E2.74951
G1 X108.840 Y98.691 E2.78999
G1 X108.435 Y97.180 E2.83220
G1 X107.774 Y95.762 E2.87441
G1 X106.876 Y94.479 E2.91665
G1 X105.757 Y93.363 E2.95930
G1 X104.488 Y92.476 E3.00105
G1 X103.513 Y92.021 E3.03007
G1 X103.580 Y91.722 E3.03832
G1 X104.958 Y91.722 E3.07551
G1 X105.861 Y91.802 E3.09997
G1 X106.700 Y92.025 E3.12339
G1 X107.513 Y92.401 E3.14755
G1 X108.229 Y92.902 E3.17111
G1 X108.844 Y93.518 E3.19461
G1 X109.374 Y94.284 E3.21973
G1 X109.720 Y95.030 E3.24192
G1 X109.947 Y95.878 E3.26559
G1 X110.029 Y96.814 E3.29095
G1 X110.029 Y100.146 E3.38083
G1 E1.38083 F2400.00000
G92 E0
G1 X89.971 Y100.221 F7800.000
G1 E2.00000 F2400.00000
G1 F3600
G1 X89.971 Y96.812 E2.09196
G1 X90.046 Y95.928 E2.11589
G1 X90.273 Y95.055 E2.14022
G1 X90.660 Y94.224 E2.16497
G1 X91.152 Y93.521 E2.18810
G1 X91.771 Y92.902 E2.21173
G1 X92.489 Y92.399 E2.23538
G1 X93.245 Y92.046 E2.25788
G1 X94.141 Y91.801 E2.28293
G1 X95.064 Y91.721 E2.30793
G1 X96.427 Y91.721 E2.34471
G1 X96.494 Y92.020 E2.35297
G1 X95.498 Y92.484 E2.38260
G1 X94.230 Y93.374 E2.42439
G1 X93.123 Y94.480 E2.46659
G1 X92.226 Y95.762 E2.50880
G1 X91.565 Y97.180 E2.55102
G1 X91.160 Y98.691 E2.59323
G1 X91.029 Y100.186 E2.63370
G1 X91.029 Y108.279 E2.85202
G1 X83.471 Y108.279 E3.05590
G1 X83.471 Y104.359 E3.16163
G1 X87.609 Y100.221 E3.31950
G1 X89.896 Y100.221 E3.38119
G1 X89.336 Y99.586 F7800.000
G1 F3600
G1 X89.336 Y96.785 E3.45673
G1 X89.418 Y95.821 E3.48285
G1 X89.672 Y94.840 E3.51018
G1 X90.107 Y93.905 E3.53801
G1 X90.663 Y93.111 E3.56415
G1 X91.361 Y92.413 E3.59078
G1 X92.170 Y91.847 E3.61741
G1 X93.025 Y91.447 E3.64288
G1 X94.029 Y91.173 E3.67094
G1 X95.036 Y91.086 E3.69823
G1 X104.986 Y91.087 E3.96663
G1 X105.971 Y91.173 E3.99332
G1 X106.917 Y91.425 E4.01972
G1 X107.832 Y91.848 E4.04690
G1 X108.639 Y92.413 E4.07349
G1 X109.335 Y93.109 E4.10004
G1 X109.928 Y93.967 E4.12818
G1 X110.320 Y94.813 E4.15332
G1 X110.575 Y95.767 E4.17996
G1 X110.664 Y96.786 E4.20757
G1 X110.664 Y99.586 E4.28308
G1 X112.654 Y99.586 E4.33675
G1 X117.164 Y104.096 E4.50883
G1 X117.164 Y108.914 E4.63881
G1 X108.336 Y108.914 E4.87698
G1 X108.336 Y100.214 E5.11170
G1 X108.212 Y98.802 E5.14992
G1 X107.836 Y97.398 E5.18914
G1 X107.222 Y96.081 E5.22835
G1 X106.388 Y94.889 E5.26758
G1 X105.347 Y93.852 E5.30721
G1 X104.169 Y93.028 E5.34598
G1 X102.852 Y92.414 E5.38519
G1 X101.448 Y92.038 E5.42440
G1 X100.000 Y91.911 E5.46361
G1 X98.552 Y92.038 E5.50282
G1 X97.164 Y92.409 E5.54158
G1 X95.817 Y93.037 E5.58167
G1 X94.640 Y93.862 E5.62046
G1 X93.612 Y94.890 E5.65967
G1 X92.778 Y96.081 E5.69888
G1 X92.164 Y97.398 E5.73809
G1 X91.788 Y98.802 E5.77730
G1 X91.664 Y100.214 E5.81553
G1 X91.664 Y108.914 E6.05024
G1 X82.836 Y108.914 E6.28841
G1 X82.836 Y104.096 E6.41839
G1 X87.346 Y99.586 E6.59047
G1 X89.261 Y99.586 E6.64212
G1 X88.775 Y99.025 F7800.000
G1 F1800
G1 X88.775 Y96.762 E6.68877
G1 X88.863 Y95.726 E6.71018
G1 X89.142 Y94.650 E6.73310
G1 X89.619 Y93.623 E6.75644
G1 X90.232 Y92.749 E6.77843
G1 X90.999 Y91.982 E6.80079
G1 X91.888 Y91.360 E6.82316
G1 X92.831 Y90.919 E6.84461
G1 X93.930 Y90.619 E6.86809
G1 X95.012 Y90.525 E6.89047
G1 X105.010 Y90.526 E7.09654
G1 X106.069 Y90.619 E7.11844
G1 X107.108 Y90.895 E7.14061
G1 X108.112 Y91.360 E7.16341
G1 X109.001 Y91.982 E7.18577
G1 X109.767 Y92.749 E7.20811
G1 X110.416 Y93.688 E7.23164
G1 X110.849 Y94.621 E7.25283
G1 X111.129 Y95.669 E7.27520
G1 X111.225 Y96.762 E7.29781
G1 X111.225 Y99.025 E7.34445
G1 X112.886 Y99.025 E7.37868
G1 X117.725 Y103.864 E7.51972
G1 X117.725 Y109.475 E7.63537
G1 X107.775 Y109.475 E7.84044
G1 X107.775 Y100.238 E8.03082
G1 X107.658 Y98.900 E8.05851
G1 X107.307 Y97.590 E8.08645
G1 X106.734 Y96.362 E8.11438
G1 X105.957 Y95.251 E8.14232
G1 X104.986 Y94.283 E8.17058
G1 X103.888 Y93.516 E8.19819
G1 X102.660 Y92.943 E8.22612
G1 X101.350 Y92.592 E8.25406
G1 X100.000 Y92.474 E8.28200
G1 X98.650 Y92.592 E8.30993
G1 X97.356 Y92.938 E8.33753
G1 X96.099 Y93.524 E8.36613
G1 X95.002 Y94.293 E8.39374
G1 X94.043 Y95.252 E8.42167
G1 X93.266 Y96.362 E8.44961
G1 X92.693 Y97.590 E8.47755
G1 X92.342 Y98.900 E8.50548
G1 X92.225 Y100.238 E8.53317
